(G-CODE GENERATED BY FLATCAM v8.994 - www.flatcam.org - Version Date: 2020/11/7)

(Name: Power distribution 3pin 1-to-8-PTH.drl_cnc)
(Type: G-code from Geometry)
(Units: MM)

(Created on Saturday, 03 June 2023 at 13:38)

(This preprocessor is the default preprocessor used by FlatCAM.)
(It is made to work with MACH3 compatible motion controllers.)


(TOOLS DIAMETER: )
(Tool: 1 -> Dia: 1.0)

(FEEDRATE Z: )
(Tool: 1 -> Feedrate: 200.0)

(FEEDRATE RAPIDS: )
(Tool: 1 -> Feedrate Rapids: 1500)

(Z_CUT: )
(Tool: 1 -> Z_Cut: -1.8)

(Tools Offset: )
(Tool: 1 -> Offset Z: 0.0)

(Z_MOVE: )
(Tool: 1 -> Z_Move: 2)

(Z Toolchange: 15.0 mm)
(X,Y Toolchange: 0.0000, 0.0000 mm)
(Z Start: None mm)
(Z End: 0.5 mm)
(X,Y End: None mm)
(Steps per circle: 64)
(Preprocessor Excellon: default)

(X range:    2.8500 ...   29.2500  mm)
(Y range:    2.2000 ...   79.4000  mm)

(Spindle Speed: 5000 RPM)
G21
G90
G94

G01 F200.00

M5
G00 Z15.0000
T1
G00 X0.0000 Y0.0000                
M6
(MSG, Change to Tool Dia = 1.0000 ||| Total drills for tool T1 = 27)
M0
G00 Z15.0000

G01 F200.00
M03 S5000
G00 X3.3500 Y59.8500
G01 Z-1.8000
G01 Z0
G00 Z2.0000
G00 X5.8900 Y59.8500
G01 Z-1.8000
G01 Z0
G00 Z2.0000
G00 X8.4300 Y59.8500
G01 Z-1.8000
G01 Z0
G00 Z2.0000
G00 X16.0500 Y78.9000
G01 Z-1.8000
G01 Z0
G00 Z2.0000
G00 X16.0500 Y76.3600
G01 Z-1.8000
G01 Z0
G00 Z2.0000
G00 X16.0500 Y73.8200
G01 Z-1.8000
G01 Z0
G00 Z2.0000
G00 X23.6700 Y59.8500
G01 Z-1.8000
G01 Z0
G00 Z2.0000
G00 X26.2100 Y59.8500
G01 Z-1.8000
G01 Z0
G00 Z2.0000
G00 X28.7500 Y59.8500
G01 Z-1.8000
G01 Z0
G00 Z2.0000
G00 X23.6700 Y40.8000
G01 Z-1.8000
G01 Z0
G00 Z2.0000
G00 X26.2100 Y40.8000
G01 Z-1.8000
G01 Z0
G00 Z2.0000
G00 X28.7500 Y40.8000
G01 Z-1.8000
G01 Z0
G00 Z2.0000
G00 X23.6700 Y21.7500
G01 Z-1.8000
G01 Z0
G00 Z2.0000
G00 X26.2100 Y21.7500
G01 Z-1.8000
G01 Z0
G00 Z2.0000
G00 X28.7500 Y21.7500
G01 Z-1.8000
G01 Z0
G00 Z2.0000
G00 X28.7500 Y2.7000
G01 Z-1.8000
G01 Z0
G00 Z2.0000
G00 X26.2100 Y2.7000
G01 Z-1.8000
G01 Z0
G00 Z2.0000
G00 X23.6700 Y2.7000
G01 Z-1.8000
G01 Z0
G00 Z2.0000
G00 X8.4300 Y2.7000
G01 Z-1.8000
G01 Z0
G00 Z2.0000
G00 X5.8900 Y2.7000
G01 Z-1.8000
G01 Z0
G00 Z2.0000
G00 X3.3500 Y2.7000
G01 Z-1.8000
G01 Z0
G00 Z2.0000
G00 X3.3500 Y21.7500
G01 Z-1.8000
G01 Z0
G00 Z2.0000
G00 X5.8900 Y21.7500
G01 Z-1.8000
G01 Z0
G00 Z2.0000
G00 X8.4300 Y21.7500
G01 Z-1.8000
G01 Z0
G00 Z2.0000
G00 X8.4300 Y40.8000
G01 Z-1.8000
G01 Z0
G00 Z2.0000
G00 X5.8900 Y40.8000
G01 Z-1.8000
G01 Z0
G00 Z2.0000
G00 X3.3500 Y40.8000
G01 Z-1.8000
G01 Z0
G00 Z2.0000
M05
G00 Z0.50


