(G-CODE GENERATED BY FLATCAM v8.994 - www.flatcam.org - Version Date: 2020/11/7)

(Name: Power distribution 3pin 1-to-8-F_Cu.gbr_cutout_cnc)
(Type: G-code from Geometry)
(Units: MM)

(Created on Saturday, 03 June 2023 at 13:37)

(This preprocessor is the default preprocessor used by FlatCAM.)
(It is made to work with MACH3 compatible motion controllers.)

(TOOL DIAMETER: 1.0 mm)
(Feedrate_XY: 120.0 mm/min)
(Feedrate_Z: 60.0 mm/min)
(Feedrate rapids 1500.0 mm/min)

(Z_Cut: -1.8 mm)
(DepthPerCut: 0.6 mm <=>3 passes)
(Z_Move: 2.0 mm)
(Z Start: None mm)
(Z End: 5.0 mm)
(X,Y End: None mm)
(Steps per circle: 64)
(Preprocessor Geometry: default)

(X range:    1.0000 ...   31.1000  mm)
(Y range:    0.3500 ...   81.2500  mm)

(Spindle Speed: 5000.0 RPM)
G21
G90
G94

G01 F120.00

M5
G00 Z15.0000
G00 X0.0000 Y0.0000
T1
M6    
(MSG, Change to Tool Dia = 1.0000)
M0
G00 Z15.0000

M03 S5000.0
G01 F120.00
G00 X29.6000 Y0.3500
G01 F60.00
G01 Z-0.6000
G01 F120.00
G01 X2.5000 Y0.3500
G01 X2.3530 Y0.3572
G01 X2.2074 Y0.3788
G01 X2.0646 Y0.4146
G01 X1.9260 Y0.4642
G01 X1.7929 Y0.5271
G01 X1.6666 Y0.6028
G01 X1.5484 Y0.6905
G01 X1.4393 Y0.7893
G01 X1.3405 Y0.8984
G01 X1.2528 Y1.0166
G01 X1.1771 Y1.1429
G01 X1.1142 Y1.2760
G01 X1.0646 Y1.4146
G01 X1.0288 Y1.5574
G01 X1.0072 Y1.7030
G01 X1.0000 Y1.8500
G01 X1.0000 Y79.7500
G01 X1.0072 Y79.8970
G01 X1.0288 Y80.0426
G01 X1.0646 Y80.1854
G01 X1.1142 Y80.3240
G01 X1.1771 Y80.4571
G01 X1.2528 Y80.5834
G01 X1.3405 Y80.7016
G01 X1.4393 Y80.8107
G01 X1.5484 Y80.9095
G01 X1.6666 Y80.9972
G01 X1.7929 Y81.0729
G01 X1.9260 Y81.1358
G01 X2.0646 Y81.1854
G01 X2.2074 Y81.2212
G01 X2.3530 Y81.2428
G01 X2.5000 Y81.2500
G01 X29.6000 Y81.2500
G01 X29.7470 Y81.2428
G01 X29.8926 Y81.2212
G01 X30.0354 Y81.1854
G01 X30.1740 Y81.1358
G01 X30.3071 Y81.0729
G01 X30.4334 Y80.9972
G01 X30.5516 Y80.9095
G01 X30.6607 Y80.8107
G01 X30.7595 Y80.7016
G01 X30.8472 Y80.5834
G01 X30.9229 Y80.4571
G01 X30.9858 Y80.3240
G01 X31.0354 Y80.1854
G01 X31.0712 Y80.0426
G01 X31.0928 Y79.8970
G01 X31.1000 Y79.7500
G01 X31.1000 Y1.8500
G01 X31.0928 Y1.7030
G01 X31.0712 Y1.5574
G01 X31.0354 Y1.4146
G01 X30.9858 Y1.2760
G01 X30.9229 Y1.1429
G01 X30.8472 Y1.0166
G01 X30.7595 Y0.8984
G01 X30.6607 Y0.7893
G01 X30.5516 Y0.6905
G01 X30.4334 Y0.6028
G01 X30.3071 Y0.5271
G01 X30.1740 Y0.4642
G01 X30.0354 Y0.4146
G01 X29.8926 Y0.3788
G01 X29.7470 Y0.3572
G01 X29.6000 Y0.3500
G00 X29.6000 Y0.3500
G01 F60.00
G01 Z-1.2000
G01 F120.00
G01 X29.7470 Y0.3572
G01 X29.8926 Y0.3788
G01 X30.0354 Y0.4146
G01 X30.1740 Y0.4642
G01 X30.3071 Y0.5271
G01 X30.4334 Y0.6028
G01 X30.5516 Y0.6905
G01 X30.6607 Y0.7893
G01 X30.7595 Y0.8984
G01 X30.8472 Y1.0166
G01 X30.9229 Y1.1429
G01 X30.9858 Y1.2760
G01 X31.0354 Y1.4146
G01 X31.0712 Y1.5574
G01 X31.0928 Y1.7030
G01 X31.1000 Y1.8500
G01 X31.1000 Y79.7500
G01 X31.0928 Y79.8970
G01 X31.0712 Y80.0426
G01 X31.0354 Y80.1854
G01 X30.9858 Y80.3240
G01 X30.9229 Y80.4571
G01 X30.8472 Y80.5834
G01 X30.7595 Y80.7016
G01 X30.6607 Y80.8107
G01 X30.5516 Y80.9095
G01 X30.4334 Y80.9972
G01 X30.3071 Y81.0729
G01 X30.1740 Y81.1358
G01 X30.0354 Y81.1854
G01 X29.8926 Y81.2212
G01 X29.7470 Y81.2428
G01 X29.6000 Y81.2500
G01 X2.5000 Y81.2500
G01 X2.3530 Y81.2428
G01 X2.2074 Y81.2212
G01 X2.0646 Y81.1854
G01 X1.9260 Y81.1358
G01 X1.7929 Y81.0729
G01 X1.6666 Y80.9972
G01 X1.5484 Y80.9095
G01 X1.4393 Y80.8107
G01 X1.3405 Y80.7016
G01 X1.2528 Y80.5834
G01 X1.1771 Y80.4571
G01 X1.1142 Y80.3240
G01 X1.0646 Y80.1854
G01 X1.0288 Y80.0426
G01 X1.0072 Y79.8970
G01 X1.0000 Y79.7500
G01 X1.0000 Y1.8500
G01 X1.0072 Y1.7030
G01 X1.0288 Y1.5574
G01 X1.0646 Y1.4146
G01 X1.1142 Y1.2760
G01 X1.1771 Y1.1429
G01 X1.2528 Y1.0166
G01 X1.3405 Y0.8984
G01 X1.4393 Y0.7893
G01 X1.5484 Y0.6905
G01 X1.6666 Y0.6028
G01 X1.7929 Y0.5271
G01 X1.9260 Y0.4642
G01 X2.0646 Y0.4146
G01 X2.2074 Y0.3788
G01 X2.3530 Y0.3572
G01 X2.5000 Y0.3500
G01 X29.6000 Y0.3500
G00 X29.6000 Y0.3500
G01 F60.00
G01 Z-1.8000
G01 F120.00
G01 X2.5000 Y0.3500
G01 X2.3530 Y0.3572
G01 X2.2074 Y0.3788
G01 X2.0646 Y0.4146
G01 X1.9260 Y0.4642
G01 X1.7929 Y0.5271
G01 X1.6666 Y0.6028
G01 X1.5484 Y0.6905
G01 X1.4393 Y0.7893
G01 X1.3405 Y0.8984
G01 X1.2528 Y1.0166
G01 X1.1771 Y1.1429
G01 X1.1142 Y1.2760
G01 X1.0646 Y1.4146
G01 X1.0288 Y1.5574
G01 X1.0072 Y1.7030
G01 X1.0000 Y1.8500
G01 X1.0000 Y79.7500
G01 X1.0072 Y79.8970
G01 X1.0288 Y80.0426
G01 X1.0646 Y80.1854
G01 X1.1142 Y80.3240
G01 X1.1771 Y80.4571
G01 X1.2528 Y80.5834
G01 X1.3405 Y80.7016
G01 X1.4393 Y80.8107
G01 X1.5484 Y80.9095
G01 X1.6666 Y80.9972
G01 X1.7929 Y81.0729
G01 X1.9260 Y81.1358
G01 X2.0646 Y81.1854
G01 X2.2074 Y81.2212
G01 X2.3530 Y81.2428
G01 X2.5000 Y81.2500
G01 X29.6000 Y81.2500
G01 X29.7470 Y81.2428
G01 X29.8926 Y81.2212
G01 X30.0354 Y81.1854
G01 X30.1740 Y81.1358
G01 X30.3071 Y81.0729
G01 X30.4334 Y80.9972
G01 X30.5516 Y80.9095
G01 X30.6607 Y80.8107
G01 X30.7595 Y80.7016
G01 X30.8472 Y80.5834
G01 X30.9229 Y80.4571
G01 X30.9858 Y80.3240
G01 X31.0354 Y80.1854
G01 X31.0712 Y80.0426
G01 X31.0928 Y79.8970
G01 X31.1000 Y79.7500
G01 X31.1000 Y1.8500
G01 X31.0928 Y1.7030
G01 X31.0712 Y1.5574
G01 X31.0354 Y1.4146
G01 X30.9858 Y1.2760
G01 X30.9229 Y1.1429
G01 X30.8472 Y1.0166
G01 X30.7595 Y0.8984
G01 X30.6607 Y0.7893
G01 X30.5516 Y0.6905
G01 X30.4334 Y0.6028
G01 X30.3071 Y0.5271
G01 X30.1740 Y0.4642
G01 X30.0354 Y0.4146
G01 X29.8926 Y0.3788
G01 X29.7470 Y0.3572
G01 X29.6000 Y0.3500
G00 Z2.0000
M05
G00 Z2.0000
G00 Z5.00


