(G-CODE GENERATED BY FLATCAM v8.994 - www.flatcam.org - Version Date: 2020/11/7)

(Name: Power distribution 3pin 1-to-8-F_Cu.gbr_iso_combined_cnc)
(Type: G-code from Geometry)
(Units: MM)

(Created on Saturday, 03 June 2023 at 12:42)

(This preprocessor is the default preprocessor used by FlatCAM.)
(It is made to work with MACH3 compatible motion controllers.)

(TOOL DIAMETER: 0.8 mm)
(Feedrate_XY: 120.0 mm/min)
(Feedrate_Z: 60.0 mm/min)
(Feedrate rapids 1500.0 mm/min)

(Z_Cut: -0.15 mm)
(Z_Move: 2.0 mm)
(Z Start: None mm)
(Z End: 5.0 mm)
(X,Y End: None mm)
(Steps per circle: 64)
(Preprocessor Geometry: default)

(X range:    1.1000 ...   29.0000  mm)
(Y range:    0.4500 ...   79.1500  mm)

(Spindle Speed: 2500.0 RPM)
G21
G90
G94

G01 F120.00

M5
G00 Z15.0000
G00 X0.0000 Y0.0000
T1
M6    
(MSG, Change to Tool Dia = 0.8000)
M0
G00 Z15.0000

M03 S2500.0
G01 F120.00
G00 X1.1996 Y2.8141
G01 F60.00
G01 Z-0.1500
G01 F120.00
G01 X1.1908 Y2.8038
G01 X1.1787 Y2.7883
G01 X1.1621 Y2.7640
G01 X1.1520 Y2.7472
G01 X1.1427 Y2.7298
G01 X1.1304 Y2.7031
G01 X1.1234 Y2.6848
G01 X1.1172 Y2.6661
G01 X1.1097 Y2.6376
G01 X1.1043 Y2.6087
G01 X1.1019 Y2.5892
G01 X1.1005 Y2.5696
G01 X1.1000 Y2.5500
G01 X1.1000 Y0.8500
G01 X1.1005 Y0.8304
G01 X1.1019 Y0.8108
G01 X1.1043 Y0.7913
G01 X1.1077 Y0.7720
G01 X1.1120 Y0.7528
G01 X1.1172 Y0.7339
G01 X1.1234 Y0.7152
G01 X1.1304 Y0.6969
G01 X1.1384 Y0.6790
G01 X1.1472 Y0.6614
G01 X1.1569 Y0.6444
G01 X1.1674 Y0.6278
G01 X1.1787 Y0.6117
G01 X1.1908 Y0.5962
G01 X1.2036 Y0.5814
G01 X1.2172 Y0.5672
G01 X1.2314 Y0.5536
G01 X1.2462 Y0.5408
G01 X1.2617 Y0.5287
G01 X1.2778 Y0.5174
G01 X1.2944 Y0.5069
G01 X1.3114 Y0.4972
G01 X1.3290 Y0.4884
G01 X1.3469 Y0.4804
G01 X1.3652 Y0.4734
G01 X1.3839 Y0.4672
G01 X1.4028 Y0.4620
G01 X1.4220 Y0.4577
G01 X1.4413 Y0.4543
G01 X1.4608 Y0.4519
G01 X1.4804 Y0.4505
G01 X1.5000 Y0.4500
G01 X3.2000 Y0.4500
G01 X3.2196 Y0.4505
G01 X3.2392 Y0.4519
G01 X3.2587 Y0.4543
G01 X3.2876 Y0.4597
G01 X3.3067 Y0.4645
G01 X3.3255 Y0.4702
G01 X3.3440 Y0.4768
G01 X3.3621 Y0.4843
G01 X3.3886 Y0.4972
G01 X3.4056 Y0.5069
G01 X3.4222 Y0.5174
G01 X3.4383 Y0.5287
G01 X3.4538 Y0.5408
G01 X3.4686 Y0.5536
G01 X3.4828 Y0.5672
G01 X3.4964 Y0.5814
G01 X3.5092 Y0.5962
G01 X3.5213 Y0.6117
G01 X3.5326 Y0.6278
G01 X3.5431 Y0.6444
G01 X3.5528 Y0.6614
G01 X3.5616 Y0.6790
G01 X3.5696 Y0.6969
G01 X3.5766 Y0.7152
G01 X3.5828 Y0.7339
G01 X3.5880 Y0.7528
G01 X3.5923 Y0.7720
G01 X3.5957 Y0.7913
G01 X3.5981 Y0.8108
G01 X3.5995 Y0.8304
G01 X3.6000 Y0.8500
G01 X3.6000 Y2.5500
G01 X3.5995 Y2.5696
G01 X3.5981 Y2.5892
G01 X3.5957 Y2.6087
G01 X3.5903 Y2.6376
G01 X3.5855 Y2.6567
G01 X3.5798 Y2.6755
G01 X3.5696 Y2.7031
G01 X3.5573 Y2.7298
G01 X3.5480 Y2.7472
G01 X3.5379 Y2.7640
G01 X3.5213 Y2.7883
G01 X3.5092 Y2.8038
G01 X3.5004 Y2.8141
G01 X3.5004 Y19.6359
G01 X3.5092 Y19.6462
G01 X3.5213 Y19.6617
G01 X3.5326 Y19.6778
G01 X3.5431 Y19.6944
G01 X3.5573 Y19.7202
G01 X3.5657 Y19.7379
G01 X3.5732 Y19.7560
G01 X3.5798 Y19.7745
G01 X3.5855 Y19.7933
G01 X3.5903 Y19.8124
G01 X3.5941 Y19.8316
G01 X3.5970 Y19.8510
G01 X3.5989 Y19.8706
G01 X3.6000 Y19.9000
G01 X3.6000 Y21.6000
G01 X3.5995 Y21.6196
G01 X3.5981 Y21.6392
G01 X3.5957 Y21.6587
G01 X3.5903 Y21.6876
G01 X3.5828 Y21.7161
G01 X3.5766 Y21.7348
G01 X3.5696 Y21.7531
G01 X3.5616 Y21.7710
G01 X3.5528 Y21.7886
G01 X3.5379 Y21.8140
G01 X3.5213 Y21.8383
G01 X3.5092 Y21.8538
G01 X3.5004 Y21.8641
G01 X3.5004 Y38.6859
G01 X3.5092 Y38.6962
G01 X3.5213 Y38.7117
G01 X3.5326 Y38.7278
G01 X3.5431 Y38.7444
G01 X3.5573 Y38.7702
G01 X3.5657 Y38.7879
G01 X3.5732 Y38.8060
G01 X3.5798 Y38.8245
G01 X3.5855 Y38.8433
G01 X3.5923 Y38.8720
G01 X3.5957 Y38.8913
G01 X3.5981 Y38.9108
G01 X3.5995 Y38.9304
G01 X3.6000 Y38.9500
G01 X3.6000 Y40.6500
G01 X3.5995 Y40.6696
G01 X3.5970 Y40.6990
G01 X3.5941 Y40.7184
G01 X3.5903 Y40.7376
G01 X3.5828 Y40.7661
G01 X3.5766 Y40.7848
G01 X3.5696 Y40.8031
G01 X3.5616 Y40.8210
G01 X3.5528 Y40.8386
G01 X3.5379 Y40.8640
G01 X3.5213 Y40.8883
G01 X3.5092 Y40.9038
G01 X3.5004 Y40.9141
G01 X3.5004 Y57.7359
G01 X3.5092 Y57.7462
G01 X3.5213 Y57.7617
G01 X3.5326 Y57.7778
G01 X3.5431 Y57.7944
G01 X3.5573 Y57.8202
G01 X3.5657 Y57.8379
G01 X3.5732 Y57.8560
G01 X3.5828 Y57.8839
G01 X3.5880 Y57.9028
G01 X3.5923 Y57.9220
G01 X3.5957 Y57.9413
G01 X3.5981 Y57.9608
G01 X3.5995 Y57.9804
G01 X3.6000 Y58.0000
G01 X3.6000 Y59.7000
G01 X3.5995 Y59.7196
G01 X3.5981 Y59.7392
G01 X3.5957 Y59.7587
G01 X3.5903 Y59.7876
G01 X3.5855 Y59.8067
G01 X3.5798 Y59.8255
G01 X3.5696 Y59.8531
G01 X3.5616 Y59.8710
G01 X3.5528 Y59.8886
G01 X3.5379 Y59.9140
G01 X3.5213 Y59.9383
G01 X3.5092 Y59.9538
G01 X3.5004 Y59.9641
G01 X3.5004 Y71.0735
G01 X9.1765 Y76.7496
G01 X13.9359 Y76.7496
G01 X13.9462 Y76.7408
G01 X13.9617 Y76.7287
G01 X13.9778 Y76.7174
G01 X13.9944 Y76.7069
G01 X14.0114 Y76.6972
G01 X14.0290 Y76.6884
G01 X14.0560 Y76.6768
G01 X14.0745 Y76.6702
G01 X14.0933 Y76.6645
G01 X14.1220 Y76.6577
G01 X14.1413 Y76.6543
G01 X14.1608 Y76.6519
G01 X14.1804 Y76.6505
G01 X14.2000 Y76.6500
G01 X15.9000 Y76.6500
G01 X15.9196 Y76.6505
G01 X15.9392 Y76.6519
G01 X15.9587 Y76.6543
G01 X15.9876 Y76.6597
G01 X16.0161 Y76.6672
G01 X16.0348 Y76.6734
G01 X16.0531 Y76.6804
G01 X16.0798 Y76.6927
G01 X16.0972 Y76.7020
G01 X16.1140 Y76.7121
G01 X16.1383 Y76.7287
G01 X16.1538 Y76.7408
G01 X16.1641 Y76.7496
G01 X20.9235 Y76.7496
G01 X26.5996 Y71.0735
G01 X26.5996 Y59.9641
G01 X26.5908 Y59.9538
G01 X26.5787 Y59.9383
G01 X26.5674 Y59.9222
G01 X26.5569 Y59.9056
G01 X26.5472 Y59.8886
G01 X26.5384 Y59.8710
G01 X26.5268 Y59.8440
G01 X26.5172 Y59.8161
G01 X26.5120 Y59.7972
G01 X26.5077 Y59.7780
G01 X26.5043 Y59.7587
G01 X26.5019 Y59.7392
G01 X26.5005 Y59.7196
G01 X26.5000 Y59.7000
G01 X26.5000 Y58.0000
G01 X26.5005 Y57.9804
G01 X26.5030 Y57.9510
G01 X26.5059 Y57.9316
G01 X26.5097 Y57.9124
G01 X26.5172 Y57.8839
G01 X26.5234 Y57.8652
G01 X26.5304 Y57.8469
G01 X26.5427 Y57.8202
G01 X26.5520 Y57.8028
G01 X26.5621 Y57.7860
G01 X26.5787 Y57.7617
G01 X26.5908 Y57.7462
G01 X26.5996 Y57.7359
G01 X26.5996 Y40.9141
G01 X26.5908 Y40.9038
G01 X26.5787 Y40.8883
G01 X26.5674 Y40.8722
G01 X26.5569 Y40.8556
G01 X26.5472 Y40.8386
G01 X26.5384 Y40.8210
G01 X26.5268 Y40.7940
G01 X26.5172 Y40.7661
G01 X26.5120 Y40.7472
G01 X26.5077 Y40.7280
G01 X26.5043 Y40.7087
G01 X26.5019 Y40.6892
G01 X26.5005 Y40.6696
G01 X26.5000 Y40.6500
G01 X26.5000 Y38.9500
G01 X26.5005 Y38.9304
G01 X26.5019 Y38.9108
G01 X26.5043 Y38.8913
G01 X26.5097 Y38.8624
G01 X26.5145 Y38.8433
G01 X26.5202 Y38.8245
G01 X26.5304 Y38.7969
G01 X26.5384 Y38.7790
G01 X26.5472 Y38.7614
G01 X26.5621 Y38.7360
G01 X26.5787 Y38.7117
G01 X26.5908 Y38.6962
G01 X26.5996 Y38.6859
G01 X26.5996 Y21.8641
G01 X26.5908 Y21.8538
G01 X26.5787 Y21.8383
G01 X26.5674 Y21.8222
G01 X26.5569 Y21.8056
G01 X26.5427 Y21.7798
G01 X26.5343 Y21.7621
G01 X26.5268 Y21.7440
G01 X26.5202 Y21.7255
G01 X26.5145 Y21.7067
G01 X26.5097 Y21.6876
G01 X26.5059 Y21.6684
G01 X26.5030 Y21.6490
G01 X26.5011 Y21.6294
G01 X26.5000 Y21.6000
G01 X26.5000 Y19.9000
G01 X26.5005 Y19.8804
G01 X26.5019 Y19.8608
G01 X26.5043 Y19.8413
G01 X26.5097 Y19.8124
G01 X26.5145 Y19.7933
G01 X26.5202 Y19.7745
G01 X26.5304 Y19.7469
G01 X26.5427 Y19.7202
G01 X26.5520 Y19.7028
G01 X26.5621 Y19.6860
G01 X26.5787 Y19.6617
G01 X26.5908 Y19.6462
G01 X26.5996 Y19.6359
G01 X26.5996 Y2.8141
G01 X26.5908 Y2.8038
G01 X26.5787 Y2.7883
G01 X26.5621 Y2.7640
G01 X26.5520 Y2.7472
G01 X26.5427 Y2.7298
G01 X26.5304 Y2.7031
G01 X26.5202 Y2.6755
G01 X26.5145 Y2.6567
G01 X26.5097 Y2.6376
G01 X26.5043 Y2.6087
G01 X26.5019 Y2.5892
G01 X26.5005 Y2.5696
G01 X26.5000 Y2.5500
G01 X26.5001 Y0.8402
G01 X26.5011 Y0.8206
G01 X26.5030 Y0.8010
G01 X26.5059 Y0.7816
G01 X26.5097 Y0.7624
G01 X26.5145 Y0.7433
G01 X26.5202 Y0.7245
G01 X26.5304 Y0.6969
G01 X26.5384 Y0.6790
G01 X26.5472 Y0.6614
G01 X26.5569 Y0.6444
G01 X26.5674 Y0.6278
G01 X26.5787 Y0.6117
G01 X26.5908 Y0.5962
G01 X26.6036 Y0.5814
G01 X26.6172 Y0.5672
G01 X26.6387 Y0.5471
G01 X26.6539 Y0.5347
G01 X26.6697 Y0.5230
G01 X26.6860 Y0.5121
G01 X26.7028 Y0.5020
G01 X26.7202 Y0.4927
G01 X26.7379 Y0.4843
G01 X26.7560 Y0.4768
G01 X26.7745 Y0.4702
G01 X26.7933 Y0.4645
G01 X26.8124 Y0.4597
G01 X26.8316 Y0.4559
G01 X26.8510 Y0.4530
G01 X26.8804 Y0.4505
G01 X26.9000 Y0.4500
G01 X28.6000 Y0.4500
G01 X28.6294 Y0.4511
G01 X28.6587 Y0.4543
G01 X28.6876 Y0.4597
G01 X28.7161 Y0.4672
G01 X28.7440 Y0.4768
G01 X28.7710 Y0.4884
G01 X28.7972 Y0.5020
G01 X28.8222 Y0.5174
G01 X28.8461 Y0.5347
G01 X28.8686 Y0.5536
G01 X28.8897 Y0.5742
G01 X28.9092 Y0.5962
G01 X28.9270 Y0.6197
G01 X28.9431 Y0.6444
G01 X28.9528 Y0.6614
G01 X28.9657 Y0.6879
G01 X28.9766 Y0.7152
G01 X28.9855 Y0.7433
G01 X28.9903 Y0.7624
G01 X28.9957 Y0.7913
G01 X28.9989 Y0.8206
G01 X29.0000 Y0.8500
G01 X29.0000 Y2.5500
G01 X28.9995 Y2.5696
G01 X28.9981 Y2.5892
G01 X28.9957 Y2.6087
G01 X28.9903 Y2.6376
G01 X28.9855 Y2.6567
G01 X28.9798 Y2.6755
G01 X28.9696 Y2.7031
G01 X28.9573 Y2.7298
G01 X28.9480 Y2.7472
G01 X28.9379 Y2.7640
G01 X28.9213 Y2.7883
G01 X28.9092 Y2.8038
G01 X28.9004 Y2.8141
G01 X28.9004 Y19.6359
G01 X28.9092 Y19.6462
G01 X28.9213 Y19.6617
G01 X28.9326 Y19.6778
G01 X28.9431 Y19.6944
G01 X28.9573 Y19.7202
G01 X28.9657 Y19.7379
G01 X28.9732 Y19.7560
G01 X28.9798 Y19.7745
G01 X28.9855 Y19.7933
G01 X28.9903 Y19.8124
G01 X28.9941 Y19.8316
G01 X28.9970 Y19.8510
G01 X28.9989 Y19.8706
G01 X29.0000 Y19.9000
G01 X29.0000 Y21.6000
G01 X28.9995 Y21.6196
G01 X28.9981 Y21.6392
G01 X28.9957 Y21.6587
G01 X28.9903 Y21.6876
G01 X28.9855 Y21.7067
G01 X28.9798 Y21.7255
G01 X28.9696 Y21.7531
G01 X28.9616 Y21.7710
G01 X28.9528 Y21.7886
G01 X28.9379 Y21.8140
G01 X28.9213 Y21.8383
G01 X28.9092 Y21.8538
G01 X28.9004 Y21.8641
G01 X28.9004 Y38.6859
G01 X28.9092 Y38.6962
G01 X28.9213 Y38.7117
G01 X28.9326 Y38.7278
G01 X28.9431 Y38.7444
G01 X28.9573 Y38.7702
G01 X28.9657 Y38.7879
G01 X28.9732 Y38.8060
G01 X28.9798 Y38.8245
G01 X28.9855 Y38.8433
G01 X28.9903 Y38.8624
G01 X28.9941 Y38.8816
G01 X28.9970 Y38.9010
G01 X28.9989 Y38.9206
G01 X29.0000 Y38.9500
G01 X29.0000 Y40.6500
G01 X28.9995 Y40.6696
G01 X28.9981 Y40.6892
G01 X28.9957 Y40.7087
G01 X28.9903 Y40.7376
G01 X28.9855 Y40.7567
G01 X28.9798 Y40.7755
G01 X28.9696 Y40.8031
G01 X28.9616 Y40.8210
G01 X28.9528 Y40.8386
G01 X28.9379 Y40.8640
G01 X28.9213 Y40.8883
G01 X28.9092 Y40.9038
G01 X28.9004 Y40.9141
G01 X28.9004 Y57.7359
G01 X28.9092 Y57.7462
G01 X28.9213 Y57.7617
G01 X28.9379 Y57.7860
G01 X28.9480 Y57.8028
G01 X28.9573 Y57.8202
G01 X28.9696 Y57.8469
G01 X28.9798 Y57.8745
G01 X28.9855 Y57.8933
G01 X28.9903 Y57.9124
G01 X28.9941 Y57.9316
G01 X28.9970 Y57.9510
G01 X28.9995 Y57.9804
G01 X29.0000 Y58.0000
G01 X29.0000 Y59.7000
G01 X28.9989 Y59.7294
G01 X28.9970 Y59.7490
G01 X28.9941 Y59.7684
G01 X28.9903 Y59.7876
G01 X28.9855 Y59.8067
G01 X28.9798 Y59.8255
G01 X28.9732 Y59.8440
G01 X28.9657 Y59.8621
G01 X28.9573 Y59.8798
G01 X28.9431 Y59.9056
G01 X28.9326 Y59.9222
G01 X28.9213 Y59.9383
G01 X28.9092 Y59.9538
G01 X28.9004 Y59.9641
G01 X28.9004 Y71.5500
G01 X28.8999 Y71.5696
G01 X28.8963 Y71.6432
G01 X28.8948 Y71.6628
G01 X28.8924 Y71.6822
G01 X28.8816 Y71.7551
G01 X28.8783 Y71.7744
G01 X28.8740 Y71.7936
G01 X28.8561 Y71.8650
G01 X28.8508 Y71.8839
G01 X28.8447 Y71.9026
G01 X28.8199 Y71.9719
G01 X28.8128 Y71.9902
G01 X28.8049 Y72.0082
G01 X28.7734 Y72.0747
G01 X28.7645 Y72.0923
G01 X28.7549 Y72.1094
G01 X28.7119 Y72.1809
G01 X28.6952 Y72.2052
G01 X28.6513 Y72.2643
G01 X28.6393 Y72.2798
G01 X28.6264 Y72.2947
G01 X28.5770 Y72.3492
G01 X28.5634 Y72.3634
G01 X22.2064 Y78.7203
G01 X22.1373 Y78.7829
G01 X22.1143 Y78.8013
G01 X22.0552 Y78.8452
G01 X22.0391 Y78.8565
G01 X22.0225 Y78.8670
G01 X21.9594 Y78.9049
G01 X21.9423 Y78.9145
G01 X21.9247 Y78.9234
G01 X21.8582 Y78.9549
G01 X21.8402 Y78.9628
G01 X21.8219 Y78.9699
G01 X21.7526 Y78.9947
G01 X21.7245 Y79.0036
G01 X21.6436 Y79.0240
G01 X21.6244 Y79.0283
G01 X21.6051 Y79.0316
G01 X21.5322 Y79.0424
G01 X21.5128 Y79.0448
G01 X21.4932 Y79.0463
G01 X21.4196 Y79.0499
G01 X21.4000 Y79.0504
G01 X16.1641 Y79.0504
G01 X16.1538 Y79.0592
G01 X16.1383 Y79.0713
G01 X16.1140 Y79.0879
G01 X16.0886 Y79.1028
G01 X16.0710 Y79.1116
G01 X16.0531 Y79.1196
G01 X16.0348 Y79.1266
G01 X16.0161 Y79.1328
G01 X15.9876 Y79.1403
G01 X15.9684 Y79.1441
G01 X15.9490 Y79.1470
G01 X15.9196 Y79.1495
G01 X15.9000 Y79.1500
G01 X14.2000 Y79.1500
G01 X14.1804 Y79.1495
G01 X14.1608 Y79.1481
G01 X14.1413 Y79.1457
G01 X14.1220 Y79.1423
G01 X14.1028 Y79.1380
G01 X14.0839 Y79.1328
G01 X14.0560 Y79.1232
G01 X14.0379 Y79.1157
G01 X14.0202 Y79.1073
G01 X13.9944 Y79.0931
G01 X13.9778 Y79.0826
G01 X13.9617 Y79.0713
G01 X13.9462 Y79.0592
G01 X13.9359 Y79.0504
G01 X8.7000 Y79.0504
G01 X8.6804 Y79.0499
G01 X8.6068 Y79.0463
G01 X8.5872 Y79.0448
G01 X8.5678 Y79.0424
G01 X8.4949 Y79.0316
G01 X8.4660 Y79.0262
G01 X8.3850 Y79.0061
G01 X8.3661 Y79.0008
G01 X8.3474 Y78.9947
G01 X8.2781 Y78.9699
G01 X8.2598 Y78.9628
G01 X8.2418 Y78.9549
G01 X8.1753 Y78.9234
G01 X8.1491 Y78.9098
G01 X8.0775 Y78.8670
G01 X8.0528 Y78.8509
G01 X7.9779 Y78.7954
G01 X7.9553 Y78.7764
G01 X7.8936 Y78.7203
G01 X1.5366 Y72.3634
G01 X1.5230 Y72.3492
G01 X1.4736 Y72.2947
G01 X1.4607 Y72.2798
G01 X1.4487 Y72.2643
G01 X1.4048 Y72.2052
G01 X1.3935 Y72.1891
G01 X1.3830 Y72.1725
G01 X1.3451 Y72.1094
G01 X1.3355 Y72.0923
G01 X1.3266 Y72.0747
G01 X1.2951 Y72.0082
G01 X1.2872 Y71.9902
G01 X1.2801 Y71.9719
G01 X1.2553 Y71.9026
G01 X1.2464 Y71.8745
G01 X1.2260 Y71.7936
G01 X1.2217 Y71.7744
G01 X1.2184 Y71.7551
G01 X1.2076 Y71.6822
G01 X1.2052 Y71.6628
G01 X1.2037 Y71.6432
G01 X1.2001 Y71.5696
G01 X1.1996 Y71.5500
G01 X1.1996 Y59.9641
G01 X1.1908 Y59.9538
G01 X1.1787 Y59.9383
G01 X1.1674 Y59.9222
G01 X1.1569 Y59.9056
G01 X1.1427 Y59.8798
G01 X1.1343 Y59.8621
G01 X1.1268 Y59.8440
G01 X1.1202 Y59.8255
G01 X1.1145 Y59.8067
G01 X1.1077 Y59.7780
G01 X1.1043 Y59.7587
G01 X1.1019 Y59.7392
G01 X1.1005 Y59.7196
G01 X1.1000 Y59.7000
G01 X1.1000 Y58.0000
G01 X1.1005 Y57.9804
G01 X1.1019 Y57.9608
G01 X1.1043 Y57.9413
G01 X1.1097 Y57.9124
G01 X1.1145 Y57.8933
G01 X1.1202 Y57.8745
G01 X1.1304 Y57.8469
G01 X1.1427 Y57.8202
G01 X1.1520 Y57.8028
G01 X1.1621 Y57.7860
G01 X1.1787 Y57.7617
G01 X1.1908 Y57.7462
G01 X1.1996 Y57.7359
G01 X1.1996 Y40.9141
G01 X1.1908 Y40.9038
G01 X1.1787 Y40.8883
G01 X1.1674 Y40.8722
G01 X1.1569 Y40.8556
G01 X1.1472 Y40.8386
G01 X1.1384 Y40.8210
G01 X1.1268 Y40.7940
G01 X1.1202 Y40.7755
G01 X1.1145 Y40.7567
G01 X1.1077 Y40.7280
G01 X1.1043 Y40.7087
G01 X1.1019 Y40.6892
G01 X1.1005 Y40.6696
G01 X1.1000 Y40.6500
G01 X1.1000 Y38.9500
G01 X1.1005 Y38.9304
G01 X1.1030 Y38.9010
G01 X1.1059 Y38.8816
G01 X1.1097 Y38.8624
G01 X1.1145 Y38.8433
G01 X1.1202 Y38.8245
G01 X1.1304 Y38.7969
G01 X1.1384 Y38.7790
G01 X1.1472 Y38.7614
G01 X1.1621 Y38.7360
G01 X1.1787 Y38.7117
G01 X1.1908 Y38.6962
G01 X1.1996 Y38.6859
G01 X1.1996 Y21.8641
G01 X1.1908 Y21.8538
G01 X1.1787 Y21.8383
G01 X1.1674 Y21.8222
G01 X1.1569 Y21.8056
G01 X1.1472 Y21.7886
G01 X1.1384 Y21.7710
G01 X1.1268 Y21.7440
G01 X1.1202 Y21.7255
G01 X1.1145 Y21.7067
G01 X1.1097 Y21.6876
G01 X1.1059 Y21.6684
G01 X1.1030 Y21.6490
G01 X1.1011 Y21.6294
G01 X1.1000 Y21.6000
G01 X1.1000 Y19.9000
G01 X1.1005 Y19.8804
G01 X1.1030 Y19.8510
G01 X1.1059 Y19.8316
G01 X1.1097 Y19.8124
G01 X1.1172 Y19.7839
G01 X1.1234 Y19.7652
G01 X1.1304 Y19.7469
G01 X1.1427 Y19.7202
G01 X1.1520 Y19.7028
G01 X1.1621 Y19.6860
G01 X1.1787 Y19.6617
G01 X1.1908 Y19.6462
G01 X1.1996 Y19.6359
G01 X1.1996 Y2.8141
G00 Z2.0000
G00 X3.7396 Y21.2387
G01 F60.00
G01 Z-0.1500
G01 F120.00
G01 X3.7352 Y21.2284
G01 X3.7281 Y21.2100
G01 X3.7000 Y21.1315
G01 X3.6938 Y21.1129
G01 X3.6886 Y21.0939
G01 X3.6683 Y21.0130
G01 X3.6640 Y20.9939
G01 X3.6607 Y20.9745
G01 X3.6484 Y20.8920
G01 X3.6460 Y20.8725
G01 X3.6446 Y20.8529
G01 X3.6405 Y20.7696
G01 X3.6400 Y20.7500
G01 X3.6405 Y20.7304
G01 X3.6446 Y20.6471
G01 X3.6460 Y20.6275
G01 X3.6484 Y20.6080
G01 X3.6607 Y20.5255
G01 X3.6640 Y20.5061
G01 X3.6683 Y20.4870
G01 X3.6886 Y20.4061
G01 X3.6938 Y20.3871
G01 X3.7000 Y20.3685
G01 X3.7281 Y20.2900
G01 X3.7352 Y20.2716
G01 X3.7396 Y20.2613
G01 X3.7396 Y2.1887
G01 X3.7352 Y2.1784
G01 X3.7281 Y2.1600
G01 X3.7000 Y2.0815
G01 X3.6938 Y2.0629
G01 X3.6886 Y2.0439
G01 X3.6683 Y1.9630
G01 X3.6640 Y1.9439
G01 X3.6607 Y1.9245
G01 X3.6484 Y1.8420
G01 X3.6460 Y1.8225
G01 X3.6446 Y1.8029
G01 X3.6405 Y1.7196
G01 X3.6401 Y1.6902
G01 X3.6446 Y1.5971
G01 X3.6460 Y1.5775
G01 X3.6484 Y1.5580
G01 X3.6607 Y1.4755
G01 X3.6640 Y1.4561
G01 X3.6683 Y1.4370
G01 X3.6886 Y1.3561
G01 X3.6938 Y1.3371
G01 X3.7000 Y1.3185
G01 X3.7281 Y1.2400
G01 X3.7352 Y1.2216
G01 X3.7431 Y1.2037
G01 X3.7788 Y1.1283
G01 X3.7876 Y1.1108
G01 X3.7973 Y1.0937
G01 X3.8402 Y1.0221
G01 X3.8507 Y1.0055
G01 X3.8620 Y0.9895
G01 X3.9117 Y0.9225
G01 X3.9237 Y0.9070
G01 X3.9366 Y0.8921
G01 X3.9926 Y0.8303
G01 X4.0061 Y0.8161
G01 X4.0203 Y0.8026
G01 X4.0895 Y0.7401
G01 X4.1125 Y0.7217
G01 X4.1795 Y0.6720
G01 X4.1955 Y0.6607
G01 X4.2121 Y0.6502
G01 X4.2837 Y0.6073
G01 X4.3008 Y0.5976
G01 X4.3183 Y0.5888
G01 X4.3937 Y0.5531
G01 X4.4116 Y0.5452
G01 X4.4300 Y0.5381
G01 X4.5085 Y0.5100
G01 X4.5271 Y0.5038
G01 X4.5461 Y0.4986
G01 X4.6270 Y0.4783
G01 X4.6461 Y0.4740
G01 X4.6655 Y0.4707
G01 X4.7480 Y0.4584
G01 X4.7675 Y0.4560
G01 X4.7871 Y0.4546
G01 X4.8704 Y0.4505
G01 X4.8900 Y0.4500
G01 X4.9096 Y0.4505
G01 X4.9929 Y0.4546
G01 X5.0125 Y0.4560
G01 X5.0320 Y0.4584
G01 X5.1242 Y0.4722
G01 X5.1530 Y0.4783
G01 X5.2339 Y0.4986
G01 X5.2622 Y0.5068
G01 X5.3592 Y0.5415
G01 X5.3863 Y0.5531
G01 X5.4617 Y0.5888
G01 X5.4792 Y0.5976
G01 X5.4963 Y0.6073
G01 X5.5679 Y0.6502
G01 X5.5926 Y0.6662
G01 X5.6675 Y0.7217
G01 X5.6905 Y0.7401
G01 X5.7669 Y0.8093
G01 X5.7874 Y0.8303
G01 X5.8434 Y0.8921
G01 X5.8563 Y0.9070
G01 X5.8683 Y0.9225
G01 X5.9180 Y0.9895
G01 X5.9293 Y1.0055
G01 X5.9398 Y1.0221
G01 X5.9827 Y1.0937
G01 X5.9924 Y1.1108
G01 X6.0012 Y1.1283
G01 X6.0369 Y1.2037
G01 X6.0448 Y1.2216
G01 X6.0519 Y1.2400
G01 X6.0800 Y1.3185
G01 X6.0862 Y1.3371
G01 X6.0914 Y1.3561
G01 X6.1117 Y1.4370
G01 X6.1160 Y1.4561
G01 X6.1193 Y1.4755
G01 X6.1316 Y1.5580
G01 X6.1340 Y1.5775
G01 X6.1354 Y1.5971
G01 X6.1399 Y1.6902
G01 X6.1395 Y1.7196
G01 X6.1354 Y1.8029
G01 X6.1340 Y1.8225
G01 X6.1316 Y1.8420
G01 X6.1193 Y1.9245
G01 X6.1160 Y1.9439
G01 X6.1117 Y1.9630
G01 X6.0914 Y2.0439
G01 X6.0862 Y2.0629
G01 X6.0800 Y2.0815
G01 X6.0519 Y2.1600
G01 X6.0448 Y2.1784
G01 X6.0404 Y2.1887
G01 X6.0404 Y20.2613
G01 X6.0448 Y20.2716
G01 X6.0519 Y20.2900
G01 X6.0800 Y20.3685
G01 X6.0862 Y20.3871
G01 X6.0914 Y20.4061
G01 X6.1117 Y20.4870
G01 X6.1160 Y20.5061
G01 X6.1193 Y20.5255
G01 X6.1316 Y20.6080
G01 X6.1340 Y20.6275
G01 X6.1354 Y20.6471
G01 X6.1395 Y20.7304
G01 X6.1400 Y20.7500
G01 X6.1395 Y20.7696
G01 X6.1354 Y20.8529
G01 X6.1340 Y20.8725
G01 X6.1316 Y20.8920
G01 X6.1193 Y20.9745
G01 X6.1160 Y20.9939
G01 X6.1117 Y21.0130
G01 X6.0914 Y21.0939
G01 X6.0862 Y21.1129
G01 X6.0800 Y21.1315
G01 X6.0519 Y21.2100
G01 X6.0448 Y21.2284
G01 X6.0404 Y21.2387
G01 X6.0404 Y39.3113
G01 X6.0448 Y39.3216
G01 X6.0519 Y39.3400
G01 X6.0800 Y39.4185
G01 X6.0862 Y39.4371
G01 X6.0914 Y39.4561
G01 X6.1117 Y39.5370
G01 X6.1160 Y39.5561
G01 X6.1193 Y39.5755
G01 X6.1316 Y39.6580
G01 X6.1340 Y39.6775
G01 X6.1354 Y39.6971
G01 X6.1395 Y39.7804
G01 X6.1400 Y39.8000
G01 X6.1395 Y39.8196
G01 X6.1354 Y39.9029
G01 X6.1340 Y39.9225
G01 X6.1316 Y39.9420
G01 X6.1193 Y40.0245
G01 X6.1160 Y40.0439
G01 X6.1117 Y40.0630
G01 X6.0914 Y40.1439
G01 X6.0862 Y40.1629
G01 X6.0800 Y40.1815
G01 X6.0519 Y40.2600
G01 X6.0448 Y40.2784
G01 X6.0404 Y40.2887
G01 X6.0404 Y58.3613
G01 X6.0448 Y58.3716
G01 X6.0519 Y58.3900
G01 X6.0800 Y58.4685
G01 X6.0862 Y58.4871
G01 X6.0914 Y58.5061
G01 X6.1117 Y58.5870
G01 X6.1160 Y58.6061
G01 X6.1193 Y58.6255
G01 X6.1316 Y58.7080
G01 X6.1340 Y58.7275
G01 X6.1354 Y58.7471
G01 X6.1395 Y58.8304
G01 X6.1400 Y58.8500
G01 X6.1395 Y58.8696
G01 X6.1354 Y58.9529
G01 X6.1340 Y58.9725
G01 X6.1316 Y58.9920
G01 X6.1193 Y59.0745
G01 X6.1160 Y59.0939
G01 X6.1117 Y59.1130
G01 X6.0914 Y59.1939
G01 X6.0862 Y59.2129
G01 X6.0800 Y59.2315
G01 X6.0519 Y59.3100
G01 X6.0448 Y59.3284
G01 X6.0404 Y59.3387
G01 X6.0404 Y69.8035
G01 X10.4465 Y74.2096
G01 X14.5613 Y74.2096
G01 X14.5716 Y74.2052
G01 X14.5900 Y74.1981
G01 X14.6685 Y74.1700
G01 X14.6871 Y74.1638
G01 X14.7061 Y74.1586
G01 X14.7870 Y74.1383
G01 X14.8061 Y74.1340
G01 X14.8255 Y74.1307
G01 X14.9080 Y74.1184
G01 X14.9275 Y74.1160
G01 X14.9471 Y74.1146
G01 X15.0304 Y74.1105
G01 X15.0500 Y74.1100
G01 X15.0696 Y74.1105
G01 X15.1529 Y74.1146
G01 X15.1725 Y74.1160
G01 X15.1920 Y74.1184
G01 X15.2745 Y74.1307
G01 X15.2939 Y74.1340
G01 X15.3130 Y74.1383
G01 X15.3939 Y74.1586
G01 X15.4129 Y74.1638
G01 X15.4315 Y74.1700
G01 X15.5100 Y74.1981
G01 X15.5284 Y74.2052
G01 X15.5387 Y74.2096
G01 X19.6535 Y74.2096
G01 X24.0596 Y69.8035
G01 X24.0596 Y59.3387
G01 X24.0552 Y59.3284
G01 X24.0481 Y59.3100
G01 X24.0200 Y59.2315
G01 X24.0138 Y59.2129
G01 X24.0086 Y59.1939
G01 X23.9883 Y59.1130
G01 X23.9840 Y59.0939
G01 X23.9807 Y59.0745
G01 X23.9684 Y58.9920
G01 X23.9660 Y58.9725
G01 X23.9646 Y58.9529
G01 X23.9605 Y58.8696
G01 X23.9600 Y58.8500
G01 X23.9605 Y58.8304
G01 X23.9646 Y58.7471
G01 X23.9660 Y58.7275
G01 X23.9684 Y58.7080
G01 X23.9807 Y58.6255
G01 X23.9840 Y58.6061
G01 X23.9883 Y58.5870
G01 X24.0086 Y58.5061
G01 X24.0138 Y58.4871
G01 X24.0200 Y58.4685
G01 X24.0481 Y58.3900
G01 X24.0552 Y58.3716
G01 X24.0596 Y58.3613
G01 X24.0596 Y40.2887
G01 X24.0552 Y40.2784
G01 X24.0481 Y40.2600
G01 X24.0200 Y40.1815
G01 X24.0138 Y40.1629
G01 X24.0086 Y40.1439
G01 X23.9883 Y40.0630
G01 X23.9840 Y40.0439
G01 X23.9807 Y40.0245
G01 X23.9684 Y39.9420
G01 X23.9660 Y39.9225
G01 X23.9646 Y39.9029
G01 X23.9605 Y39.8196
G01 X23.9600 Y39.8000
G01 X23.9605 Y39.7804
G01 X23.9646 Y39.6971
G01 X23.9660 Y39.6775
G01 X23.9684 Y39.6580
G01 X23.9807 Y39.5755
G01 X23.9840 Y39.5561
G01 X23.9883 Y39.5370
G01 X24.0086 Y39.4561
G01 X24.0138 Y39.4371
G01 X24.0200 Y39.4185
G01 X24.0481 Y39.3400
G01 X24.0552 Y39.3216
G01 X24.0596 Y39.3113
G01 X24.0596 Y21.2387
G01 X24.0552 Y21.2284
G01 X24.0481 Y21.2100
G01 X24.0200 Y21.1315
G01 X24.0138 Y21.1129
G01 X24.0086 Y21.0939
G01 X23.9883 Y21.0130
G01 X23.9840 Y20.9939
G01 X23.9807 Y20.9745
G01 X23.9684 Y20.8920
G01 X23.9660 Y20.8725
G01 X23.9646 Y20.8529
G01 X23.9605 Y20.7696
G01 X23.9600 Y20.7500
G01 X23.9605 Y20.7304
G01 X23.9646 Y20.6471
G01 X23.9660 Y20.6275
G01 X23.9684 Y20.6080
G01 X23.9807 Y20.5255
G01 X23.9840 Y20.5061
G01 X23.9883 Y20.4870
G01 X24.0086 Y20.4061
G01 X24.0138 Y20.3871
G01 X24.0200 Y20.3685
G01 X24.0481 Y20.2900
G01 X24.0552 Y20.2716
G01 X24.0596 Y20.2613
G01 X24.0596 Y2.1887
G01 X24.0552 Y2.1784
G01 X24.0481 Y2.1600
G01 X24.0200 Y2.0815
G01 X24.0138 Y2.0629
G01 X24.0086 Y2.0439
G01 X23.9883 Y1.9630
G01 X23.9840 Y1.9439
G01 X23.9807 Y1.9245
G01 X23.9684 Y1.8420
G01 X23.9660 Y1.8225
G01 X23.9646 Y1.8029
G01 X23.9605 Y1.7196
G01 X23.9601 Y1.6902
G01 X23.9646 Y1.5971
G01 X23.9660 Y1.5775
G01 X23.9684 Y1.5580
G01 X23.9807 Y1.4755
G01 X23.9840 Y1.4561
G01 X23.9883 Y1.4370
G01 X24.0086 Y1.3561
G01 X24.0138 Y1.3371
G01 X24.0200 Y1.3185
G01 X24.0481 Y1.2400
G01 X24.0552 Y1.2216
G01 X24.0631 Y1.2037
G01 X24.0988 Y1.1283
G01 X24.1076 Y1.1108
G01 X24.1173 Y1.0937
G01 X24.1602 Y1.0221
G01 X24.1707 Y1.0055
G01 X24.1820 Y0.9895
G01 X24.2317 Y0.9225
G01 X24.2437 Y0.9070
G01 X24.2566 Y0.8921
G01 X24.3126 Y0.8303
G01 X24.3261 Y0.8161
G01 X24.3403 Y0.8026
G01 X24.4021 Y0.7466
G01 X24.4170 Y0.7337
G01 X24.4325 Y0.7217
G01 X24.4995 Y0.6720
G01 X24.5155 Y0.6607
G01 X24.5321 Y0.6502
G01 X24.6037 Y0.6073
G01 X24.6208 Y0.5976
G01 X24.6383 Y0.5888
G01 X24.7137 Y0.5531
G01 X24.7316 Y0.5452
G01 X24.7500 Y0.5381
G01 X24.8285 Y0.5100
G01 X24.8471 Y0.5038
G01 X24.8661 Y0.4986
G01 X24.9470 Y0.4783
G01 X24.9661 Y0.4740
G01 X24.9855 Y0.4707
G01 X25.0680 Y0.4584
G01 X25.0875 Y0.4560
G01 X25.1071 Y0.4546
G01 X25.1904 Y0.4505
G01 X25.2100 Y0.4500
G01 X25.2296 Y0.4505
G01 X25.3129 Y0.4546
G01 X25.3325 Y0.4560
G01 X25.3520 Y0.4584
G01 X25.4345 Y0.4707
G01 X25.4539 Y0.4740
G01 X25.4730 Y0.4783
G01 X25.5539 Y0.4986
G01 X25.5729 Y0.5038
G01 X25.5915 Y0.5100
G01 X25.6700 Y0.5381
G01 X25.6884 Y0.5452
G01 X25.7063 Y0.5531
G01 X25.7817 Y0.5888
G01 X25.7992 Y0.5976
G01 X25.8163 Y0.6073
G01 X25.8879 Y0.6502
G01 X25.9045 Y0.6607
G01 X25.9205 Y0.6720
G01 X25.9875 Y0.7217
G01 X26.0105 Y0.7401
G01 X26.0797 Y0.8026
G01 X26.0939 Y0.8161
G01 X26.1074 Y0.8303
G01 X26.1634 Y0.8921
G01 X26.1763 Y0.9070
G01 X26.1883 Y0.9225
G01 X26.2380 Y0.9895
G01 X26.2493 Y1.0055
G01 X26.2598 Y1.0221
G01 X26.3027 Y1.0937
G01 X26.3124 Y1.1108
G01 X26.3212 Y1.1283
G01 X26.3569 Y1.2037
G01 X26.3648 Y1.2216
G01 X26.3719 Y1.2400
G01 X26.4000 Y1.3185
G01 X26.4062 Y1.3371
G01 X26.4114 Y1.3561
G01 X26.4317 Y1.4370
G01 X26.4360 Y1.4561
G01 X26.4393 Y1.4755
G01 X26.4516 Y1.5580
G01 X26.4540 Y1.5775
G01 X26.4554 Y1.5971
G01 X26.4595 Y1.6804
G01 X26.4600 Y1.7000
G01 X26.4595 Y1.7196
G01 X26.4554 Y1.8029
G01 X26.4540 Y1.8225
G01 X26.4516 Y1.8420
G01 X26.4393 Y1.9245
G01 X26.4360 Y1.9439
G01 X26.4317 Y1.9630
G01 X26.4114 Y2.0439
G01 X26.4062 Y2.0629
G01 X26.4000 Y2.0815
G01 X26.3719 Y2.1600
G01 X26.3648 Y2.1784
G01 X26.3604 Y2.1887
G01 X26.3604 Y20.2613
G01 X26.3648 Y20.2716
G01 X26.3719 Y20.2900
G01 X26.4000 Y20.3685
G01 X26.4062 Y20.3871
G01 X26.4114 Y20.4061
G01 X26.4317 Y20.4870
G01 X26.4360 Y20.5061
G01 X26.4393 Y20.5255
G01 X26.4516 Y20.6080
G01 X26.4540 Y20.6275
G01 X26.4554 Y20.6471
G01 X26.4595 Y20.7304
G01 X26.4600 Y20.7500
G01 X26.4595 Y20.7696
G01 X26.4554 Y20.8529
G01 X26.4540 Y20.8725
G01 X26.4516 Y20.8920
G01 X26.4393 Y20.9745
G01 X26.4360 Y20.9939
G01 X26.4317 Y21.0130
G01 X26.4114 Y21.0939
G01 X26.4062 Y21.1129
G01 X26.4000 Y21.1315
G01 X26.3719 Y21.2100
G01 X26.3648 Y21.2284
G01 X26.3604 Y21.2387
G01 X26.3604 Y39.3113
G01 X26.3648 Y39.3216
G01 X26.3719 Y39.3400
G01 X26.4000 Y39.4185
G01 X26.4062 Y39.4371
G01 X26.4114 Y39.4561
G01 X26.4317 Y39.5370
G01 X26.4360 Y39.5561
G01 X26.4393 Y39.5755
G01 X26.4516 Y39.6580
G01 X26.4540 Y39.6775
G01 X26.4554 Y39.6971
G01 X26.4595 Y39.7804
G01 X26.4600 Y39.8000
G01 X26.4595 Y39.8196
G01 X26.4554 Y39.9029
G01 X26.4540 Y39.9225
G01 X26.4516 Y39.9420
G01 X26.4393 Y40.0245
G01 X26.4360 Y40.0439
G01 X26.4317 Y40.0630
G01 X26.4114 Y40.1439
G01 X26.4062 Y40.1629
G01 X26.4000 Y40.1815
G01 X26.3719 Y40.2600
G01 X26.3648 Y40.2784
G01 X26.3604 Y40.2887
G01 X26.3604 Y58.3613
G01 X26.3648 Y58.3716
G01 X26.3719 Y58.3900
G01 X26.4000 Y58.4685
G01 X26.4062 Y58.4871
G01 X26.4114 Y58.5061
G01 X26.4317 Y58.5870
G01 X26.4360 Y58.6061
G01 X26.4393 Y58.6255
G01 X26.4516 Y58.7080
G01 X26.4540 Y58.7275
G01 X26.4554 Y58.7471
G01 X26.4595 Y58.8304
G01 X26.4600 Y58.8500
G01 X26.4595 Y58.8696
G01 X26.4554 Y58.9529
G01 X26.4540 Y58.9725
G01 X26.4516 Y58.9920
G01 X26.4393 Y59.0745
G01 X26.4360 Y59.0939
G01 X26.4317 Y59.1130
G01 X26.4114 Y59.1939
G01 X26.4062 Y59.2129
G01 X26.4000 Y59.2315
G01 X26.3719 Y59.3100
G01 X26.3648 Y59.3284
G01 X26.3604 Y59.3387
G01 X26.3604 Y70.2800
G01 X26.3599 Y70.2996
G01 X26.3557 Y70.3830
G01 X26.3524 Y70.4122
G01 X26.3416 Y70.4851
G01 X26.3383 Y70.5044
G01 X26.3340 Y70.5236
G01 X26.3161 Y70.5950
G01 X26.3079 Y70.6233
G01 X26.2799 Y70.7019
G01 X26.2728 Y70.7202
G01 X26.2649 Y70.7382
G01 X26.2334 Y70.8047
G01 X26.2245 Y70.8223
G01 X26.2149 Y70.8394
G01 X26.1770 Y70.9025
G01 X26.1665 Y70.9191
G01 X26.1552 Y70.9352
G01 X26.1113 Y70.9943
G01 X26.0993 Y71.0098
G01 X26.0864 Y71.0247
G01 X26.0303 Y71.0864
G01 X20.9364 Y76.1803
G01 X20.8673 Y76.2429
G01 X20.8443 Y76.2613
G01 X20.7852 Y76.3052
G01 X20.7691 Y76.3165
G01 X20.7525 Y76.3270
G01 X20.6894 Y76.3649
G01 X20.6723 Y76.3745
G01 X20.6547 Y76.3834
G01 X20.5882 Y76.4149
G01 X20.5702 Y76.4228
G01 X20.5519 Y76.4299
G01 X20.4826 Y76.4547
G01 X20.4639 Y76.4608
G01 X20.4450 Y76.4661
G01 X20.3736 Y76.4840
G01 X20.3544 Y76.4883
G01 X20.3351 Y76.4916
G01 X20.2622 Y76.5024
G01 X20.2428 Y76.5048
G01 X20.2232 Y76.5063
G01 X20.1496 Y76.5099
G01 X20.1300 Y76.5104
G01 X15.5387 Y76.5104
G01 X15.5284 Y76.5148
G01 X15.5100 Y76.5219
G01 X15.4315 Y76.5500
G01 X15.4129 Y76.5562
G01 X15.3939 Y76.5614
G01 X15.3130 Y76.5817
G01 X15.2939 Y76.5860
G01 X15.2745 Y76.5893
G01 X15.1920 Y76.6016
G01 X15.1725 Y76.6040
G01 X15.1529 Y76.6054
G01 X15.0696 Y76.6095
G01 X15.0500 Y76.6100
G01 X15.0304 Y76.6095
G01 X14.9471 Y76.6054
G01 X14.9275 Y76.6040
G01 X14.9080 Y76.6016
G01 X14.8255 Y76.5893
G01 X14.8061 Y76.5860
G01 X14.7870 Y76.5817
G01 X14.7061 Y76.5614
G01 X14.6871 Y76.5562
G01 X14.6685 Y76.5500
G01 X14.5900 Y76.5219
G01 X14.5716 Y76.5148
G01 X14.5613 Y76.5104
G01 X9.9700 Y76.5104
G01 X9.9504 Y76.5099
G01 X9.8768 Y76.5063
G01 X9.8572 Y76.5048
G01 X9.8378 Y76.5024
G01 X9.7649 Y76.4916
G01 X9.7360 Y76.4862
G01 X9.6550 Y76.4661
G01 X9.6361 Y76.4608
G01 X9.6174 Y76.4547
G01 X9.5481 Y76.4299
G01 X9.5298 Y76.4228
G01 X9.5118 Y76.4149
G01 X9.4453 Y76.3834
G01 X9.4191 Y76.3698
G01 X9.3475 Y76.3270
G01 X9.3228 Y76.3109
G01 X9.2479 Y76.2554
G01 X9.2253 Y76.2364
G01 X9.1636 Y76.1803
G01 X4.0766 Y71.0934
G01 X4.0630 Y71.0792
G01 X4.0136 Y71.0247
G01 X4.0007 Y71.0098
G01 X3.9887 Y70.9943
G01 X3.9448 Y70.9352
G01 X3.9335 Y70.9191
G01 X3.9230 Y70.9025
G01 X3.8851 Y70.8394
G01 X3.8755 Y70.8223
G01 X3.8666 Y70.8047
G01 X3.8351 Y70.7382
G01 X3.8272 Y70.7202
G01 X3.8201 Y70.7019
G01 X3.7953 Y70.6326
G01 X3.7892 Y70.6139
G01 X3.7839 Y70.5950
G01 X3.7660 Y70.5236
G01 X3.7617 Y70.5044
G01 X3.7584 Y70.4851
G01 X3.7476 Y70.4122
G01 X3.7452 Y70.3928
G01 X3.7437 Y70.3732
G01 X3.7401 Y70.2996
G01 X3.7396 Y70.2800
G01 X3.7396 Y59.3387
G01 X3.7352 Y59.3284
G01 X3.7281 Y59.3100
G01 X3.7000 Y59.2315
G01 X3.6938 Y59.2129
G01 X3.6886 Y59.1939
G01 X3.6683 Y59.1130
G01 X3.6640 Y59.0939
G01 X3.6607 Y59.0745
G01 X3.6484 Y58.9920
G01 X3.6460 Y58.9725
G01 X3.6446 Y58.9529
G01 X3.6405 Y58.8696
G01 X3.6400 Y58.8500
G01 X3.6405 Y58.8304
G01 X3.6446 Y58.7471
G01 X3.6460 Y58.7275
G01 X3.6484 Y58.7080
G01 X3.6607 Y58.6255
G01 X3.6640 Y58.6061
G01 X3.6683 Y58.5870
G01 X3.6886 Y58.5061
G01 X3.6938 Y58.4871
G01 X3.7000 Y58.4685
G01 X3.7281 Y58.3900
G01 X3.7352 Y58.3716
G01 X3.7396 Y58.3613
G01 X3.7396 Y40.2887
G01 X3.7352 Y40.2784
G01 X3.7281 Y40.2600
G01 X3.7000 Y40.1815
G01 X3.6938 Y40.1629
G01 X3.6886 Y40.1439
G01 X3.6683 Y40.0630
G01 X3.6640 Y40.0439
G01 X3.6607 Y40.0245
G01 X3.6484 Y39.9420
G01 X3.6460 Y39.9225
G01 X3.6446 Y39.9029
G01 X3.6405 Y39.8196
G01 X3.6400 Y39.8000
G01 X3.6405 Y39.7804
G01 X3.6446 Y39.6971
G01 X3.6460 Y39.6775
G01 X3.6484 Y39.6580
G01 X3.6607 Y39.5755
G01 X3.6640 Y39.5561
G01 X3.6683 Y39.5370
G01 X3.6886 Y39.4561
G01 X3.6938 Y39.4371
G01 X3.7000 Y39.4185
G01 X3.7281 Y39.3400
G01 X3.7352 Y39.3216
G01 X3.7396 Y39.3113
G01 X3.7396 Y21.2387
G00 Z2.0000
G00 X6.2796 Y21.2387
G01 F60.00
G01 Z-0.1500
G01 F120.00
G01 X6.2752 Y21.2284
G01 X6.2681 Y21.2100
G01 X6.2400 Y21.1315
G01 X6.2338 Y21.1129
G01 X6.2286 Y21.0939
G01 X6.2083 Y21.0130
G01 X6.2040 Y20.9939
G01 X6.2007 Y20.9745
G01 X6.1884 Y20.8920
G01 X6.1860 Y20.8725
G01 X6.1846 Y20.8529
G01 X6.1805 Y20.7696
G01 X6.1800 Y20.7500
G01 X6.1805 Y20.7304
G01 X6.1846 Y20.6471
G01 X6.1860 Y20.6275
G01 X6.1884 Y20.6080
G01 X6.2007 Y20.5255
G01 X6.2040 Y20.5061
G01 X6.2083 Y20.4870
G01 X6.2286 Y20.4061
G01 X6.2338 Y20.3871
G01 X6.2400 Y20.3685
G01 X6.2681 Y20.2900
G01 X6.2752 Y20.2716
G01 X6.2796 Y20.2613
G01 X6.2796 Y2.1887
G01 X6.2752 Y2.1784
G01 X6.2681 Y2.1600
G01 X6.2400 Y2.0815
G01 X6.2338 Y2.0629
G01 X6.2286 Y2.0439
G01 X6.2083 Y1.9630
G01 X6.2040 Y1.9439
G01 X6.2007 Y1.9245
G01 X6.1884 Y1.8420
G01 X6.1860 Y1.8225
G01 X6.1846 Y1.8029
G01 X6.1805 Y1.7196
G01 X6.1801 Y1.6902
G01 X6.1846 Y1.5971
G01 X6.1860 Y1.5775
G01 X6.1884 Y1.5580
G01 X6.2007 Y1.4755
G01 X6.2040 Y1.4561
G01 X6.2083 Y1.4370
G01 X6.2286 Y1.3561
G01 X6.2338 Y1.3371
G01 X6.2400 Y1.3185
G01 X6.2681 Y1.2400
G01 X6.2752 Y1.2216
G01 X6.2831 Y1.2037
G01 X6.3188 Y1.1283
G01 X6.3276 Y1.1108
G01 X6.3373 Y1.0937
G01 X6.3802 Y1.0221
G01 X6.3907 Y1.0055
G01 X6.4020 Y0.9895
G01 X6.4517 Y0.9225
G01 X6.4637 Y0.9070
G01 X6.4766 Y0.8921
G01 X6.5326 Y0.8303
G01 X6.5461 Y0.8161
G01 X6.5603 Y0.8026
G01 X6.6295 Y0.7401
G01 X6.6525 Y0.7217
G01 X6.7195 Y0.6720
G01 X6.7355 Y0.6607
G01 X6.7521 Y0.6502
G01 X6.8237 Y0.6073
G01 X6.8408 Y0.5976
G01 X6.8583 Y0.5888
G01 X6.9337 Y0.5531
G01 X6.9516 Y0.5452
G01 X6.9700 Y0.5381
G01 X7.0485 Y0.5100
G01 X7.0671 Y0.5038
G01 X7.0861 Y0.4986
G01 X7.1670 Y0.4783
G01 X7.1861 Y0.4740
G01 X7.2055 Y0.4707
G01 X7.2880 Y0.4584
G01 X7.3075 Y0.4560
G01 X7.3271 Y0.4546
G01 X7.4104 Y0.4505
G01 X7.4300 Y0.4500
G01 X7.4496 Y0.4505
G01 X7.5329 Y0.4546
G01 X7.5525 Y0.4560
G01 X7.5720 Y0.4584
G01 X7.6642 Y0.4722
G01 X7.6930 Y0.4783
G01 X7.7739 Y0.4986
G01 X7.8022 Y0.5068
G01 X7.8992 Y0.5415
G01 X7.9263 Y0.5531
G01 X8.0017 Y0.5888
G01 X8.0192 Y0.5976
G01 X8.0363 Y0.6073
G01 X8.1079 Y0.6502
G01 X8.1326 Y0.6662
G01 X8.2075 Y0.7217
G01 X8.2305 Y0.7401
G01 X8.3069 Y0.8093
G01 X8.3274 Y0.8303
G01 X8.3834 Y0.8921
G01 X8.3963 Y0.9070
G01 X8.4083 Y0.9225
G01 X8.4580 Y0.9895
G01 X8.4693 Y1.0055
G01 X8.4798 Y1.0221
G01 X8.5227 Y1.0937
G01 X8.5324 Y1.1108
G01 X8.5412 Y1.1283
G01 X8.5769 Y1.2037
G01 X8.5848 Y1.2216
G01 X8.5919 Y1.2400
G01 X8.6200 Y1.3185
G01 X8.6262 Y1.3371
G01 X8.6314 Y1.3561
G01 X8.6517 Y1.4370
G01 X8.6560 Y1.4561
G01 X8.6593 Y1.4755
G01 X8.6716 Y1.5580
G01 X8.6740 Y1.5775
G01 X8.6754 Y1.5971
G01 X8.6799 Y1.6902
G01 X8.6795 Y1.7196
G01 X8.6754 Y1.8029
G01 X8.6740 Y1.8225
G01 X8.6716 Y1.8420
G01 X8.6593 Y1.9245
G01 X8.6560 Y1.9439
G01 X8.6517 Y1.9630
G01 X8.6314 Y2.0439
G01 X8.6262 Y2.0629
G01 X8.6200 Y2.0815
G01 X8.5919 Y2.1600
G01 X8.5848 Y2.1784
G01 X8.5804 Y2.1887
G01 X8.5804 Y20.2613
G01 X8.5848 Y20.2716
G01 X8.5919 Y20.2900
G01 X8.6200 Y20.3685
G01 X8.6262 Y20.3871
G01 X8.6314 Y20.4061
G01 X8.6517 Y20.4870
G01 X8.6560 Y20.5061
G01 X8.6593 Y20.5255
G01 X8.6716 Y20.6080
G01 X8.6740 Y20.6275
G01 X8.6754 Y20.6471
G01 X8.6795 Y20.7304
G01 X8.6800 Y20.7500
G01 X8.6795 Y20.7696
G01 X8.6754 Y20.8529
G01 X8.6740 Y20.8725
G01 X8.6716 Y20.8920
G01 X8.6593 Y20.9745
G01 X8.6560 Y20.9939
G01 X8.6517 Y21.0130
G01 X8.6314 Y21.0939
G01 X8.6262 Y21.1129
G01 X8.6200 Y21.1315
G01 X8.5919 Y21.2100
G01 X8.5848 Y21.2284
G01 X8.5804 Y21.2387
G01 X8.5804 Y39.3113
G01 X8.5848 Y39.3216
G01 X8.5919 Y39.3400
G01 X8.6200 Y39.4185
G01 X8.6262 Y39.4371
G01 X8.6314 Y39.4561
G01 X8.6517 Y39.5370
G01 X8.6560 Y39.5561
G01 X8.6593 Y39.5755
G01 X8.6716 Y39.6580
G01 X8.6740 Y39.6775
G01 X8.6754 Y39.6971
G01 X8.6795 Y39.7804
G01 X8.6800 Y39.8000
G01 X8.6795 Y39.8196
G01 X8.6754 Y39.9029
G01 X8.6740 Y39.9225
G01 X8.6716 Y39.9420
G01 X8.6593 Y40.0245
G01 X8.6560 Y40.0439
G01 X8.6517 Y40.0630
G01 X8.6314 Y40.1439
G01 X8.6262 Y40.1629
G01 X8.6200 Y40.1815
G01 X8.5919 Y40.2600
G01 X8.5848 Y40.2784
G01 X8.5804 Y40.2887
G01 X8.5804 Y58.3613
G01 X8.5848 Y58.3716
G01 X8.5919 Y58.3900
G01 X8.6200 Y58.4685
G01 X8.6262 Y58.4871
G01 X8.6314 Y58.5061
G01 X8.6517 Y58.5870
G01 X8.6560 Y58.6061
G01 X8.6593 Y58.6255
G01 X8.6716 Y58.7080
G01 X8.6740 Y58.7275
G01 X8.6754 Y58.7471
G01 X8.6795 Y58.8304
G01 X8.6800 Y58.8500
G01 X8.6795 Y58.8696
G01 X8.6754 Y58.9529
G01 X8.6740 Y58.9725
G01 X8.6716 Y58.9920
G01 X8.6593 Y59.0745
G01 X8.6560 Y59.0939
G01 X8.6517 Y59.1130
G01 X8.6314 Y59.1939
G01 X8.6262 Y59.2129
G01 X8.6200 Y59.2315
G01 X8.5919 Y59.3100
G01 X8.5848 Y59.3284
G01 X8.5804 Y59.3387
G01 X8.5804 Y68.5335
G01 X11.7165 Y71.6696
G01 X14.5613 Y71.6696
G01 X14.5716 Y71.6652
G01 X14.5900 Y71.6581
G01 X14.6685 Y71.6300
G01 X14.6871 Y71.6238
G01 X14.7061 Y71.6186
G01 X14.7870 Y71.5983
G01 X14.8061 Y71.5940
G01 X14.8255 Y71.5907
G01 X14.9080 Y71.5784
G01 X14.9275 Y71.5760
G01 X14.9471 Y71.5746
G01 X15.0304 Y71.5705
G01 X15.0500 Y71.5700
G01 X15.0696 Y71.5705
G01 X15.1529 Y71.5746
G01 X15.1725 Y71.5760
G01 X15.1920 Y71.5784
G01 X15.2745 Y71.5907
G01 X15.2939 Y71.5940
G01 X15.3130 Y71.5983
G01 X15.3939 Y71.6186
G01 X15.4129 Y71.6238
G01 X15.4315 Y71.6300
G01 X15.5100 Y71.6581
G01 X15.5284 Y71.6652
G01 X15.5387 Y71.6696
G01 X18.3835 Y71.6696
G01 X21.5196 Y68.5335
G01 X21.5196 Y59.3387
G01 X21.5152 Y59.3284
G01 X21.5081 Y59.3100
G01 X21.4800 Y59.2315
G01 X21.4738 Y59.2129
G01 X21.4686 Y59.1939
G01 X21.4483 Y59.1130
G01 X21.4440 Y59.0939
G01 X21.4407 Y59.0745
G01 X21.4284 Y58.9920
G01 X21.4260 Y58.9725
G01 X21.4246 Y58.9529
G01 X21.4205 Y58.8696
G01 X21.4200 Y58.8500
G01 X21.4205 Y58.8304
G01 X21.4246 Y58.7471
G01 X21.4260 Y58.7275
G01 X21.4284 Y58.7080
G01 X21.4407 Y58.6255
G01 X21.4440 Y58.6061
G01 X21.4483 Y58.5870
G01 X21.4686 Y58.5061
G01 X21.4738 Y58.4871
G01 X21.4800 Y58.4685
G01 X21.5081 Y58.3900
G01 X21.5152 Y58.3716
G01 X21.5196 Y58.3613
G01 X21.5196 Y40.2887
G01 X21.5152 Y40.2784
G01 X21.5081 Y40.2600
G01 X21.4800 Y40.1815
G01 X21.4738 Y40.1629
G01 X21.4686 Y40.1439
G01 X21.4483 Y40.0630
G01 X21.4440 Y40.0439
G01 X21.4407 Y40.0245
G01 X21.4284 Y39.9420
G01 X21.4260 Y39.9225
G01 X21.4246 Y39.9029
G01 X21.4205 Y39.8196
G01 X21.4200 Y39.8000
G01 X21.4205 Y39.7804
G01 X21.4246 Y39.6971
G01 X21.4260 Y39.6775
G01 X21.4284 Y39.6580
G01 X21.4407 Y39.5755
G01 X21.4440 Y39.5561
G01 X21.4483 Y39.5370
G01 X21.4686 Y39.4561
G01 X21.4738 Y39.4371
G01 X21.4800 Y39.4185
G01 X21.5081 Y39.3400
G01 X21.5152 Y39.3216
G01 X21.5196 Y39.3113
G01 X21.5196 Y21.2387
G01 X21.5152 Y21.2284
G01 X21.5081 Y21.2100
G01 X21.4800 Y21.1315
G01 X21.4738 Y21.1129
G01 X21.4686 Y21.0939
G01 X21.4483 Y21.0130
G01 X21.4440 Y20.9939
G01 X21.4407 Y20.9745
G01 X21.4284 Y20.8920
G01 X21.4260 Y20.8725
G01 X21.4246 Y20.8529
G01 X21.4205 Y20.7696
G01 X21.4200 Y20.7500
G01 X21.4205 Y20.7304
G01 X21.4246 Y20.6471
G01 X21.4260 Y20.6275
G01 X21.4284 Y20.6080
G01 X21.4407 Y20.5255
G01 X21.4440 Y20.5061
G01 X21.4483 Y20.4870
G01 X21.4686 Y20.4061
G01 X21.4738 Y20.3871
G01 X21.4800 Y20.3685
G01 X21.5081 Y20.2900
G01 X21.5152 Y20.2716
G01 X21.5196 Y20.2613
G01 X21.5196 Y2.1887
G01 X21.5152 Y2.1784
G01 X21.5081 Y2.1600
G01 X21.4800 Y2.0815
G01 X21.4738 Y2.0629
G01 X21.4686 Y2.0439
G01 X21.4483 Y1.9630
G01 X21.4440 Y1.9439
G01 X21.4407 Y1.9245
G01 X21.4284 Y1.8420
G01 X21.4260 Y1.8225
G01 X21.4246 Y1.8029
G01 X21.4205 Y1.7196
G01 X21.4201 Y1.6902
G01 X21.4246 Y1.5971
G01 X21.4260 Y1.5775
G01 X21.4284 Y1.5580
G01 X21.4407 Y1.4755
G01 X21.4440 Y1.4561
G01 X21.4483 Y1.4370
G01 X21.4686 Y1.3561
G01 X21.4738 Y1.3371
G01 X21.4800 Y1.3185
G01 X21.5081 Y1.2400
G01 X21.5152 Y1.2216
G01 X21.5231 Y1.2037
G01 X21.5588 Y1.1283
G01 X21.5676 Y1.1108
G01 X21.5773 Y1.0937
G01 X21.6202 Y1.0221
G01 X21.6307 Y1.0055
G01 X21.6420 Y0.9895
G01 X21.6917 Y0.9225
G01 X21.7037 Y0.9070
G01 X21.7166 Y0.8921
G01 X21.7726 Y0.8303
G01 X21.7861 Y0.8161
G01 X21.8003 Y0.8026
G01 X21.8621 Y0.7466
G01 X21.8770 Y0.7337
G01 X21.8925 Y0.7217
G01 X21.9595 Y0.6720
G01 X21.9755 Y0.6607
G01 X21.9921 Y0.6502
G01 X22.0637 Y0.6073
G01 X22.0808 Y0.5976
G01 X22.0983 Y0.5888
G01 X22.1737 Y0.5531
G01 X22.1916 Y0.5452
G01 X22.2100 Y0.5381
G01 X22.2885 Y0.5100
G01 X22.3166 Y0.5011
G01 X22.4070 Y0.4783
G01 X22.4261 Y0.4740
G01 X22.4455 Y0.4707
G01 X22.5280 Y0.4584
G01 X22.5475 Y0.4560
G01 X22.5671 Y0.4546
G01 X22.6504 Y0.4505
G01 X22.6700 Y0.4500
G01 X22.6896 Y0.4505
G01 X22.7729 Y0.4546
G01 X22.7925 Y0.4560
G01 X22.8120 Y0.4584
G01 X22.8945 Y0.4707
G01 X22.9139 Y0.4740
G01 X22.9330 Y0.4783
G01 X23.0139 Y0.4986
G01 X23.0329 Y0.5038
G01 X23.0515 Y0.5100
G01 X23.1300 Y0.5381
G01 X23.1484 Y0.5452
G01 X23.1663 Y0.5531
G01 X23.2417 Y0.5888
G01 X23.2592 Y0.5976
G01 X23.2763 Y0.6073
G01 X23.3479 Y0.6502
G01 X23.3645 Y0.6607
G01 X23.3805 Y0.6720
G01 X23.4475 Y0.7217
G01 X23.4630 Y0.7337
G01 X23.4779 Y0.7466
G01 X23.5397 Y0.8026
G01 X23.5539 Y0.8161
G01 X23.5674 Y0.8303
G01 X23.6234 Y0.8921
G01 X23.6363 Y0.9070
G01 X23.6483 Y0.9225
G01 X23.6980 Y0.9895
G01 X23.7093 Y1.0055
G01 X23.7198 Y1.0221
G01 X23.7627 Y1.0937
G01 X23.7724 Y1.1108
G01 X23.7812 Y1.1283
G01 X23.8169 Y1.2037
G01 X23.8248 Y1.2216
G01 X23.8319 Y1.2400
G01 X23.8600 Y1.3185
G01 X23.8689 Y1.3466
G01 X23.8917 Y1.4370
G01 X23.8960 Y1.4561
G01 X23.8993 Y1.4755
G01 X23.9116 Y1.5580
G01 X23.9140 Y1.5775
G01 X23.9154 Y1.5971
G01 X23.9195 Y1.6804
G01 X23.9200 Y1.7000
G01 X23.9195 Y1.7196
G01 X23.9154 Y1.8029
G01 X23.9140 Y1.8225
G01 X23.9116 Y1.8420
G01 X23.8993 Y1.9245
G01 X23.8960 Y1.9439
G01 X23.8917 Y1.9630
G01 X23.8714 Y2.0439
G01 X23.8662 Y2.0629
G01 X23.8600 Y2.0815
G01 X23.8319 Y2.1600
G01 X23.8248 Y2.1784
G01 X23.8204 Y2.1887
G01 X23.8204 Y20.2613
G01 X23.8248 Y20.2716
G01 X23.8319 Y20.2900
G01 X23.8600 Y20.3685
G01 X23.8662 Y20.3871
G01 X23.8714 Y20.4061
G01 X23.8917 Y20.4870
G01 X23.8960 Y20.5061
G01 X23.8993 Y20.5255
G01 X23.9116 Y20.6080
G01 X23.9140 Y20.6275
G01 X23.9154 Y20.6471
G01 X23.9195 Y20.7304
G01 X23.9200 Y20.7500
G01 X23.9195 Y20.7696
G01 X23.9154 Y20.8529
G01 X23.9140 Y20.8725
G01 X23.9116 Y20.8920
G01 X23.8993 Y20.9745
G01 X23.8960 Y20.9939
G01 X23.8917 Y21.0130
G01 X23.8714 Y21.0939
G01 X23.8662 Y21.1129
G01 X23.8600 Y21.1315
G01 X23.8319 Y21.2100
G01 X23.8248 Y21.2284
G01 X23.8204 Y21.2387
G01 X23.8204 Y39.3113
G01 X23.8248 Y39.3216
G01 X23.8319 Y39.3400
G01 X23.8600 Y39.4185
G01 X23.8662 Y39.4371
G01 X23.8714 Y39.4561
G01 X23.8917 Y39.5370
G01 X23.8960 Y39.5561
G01 X23.8993 Y39.5755
G01 X23.9116 Y39.6580
G01 X23.9140 Y39.6775
G01 X23.9154 Y39.6971
G01 X23.9195 Y39.7804
G01 X23.9200 Y39.8000
G01 X23.9195 Y39.8196
G01 X23.9154 Y39.9029
G01 X23.9140 Y39.9225
G01 X23.9116 Y39.9420
G01 X23.8993 Y40.0245
G01 X23.8960 Y40.0439
G01 X23.8917 Y40.0630
G01 X23.8714 Y40.1439
G01 X23.8662 Y40.1629
G01 X23.8600 Y40.1815
G01 X23.8319 Y40.2600
G01 X23.8248 Y40.2784
G01 X23.8204 Y40.2887
G01 X23.8204 Y58.3613
G01 X23.8248 Y58.3716
G01 X23.8319 Y58.3900
G01 X23.8600 Y58.4685
G01 X23.8662 Y58.4871
G01 X23.8714 Y58.5061
G01 X23.8917 Y58.5870
G01 X23.8960 Y58.6061
G01 X23.8993 Y58.6255
G01 X23.9116 Y58.7080
G01 X23.9140 Y58.7275
G01 X23.9154 Y58.7471
G01 X23.9195 Y58.8304
G01 X23.9200 Y58.8500
G01 X23.9195 Y58.8696
G01 X23.9154 Y58.9529
G01 X23.9140 Y58.9725
G01 X23.9116 Y58.9920
G01 X23.8993 Y59.0745
G01 X23.8960 Y59.0939
G01 X23.8917 Y59.1130
G01 X23.8714 Y59.1939
G01 X23.8662 Y59.2129
G01 X23.8600 Y59.2315
G01 X23.8319 Y59.3100
G01 X23.8248 Y59.3284
G01 X23.8204 Y59.3387
G01 X23.8204 Y69.0100
G01 X23.8199 Y69.0296
G01 X23.8163 Y69.1032
G01 X23.8148 Y69.1228
G01 X23.8124 Y69.1422
G01 X23.8001 Y69.2248
G01 X23.7940 Y69.2536
G01 X23.7761 Y69.3250
G01 X23.7708 Y69.3439
G01 X23.7647 Y69.3626
G01 X23.7399 Y69.4319
G01 X23.7289 Y69.4593
G01 X23.6934 Y69.5347
G01 X23.6845 Y69.5523
G01 X23.6749 Y69.5694
G01 X23.6370 Y69.6325
G01 X23.6265 Y69.6491
G01 X23.6152 Y69.6652
G01 X23.5713 Y69.7243
G01 X23.5593 Y69.7398
G01 X23.5464 Y69.7547
G01 X23.4903 Y69.8164
G01 X19.6664 Y73.6403
G01 X19.6047 Y73.6964
G01 X19.5898 Y73.7093
G01 X19.5743 Y73.7213
G01 X19.5152 Y73.7652
G01 X19.4991 Y73.7765
G01 X19.4825 Y73.7870
G01 X19.4194 Y73.8249
G01 X19.4023 Y73.8345
G01 X19.3847 Y73.8434
G01 X19.3182 Y73.8749
G01 X19.3002 Y73.8828
G01 X19.2819 Y73.8899
G01 X19.2126 Y73.9147
G01 X19.1939 Y73.9208
G01 X19.1750 Y73.9261
G01 X19.1036 Y73.9440
G01 X19.0844 Y73.9483
G01 X19.0651 Y73.9516
G01 X18.9922 Y73.9624
G01 X18.9728 Y73.9648
G01 X18.9532 Y73.9663
G01 X18.8796 Y73.9699
G01 X18.8600 Y73.9704
G01 X15.5387 Y73.9704
G01 X15.5284 Y73.9748
G01 X15.5100 Y73.9819
G01 X15.4315 Y74.0100
G01 X15.4129 Y74.0162
G01 X15.3939 Y74.0214
G01 X15.3130 Y74.0417
G01 X15.2939 Y74.0460
G01 X15.2745 Y74.0493
G01 X15.1920 Y74.0616
G01 X15.1725 Y74.0640
G01 X15.1529 Y74.0654
G01 X15.0696 Y74.0695
G01 X15.0500 Y74.0700
G01 X15.0304 Y74.0695
G01 X14.9471 Y74.0654
G01 X14.9275 Y74.0640
G01 X14.9080 Y74.0616
G01 X14.8255 Y74.0493
G01 X14.8061 Y74.0460
G01 X14.7870 Y74.0417
G01 X14.7061 Y74.0214
G01 X14.6871 Y74.0162
G01 X14.6685 Y74.0100
G01 X14.5900 Y73.9819
G01 X14.5716 Y73.9748
G01 X14.5613 Y73.9704
G01 X11.2302 Y73.9703
G01 X11.1468 Y73.9663
G01 X11.1272 Y73.9648
G01 X11.1078 Y73.9624
G01 X11.0349 Y73.9516
G01 X11.0156 Y73.9483
G01 X10.9964 Y73.9440
G01 X10.9250 Y73.9261
G01 X10.9061 Y73.9208
G01 X10.8874 Y73.9147
G01 X10.8181 Y73.8899
G01 X10.7907 Y73.8789
G01 X10.7064 Y73.8391
G01 X10.6806 Y73.8249
G01 X10.6091 Y73.7819
G01 X10.5848 Y73.7652
G01 X10.5257 Y73.7213
G01 X10.5102 Y73.7093
G01 X10.4953 Y73.6964
G01 X10.4336 Y73.6403
G01 X6.6097 Y69.8164
G01 X6.5536 Y69.7547
G01 X6.5407 Y69.7398
G01 X6.5287 Y69.7243
G01 X6.4848 Y69.6652
G01 X6.4735 Y69.6491
G01 X6.4630 Y69.6325
G01 X6.4251 Y69.5694
G01 X6.4155 Y69.5523
G01 X6.4066 Y69.5347
G01 X6.3751 Y69.4682
G01 X6.3672 Y69.4502
G01 X6.3601 Y69.4319
G01 X6.3353 Y69.3626
G01 X6.3292 Y69.3439
G01 X6.3239 Y69.3250
G01 X6.3060 Y69.2536
G01 X6.3017 Y69.2344
G01 X6.2984 Y69.2151
G01 X6.2876 Y69.1422
G01 X6.2852 Y69.1228
G01 X6.2837 Y69.1032
G01 X6.2801 Y69.0296
G01 X6.2796 Y69.0100
G01 X6.2796 Y59.3387
G01 X6.2752 Y59.3284
G01 X6.2681 Y59.3100
G01 X6.2400 Y59.2315
G01 X6.2338 Y59.2129
G01 X6.2286 Y59.1939
G01 X6.2083 Y59.1130
G01 X6.2040 Y59.0939
G01 X6.2007 Y59.0745
G01 X6.1884 Y58.9920
G01 X6.1860 Y58.9725
G01 X6.1846 Y58.9529
G01 X6.1805 Y58.8696
G01 X6.1800 Y58.8500
G01 X6.1805 Y58.8304
G01 X6.1846 Y58.7471
G01 X6.1860 Y58.7275
G01 X6.1884 Y58.7080
G01 X6.2007 Y58.6255
G01 X6.2040 Y58.6061
G01 X6.2083 Y58.5870
G01 X6.2286 Y58.5061
G01 X6.2338 Y58.4871
G01 X6.2400 Y58.4685
G01 X6.2681 Y58.3900
G01 X6.2752 Y58.3716
G01 X6.2796 Y58.3613
G01 X6.2796 Y40.2887
G01 X6.2752 Y40.2784
G01 X6.2681 Y40.2600
G01 X6.2400 Y40.1815
G01 X6.2338 Y40.1629
G01 X6.2286 Y40.1439
G01 X6.2083 Y40.0630
G01 X6.2040 Y40.0439
G01 X6.2007 Y40.0245
G01 X6.1884 Y39.9420
G01 X6.1860 Y39.9225
G01 X6.1846 Y39.9029
G01 X6.1805 Y39.8196
G01 X6.1800 Y39.8000
G01 X6.1805 Y39.7804
G01 X6.1846 Y39.6971
G01 X6.1860 Y39.6775
G01 X6.1884 Y39.6580
G01 X6.2007 Y39.5755
G01 X6.2040 Y39.5561
G01 X6.2083 Y39.5370
G01 X6.2286 Y39.4561
G01 X6.2338 Y39.4371
G01 X6.2400 Y39.4185
G01 X6.2681 Y39.3400
G01 X6.2752 Y39.3216
G01 X6.2796 Y39.3113
G01 X6.2796 Y21.2387
G00 Z2.0000
M05
G00 Z2.0000
G00 Z5.00


