(G-CODE GENERATED BY FLATCAM v8.994 - www.flatcam.org - Version Date: 2020/11/7)

(Name: Power distribution 3pin 1-to-8-F_Cu.gbr_iso_combined_cnc)
(Type: G-code from Geometry)
(Units: MM)

(Created on Saturday, 03 June 2023 at 15:17)

(This preprocessor is the default preprocessor used by FlatCAM.)
(It is made to work with MACH3 compatible motion controllers.)

(TOOL DIAMETER: 0.8 mm)
(Feedrate_XY: 120.0 mm/min)
(Feedrate_Z: 60.0 mm/min)
(Feedrate rapids 1500.0 mm/min)

(Z_Cut: -1.3062 mm)
(Z_Move: 2.0 mm)
(Z Start: None mm)
(Z End: 15.0 mm)
(X,Y End: None mm)
(Steps per circle: 64)
(Preprocessor Geometry: default)

(X range:    7.0100 ...   38.6204  mm)
(Y range:    4.9250 ...   87.9704  mm)

(Spindle Speed: 0.0 RPM)
G21
G90
G94

G01 F120.00

M5
G00 Z15.0000
G00 X0.0000 Y0.0000
T1
M6    
(MSG, Change to Tool Dia = 0.8000)
M0
G00 Z15.0000

M03


(registration cross)
G00 X34.9300 Y84.3996
G01 F60.00
G01 Z-1.3062
G01 F120.00
G01 X35.0496 Y84.3996
G01 X35.0497 Y84.2702
G01 X35.0543 Y84.1770
G01 X35.0576 Y84.1478
G01 X35.0684 Y84.0749
G01 X35.0738 Y84.0460
G01 X35.0939 Y83.9650
G01 X35.0992 Y83.9461
G01 X35.1053 Y83.9274
G01 X35.1335 Y83.8489
G01 X35.1451 Y83.8218
G01 X35.1766 Y83.7553
G01 X35.1855 Y83.7377
G01 X35.1951 Y83.7206
G01 X35.2381 Y83.6491
G01 X35.2548 Y83.6248
G01 X35.2987 Y83.5657
G01 X35.3107 Y83.5502
G01 X35.3236 Y83.5353
G01 X35.3730 Y83.4808
G01 X35.3866 Y83.4666
G01 X35.4008 Y83.4530
G01 X35.4553 Y83.4036
G01 X35.4702 Y83.3907
G01 X35.4857 Y83.3787
G01 X35.5448 Y83.3348
G01 X35.5609 Y83.3235
G01 X35.5775 Y83.3130
G01 X35.6406 Y83.2751
G01 X35.6577 Y83.2655
G01 X35.6753 Y83.2566
G01 X35.7418 Y83.2251
G01 X35.7598 Y83.2172
G01 X35.7781 Y83.2101
G01 X35.8474 Y83.1853
G01 X35.8661 Y83.1792
G01 X35.8850 Y83.1739
G01 X35.9564 Y83.1560
G01 X35.9756 Y83.1517
G01 X35.9949 Y83.1484
G01 X36.0678 Y83.1376
G01 X36.0872 Y83.1352
G01 X36.1068 Y83.1337
G01 X36.1804 Y83.1301
G01 X36.2000 Y83.1296
G01 X36.2196 Y83.1301
G01 X36.2932 Y83.1337
G01 X36.3128 Y83.1352
G01 X36.3322 Y83.1376
G01 X36.4051 Y83.1484
G01 X36.4244 Y83.1517
G01 X36.4436 Y83.1560
G01 X36.5150 Y83.1739
G01 X36.5339 Y83.1792
G01 X36.5526 Y83.1853
G01 X36.6219 Y83.2101
G01 X36.6493 Y83.2211
G01 X36.7247 Y83.2566
G01 X36.7423 Y83.2655
G01 X36.7594 Y83.2751
G01 X36.8309 Y83.3181
G01 X36.8552 Y83.3348
G01 X36.9143 Y83.3787
G01 X36.9298 Y83.3907
G01 X36.9447 Y83.4036
G01 X36.9992 Y83.4530
G01 X37.0134 Y83.4666
G01 X37.0270 Y83.4808
G01 X37.0764 Y83.5353
G01 X37.0893 Y83.5502
G01 X37.1013 Y83.5657
G01 X37.1452 Y83.6248
G01 X37.1565 Y83.6409
G01 X37.1670 Y83.6575
G01 X37.2049 Y83.7206
G01 X37.2145 Y83.7377
G01 X37.2234 Y83.7553
G01 X37.2549 Y83.8218
G01 X37.2665 Y83.8489
G01 X37.2947 Y83.9274
G01 X37.3008 Y83.9461
G01 X37.3061 Y83.9650
G01 X37.3262 Y84.0460
G01 X37.3316 Y84.0749
G01 X37.3424 Y84.1478
G01 X37.3457 Y84.1770
G01 X37.3503 Y84.2702
G01 X37.3504 Y84.3996
G01 X37.4798 Y84.3997
G01 X37.5730 Y84.4043
G01 X37.6022 Y84.4076
G01 X37.6751 Y84.4184
G01 X37.6944 Y84.4217
G01 X37.7136 Y84.4260
G01 X37.7850 Y84.4439
G01 X37.8039 Y84.4492
G01 X37.8226 Y84.4553
G01 X37.8919 Y84.4801
G01 X37.9102 Y84.4872
G01 X37.9282 Y84.4951
G01 X37.9947 Y84.5266
G01 X38.0123 Y84.5355
G01 X38.0294 Y84.5451
G01 X38.0925 Y84.5830
G01 X38.1091 Y84.5935
G01 X38.1252 Y84.6048
G01 X38.1843 Y84.6487
G01 X38.1998 Y84.6607
G01 X38.2147 Y84.6736
G01 X38.2692 Y84.7230
G01 X38.2834 Y84.7366
G01 X38.2970 Y84.7508
G01 X38.3464 Y84.8053
G01 X38.3593 Y84.8202
G01 X38.3713 Y84.8357
G01 X38.4152 Y84.8948
G01 X38.4265 Y84.9109
G01 X38.4370 Y84.9275
G01 X38.4749 Y84.9906
G01 X38.4845 Y85.0077
G01 X38.4934 Y85.0253
G01 X38.5249 Y85.0918
G01 X38.5328 Y85.1098
G01 X38.5399 Y85.1281
G01 X38.5647 Y85.1974
G01 X38.5708 Y85.2161
G01 X38.5761 Y85.2350
G01 X38.5940 Y85.3064
G01 X38.5983 Y85.3256
G01 X38.6016 Y85.3449
G01 X38.6124 Y85.4178
G01 X38.6148 Y85.4372
G01 X38.6163 Y85.4568
G01 X38.6199 Y85.5304
G01 X38.6204 Y85.5500
G01 X38.6199 Y85.5696
G01 X38.6163 Y85.6432
G01 X38.6148 Y85.6628
G01 X38.6124 Y85.6822
G01 X38.6016 Y85.7551
G01 X38.5983 Y85.7744
G01 X38.5940 Y85.7936
G01 X38.5761 Y85.8650
G01 X38.5708 Y85.8839
G01 X38.5647 Y85.9026
G01 X38.5399 Y85.9719
G01 X38.5289 Y85.9993
G01 X38.4934 Y86.0747
G01 X38.4845 Y86.0923
G01 X38.4749 Y86.1094
G01 X38.4319 Y86.1809
G01 X38.4152 Y86.2052
G01 X38.3713 Y86.2643
G01 X38.3593 Y86.2798
G01 X38.3464 Y86.2947
G01 X38.2970 Y86.3492
G01 X38.2834 Y86.3634
G01 X38.2692 Y86.3770
G01 X38.2147 Y86.4264
G01 X38.1998 Y86.4393
G01 X38.1843 Y86.4513
G01 X38.1252 Y86.4952
G01 X38.1091 Y86.5065
G01 X38.0925 Y86.5170
G01 X38.0294 Y86.5549
G01 X38.0123 Y86.5645
G01 X37.9947 Y86.5734
G01 X37.9282 Y86.6049
G01 X37.9011 Y86.6165
G01 X37.8226 Y86.6447
G01 X37.8039 Y86.6508
G01 X37.7850 Y86.6561
G01 X37.7040 Y86.6762
G01 X37.6751 Y86.6816
G01 X37.6022 Y86.6924
G01 X37.5730 Y86.6957
G01 X37.4798 Y86.7003
G01 X37.3504 Y86.7004
G01 X37.3503 Y86.8298
G01 X37.3457 Y86.9230
G01 X37.3424 Y86.9522
G01 X37.3316 Y87.0251
G01 X37.3283 Y87.0444
G01 X37.3240 Y87.0636
G01 X37.3061 Y87.1350
G01 X37.3008 Y87.1539
G01 X37.2947 Y87.1726
G01 X37.2699 Y87.2419
G01 X37.2628 Y87.2602
G01 X37.2549 Y87.2782
G01 X37.2234 Y87.3447
G01 X37.2145 Y87.3623
G01 X37.2049 Y87.3794
G01 X37.1670 Y87.4425
G01 X37.1565 Y87.4591
G01 X37.1452 Y87.4752
G01 X37.1013 Y87.5343
G01 X37.0893 Y87.5498
G01 X37.0764 Y87.5647
G01 X37.0270 Y87.6192
G01 X37.0134 Y87.6334
G01 X36.9992 Y87.6470
G01 X36.9447 Y87.6964
G01 X36.9298 Y87.7093
G01 X36.9143 Y87.7213
G01 X36.8552 Y87.7652
G01 X36.8391 Y87.7765
G01 X36.8225 Y87.7870
G01 X36.7594 Y87.8249
G01 X36.7423 Y87.8345
G01 X36.7247 Y87.8434
G01 X36.6582 Y87.8749
G01 X36.6402 Y87.8828
G01 X36.6219 Y87.8899
G01 X36.5526 Y87.9147
G01 X36.5339 Y87.9208
G01 X36.5150 Y87.9261
G01 X36.4436 Y87.9440
G01 X36.4244 Y87.9483
G01 X36.4051 Y87.9516
G01 X36.3322 Y87.9624
G01 X36.3128 Y87.9648
G01 X36.2932 Y87.9663
G01 X36.2196 Y87.9699
G01 X36.2000 Y87.9704
G01 X36.1804 Y87.9699
G01 X36.1068 Y87.9663
G01 X36.0872 Y87.9648
G01 X36.0678 Y87.9624
G01 X35.9949 Y87.9516
G01 X35.9756 Y87.9483
G01 X35.9564 Y87.9440
G01 X35.8850 Y87.9261
G01 X35.8661 Y87.9208
G01 X35.8474 Y87.9147
G01 X35.7781 Y87.8899
G01 X35.7507 Y87.8789
G01 X35.6753 Y87.8434
G01 X35.6577 Y87.8345
G01 X35.6406 Y87.8249
G01 X35.5691 Y87.7819
G01 X35.5448 Y87.7652
G01 X35.4857 Y87.7213
G01 X35.4702 Y87.7093
G01 X35.4553 Y87.6964
G01 X35.4008 Y87.6470
G01 X35.3866 Y87.6334
G01 X35.3730 Y87.6192
G01 X35.3236 Y87.5647
G01 X35.3107 Y87.5498
G01 X35.2987 Y87.5343
G01 X35.2548 Y87.4752
G01 X35.2435 Y87.4591
G01 X35.2330 Y87.4425
G01 X35.1951 Y87.3794
G01 X35.1855 Y87.3623
G01 X35.1766 Y87.3447
G01 X35.1451 Y87.2782
G01 X35.1335 Y87.2511
G01 X35.1053 Y87.1726
G01 X35.0992 Y87.1539
G01 X35.0939 Y87.1350
G01 X35.0738 Y87.0540
G01 X35.0684 Y87.0251
G01 X35.0576 Y86.9522
G01 X35.0543 Y86.9230
G01 X35.0497 Y86.8298
G01 X35.0496 Y86.7004
G01 X34.9202 Y86.7003
G01 X34.8368 Y86.6963
G01 X34.8172 Y86.6948
G01 X34.7978 Y86.6924
G01 X34.7249 Y86.6816
G01 X34.7056 Y86.6783
G01 X34.6864 Y86.6740
G01 X34.6055 Y86.6536
G01 X34.5774 Y86.6447
G01 X34.5081 Y86.6199
G01 X34.4898 Y86.6128
G01 X34.4718 Y86.6049
G01 X34.4053 Y86.5734
G01 X34.3877 Y86.5645
G01 X34.3706 Y86.5549
G01 X34.2991 Y86.5119
G01 X34.2748 Y86.4952
G01 X34.2157 Y86.4513
G01 X34.2002 Y86.4393
G01 X34.1853 Y86.4264
G01 X34.1308 Y86.3770
G01 X34.1166 Y86.3634
G01 X34.1030 Y86.3492
G01 X34.0536 Y86.2947
G01 X34.0407 Y86.2798
G01 X34.0287 Y86.2643
G01 X33.9848 Y86.2052
G01 X33.9735 Y86.1891
G01 X33.9630 Y86.1725
G01 X33.9251 Y86.1094
G01 X33.9155 Y86.0923
G01 X33.9066 Y86.0747
G01 X33.8751 Y86.0082
G01 X33.8672 Y85.9902
G01 X33.8601 Y85.9719
G01 X33.8353 Y85.9026
G01 X33.8292 Y85.8839
G01 X33.8239 Y85.8650
G01 X33.8038 Y85.7840
G01 X33.7984 Y85.7551
G01 X33.7876 Y85.6822
G01 X33.7852 Y85.6628
G01 X33.7837 Y85.6432
G01 X33.7801 Y85.5696
G01 X33.7796 Y85.5500
G01 X33.7801 Y85.5304
G01 X33.7837 Y85.4568
G01 X33.7852 Y85.4372
G01 X33.7876 Y85.4178
G01 X33.7984 Y85.3449
G01 X33.8017 Y85.3256
G01 X33.8060 Y85.3064
G01 X33.8264 Y85.2255
G01 X33.8353 Y85.1974
G01 X33.8601 Y85.1281
G01 X33.8672 Y85.1098
G01 X33.8751 Y85.0918
G01 X33.9066 Y85.0253
G01 X33.9155 Y85.0077
G01 X33.9251 Y84.9906
G01 X33.9630 Y84.9275
G01 X33.9735 Y84.9109
G01 X33.9848 Y84.8948
G01 X34.0287 Y84.8357
G01 X34.0407 Y84.8202
G01 X34.0536 Y84.8053
G01 X34.1030 Y84.7508
G01 X34.1166 Y84.7366
G01 X34.1308 Y84.7230
G01 X34.1853 Y84.6736
G01 X34.2002 Y84.6607
G01 X34.2157 Y84.6487
G01 X34.2748 Y84.6048
G01 X34.2909 Y84.5935
G01 X34.3075 Y84.5830
G01 X34.3706 Y84.5451
G01 X34.3877 Y84.5355
G01 X34.4053 Y84.5266
G01 X34.4807 Y84.4911
G01 X34.5081 Y84.4801
G01 X34.5774 Y84.4553
G01 X34.5961 Y84.4492
G01 X34.6150 Y84.4439
G01 X34.6864 Y84.4260
G01 X34.7056 Y84.4217
G01 X34.7249 Y84.4184
G01 X34.7978 Y84.4076
G01 X34.8172 Y84.4052
G01 X34.8368 Y84.4037
G01 X34.9104 Y84.4001
G01 X34.9300 Y84.3996
G00 Z2.0000
M0
(pause after registration cross)

G00 Z2.0000
G01 F120.00
G00 X7.1096 Y7.2891
G01 F60.00
G01 Z-1.3062
G01 F120.00
G01 X7.1008 Y7.2788
G01 X7.0887 Y7.2633
G01 X7.0721 Y7.2390
G01 X7.0620 Y7.2222
G01 X7.0527 Y7.2048
G01 X7.0404 Y7.1781
G01 X7.0302 Y7.1505
G01 X7.0245 Y7.1317
G01 X7.0197 Y7.1126
G01 X7.0159 Y7.0934
G01 X7.0130 Y7.0740
G01 X7.0105 Y7.0446
G01 X7.0100 Y7.0250
G01 X7.0100 Y5.3250
G01 X7.0105 Y5.3054
G01 X7.0119 Y5.2858
G01 X7.0143 Y5.2663
G01 X7.0177 Y5.2470
G01 X7.0220 Y5.2278
G01 X7.0272 Y5.2089
G01 X7.0334 Y5.1902
G01 X7.0404 Y5.1719
G01 X7.0484 Y5.1540
G01 X7.0572 Y5.1364
G01 X7.0669 Y5.1194
G01 X7.0774 Y5.1028
G01 X7.0887 Y5.0867
G01 X7.1008 Y5.0712
G01 X7.1136 Y5.0564
G01 X7.1272 Y5.0422
G01 X7.1414 Y5.0286
G01 X7.1562 Y5.0158
G01 X7.1717 Y5.0037
G01 X7.1878 Y4.9924
G01 X7.2044 Y4.9819
G01 X7.2214 Y4.9722
G01 X7.2390 Y4.9634
G01 X7.2569 Y4.9554
G01 X7.2752 Y4.9484
G01 X7.2939 Y4.9422
G01 X7.3128 Y4.9370
G01 X7.3320 Y4.9327
G01 X7.3513 Y4.9293
G01 X7.3708 Y4.9269
G01 X7.3904 Y4.9255
G01 X7.4100 Y4.9250
G01 X9.1100 Y4.9250
G01 X9.1296 Y4.9255
G01 X9.1492 Y4.9269
G01 X9.1687 Y4.9293
G01 X9.1976 Y4.9347
G01 X9.2167 Y4.9395
G01 X9.2355 Y4.9452
G01 X9.2540 Y4.9518
G01 X9.2721 Y4.9593
G01 X9.2898 Y4.9677
G01 X9.3072 Y4.9770
G01 X9.3240 Y4.9871
G01 X9.3403 Y4.9980
G01 X9.3638 Y5.0158
G01 X9.3786 Y5.0286
G01 X9.3928 Y5.0422
G01 X9.4064 Y5.0564
G01 X9.4192 Y5.0712
G01 X9.4313 Y5.0867
G01 X9.4426 Y5.1028
G01 X9.4531 Y5.1194
G01 X9.4628 Y5.1364
G01 X9.4716 Y5.1540
G01 X9.4796 Y5.1719
G01 X9.4866 Y5.1902
G01 X9.4928 Y5.2089
G01 X9.4980 Y5.2278
G01 X9.5023 Y5.2470
G01 X9.5057 Y5.2663
G01 X9.5081 Y5.2858
G01 X9.5095 Y5.3054
G01 X9.5100 Y5.3250
G01 X9.5100 Y7.0250
G01 X9.5095 Y7.0446
G01 X9.5070 Y7.0740
G01 X9.5041 Y7.0934
G01 X9.5003 Y7.1126
G01 X9.4928 Y7.1411
G01 X9.4866 Y7.1598
G01 X9.4796 Y7.1781
G01 X9.4673 Y7.2048
G01 X9.4580 Y7.2222
G01 X9.4479 Y7.2390
G01 X9.4313 Y7.2633
G01 X9.4192 Y7.2788
G01 X9.4104 Y7.2891
G01 X9.4104 Y24.1109
G01 X9.4192 Y24.1212
G01 X9.4313 Y24.1367
G01 X9.4426 Y24.1528
G01 X9.4531 Y24.1694
G01 X9.4673 Y24.1952
G01 X9.4757 Y24.2129
G01 X9.4832 Y24.2310
G01 X9.4898 Y24.2495
G01 X9.4955 Y24.2683
G01 X9.5003 Y24.2874
G01 X9.5041 Y24.3066
G01 X9.5070 Y24.3260
G01 X9.5089 Y24.3456
G01 X9.5100 Y24.3750
G01 X9.5100 Y26.0750
G01 X9.5095 Y26.0946
G01 X9.5081 Y26.1142
G01 X9.5057 Y26.1337
G01 X9.5003 Y26.1626
G01 X9.4928 Y26.1911
G01 X9.4866 Y26.2098
G01 X9.4796 Y26.2281
G01 X9.4716 Y26.2460
G01 X9.4628 Y26.2636
G01 X9.4479 Y26.2890
G01 X9.4313 Y26.3133
G01 X9.4192 Y26.3288
G01 X9.4104 Y26.3391
G01 X9.4104 Y43.1609
G01 X9.4192 Y43.1712
G01 X9.4313 Y43.1867
G01 X9.4426 Y43.2028
G01 X9.4531 Y43.2194
G01 X9.4628 Y43.2364
G01 X9.4716 Y43.2540
G01 X9.4832 Y43.2810
G01 X9.4898 Y43.2995
G01 X9.4955 Y43.3183
G01 X9.5003 Y43.3374
G01 X9.5041 Y43.3566
G01 X9.5070 Y43.3760
G01 X9.5089 Y43.3956
G01 X9.5100 Y43.4250
G01 X9.5100 Y45.1250
G01 X9.5095 Y45.1446
G01 X9.5081 Y45.1642
G01 X9.5057 Y45.1837
G01 X9.5003 Y45.2126
G01 X9.4928 Y45.2411
G01 X9.4866 Y45.2598
G01 X9.4796 Y45.2781
G01 X9.4716 Y45.2960
G01 X9.4628 Y45.3136
G01 X9.4479 Y45.3390
G01 X9.4313 Y45.3633
G01 X9.4192 Y45.3788
G01 X9.4104 Y45.3891
G01 X9.4104 Y62.2109
G01 X9.4192 Y62.2212
G01 X9.4313 Y62.2367
G01 X9.4426 Y62.2528
G01 X9.4531 Y62.2694
G01 X9.4628 Y62.2864
G01 X9.4716 Y62.3040
G01 X9.4832 Y62.3310
G01 X9.4898 Y62.3495
G01 X9.4955 Y62.3683
G01 X9.5003 Y62.3874
G01 X9.5041 Y62.4066
G01 X9.5070 Y62.4260
G01 X9.5089 Y62.4456
G01 X9.5100 Y62.4750
G01 X9.5100 Y64.1750
G01 X9.5095 Y64.1946
G01 X9.5081 Y64.2142
G01 X9.5057 Y64.2337
G01 X9.5003 Y64.2626
G01 X9.4955 Y64.2817
G01 X9.4898 Y64.3005
G01 X9.4796 Y64.3281
G01 X9.4716 Y64.3460
G01 X9.4628 Y64.3636
G01 X9.4479 Y64.3890
G01 X9.4313 Y64.4133
G01 X9.4192 Y64.4288
G01 X9.4104 Y64.4391
G01 X9.4104 Y75.5485
G01 X15.0865 Y81.2246
G01 X19.8459 Y81.2246
G01 X19.8562 Y81.2158
G01 X19.8717 Y81.2037
G01 X19.8878 Y81.1924
G01 X19.9044 Y81.1819
G01 X19.9214 Y81.1722
G01 X19.9390 Y81.1634
G01 X19.9660 Y81.1518
G01 X19.9845 Y81.1452
G01 X20.0033 Y81.1395
G01 X20.0320 Y81.1327
G01 X20.0513 Y81.1293
G01 X20.0708 Y81.1269
G01 X20.0904 Y81.1255
G01 X20.1100 Y81.1250
G01 X21.8100 Y81.1250
G01 X21.8296 Y81.1255
G01 X21.8492 Y81.1269
G01 X21.8687 Y81.1293
G01 X21.8976 Y81.1347
G01 X21.9167 Y81.1395
G01 X21.9355 Y81.1452
G01 X21.9631 Y81.1554
G01 X21.9898 Y81.1677
G01 X22.0072 Y81.1770
G01 X22.0240 Y81.1871
G01 X22.0483 Y81.2037
G01 X22.0638 Y81.2158
G01 X22.0741 Y81.2246
G01 X26.8335 Y81.2246
G01 X32.5096 Y75.5485
G01 X32.5096 Y64.4391
G01 X32.5008 Y64.4288
G01 X32.4887 Y64.4133
G01 X32.4774 Y64.3972
G01 X32.4669 Y64.3806
G01 X32.4527 Y64.3548
G01 X32.4443 Y64.3371
G01 X32.4368 Y64.3190
G01 X32.4302 Y64.3005
G01 X32.4245 Y64.2817
G01 X32.4197 Y64.2626
G01 X32.4159 Y64.2434
G01 X32.4130 Y64.2240
G01 X32.4111 Y64.2044
G01 X32.4100 Y64.1750
G01 X32.4100 Y62.4750
G01 X32.4105 Y62.4554
G01 X32.4119 Y62.4358
G01 X32.4143 Y62.4163
G01 X32.4197 Y62.3874
G01 X32.4272 Y62.3589
G01 X32.4334 Y62.3402
G01 X32.4404 Y62.3219
G01 X32.4527 Y62.2952
G01 X32.4620 Y62.2778
G01 X32.4721 Y62.2610
G01 X32.4887 Y62.2367
G01 X32.5008 Y62.2212
G01 X32.5096 Y62.2109
G01 X32.5096 Y45.3891
G01 X32.5008 Y45.3788
G01 X32.4887 Y45.3633
G01 X32.4774 Y45.3472
G01 X32.4669 Y45.3306
G01 X32.4527 Y45.3048
G01 X32.4443 Y45.2871
G01 X32.4368 Y45.2690
G01 X32.4302 Y45.2505
G01 X32.4245 Y45.2317
G01 X32.4197 Y45.2126
G01 X32.4159 Y45.1934
G01 X32.4130 Y45.1740
G01 X32.4111 Y45.1544
G01 X32.4100 Y45.1250
G01 X32.4100 Y43.4250
G01 X32.4105 Y43.4054
G01 X32.4119 Y43.3858
G01 X32.4143 Y43.3663
G01 X32.4197 Y43.3374
G01 X32.4272 Y43.3089
G01 X32.4334 Y43.2902
G01 X32.4404 Y43.2719
G01 X32.4527 Y43.2452
G01 X32.4620 Y43.2278
G01 X32.4721 Y43.2110
G01 X32.4887 Y43.1867
G01 X32.5008 Y43.1712
G01 X32.5096 Y43.1609
G01 X32.5096 Y26.3391
G01 X32.5008 Y26.3288
G01 X32.4887 Y26.3133
G01 X32.4774 Y26.2972
G01 X32.4669 Y26.2806
G01 X32.4527 Y26.2548
G01 X32.4443 Y26.2371
G01 X32.4368 Y26.2190
G01 X32.4302 Y26.2005
G01 X32.4245 Y26.1817
G01 X32.4197 Y26.1626
G01 X32.4159 Y26.1434
G01 X32.4130 Y26.1240
G01 X32.4111 Y26.1044
G01 X32.4100 Y26.0750
G01 X32.4100 Y24.3750
G01 X32.4105 Y24.3554
G01 X32.4119 Y24.3358
G01 X32.4143 Y24.3163
G01 X32.4197 Y24.2874
G01 X32.4272 Y24.2589
G01 X32.4334 Y24.2402
G01 X32.4404 Y24.2219
G01 X32.4527 Y24.1952
G01 X32.4620 Y24.1778
G01 X32.4721 Y24.1610
G01 X32.4887 Y24.1367
G01 X32.5008 Y24.1212
G01 X32.5096 Y24.1109
G01 X32.5096 Y7.2891
G01 X32.5008 Y7.2788
G01 X32.4887 Y7.2633
G01 X32.4721 Y7.2390
G01 X32.4620 Y7.2222
G01 X32.4527 Y7.2048
G01 X32.4404 Y7.1781
G01 X32.4334 Y7.1598
G01 X32.4272 Y7.1411
G01 X32.4197 Y7.1126
G01 X32.4143 Y7.0837
G01 X32.4119 Y7.0642
G01 X32.4105 Y7.0446
G01 X32.4100 Y7.0250
G01 X32.4101 Y5.3152
G01 X32.4119 Y5.2858
G01 X32.4143 Y5.2663
G01 X32.4177 Y5.2470
G01 X32.4220 Y5.2278
G01 X32.4272 Y5.2089
G01 X32.4334 Y5.1902
G01 X32.4404 Y5.1719
G01 X32.4484 Y5.1540
G01 X32.4572 Y5.1364
G01 X32.4669 Y5.1194
G01 X32.4774 Y5.1028
G01 X32.4887 Y5.0867
G01 X32.5008 Y5.0712
G01 X32.5136 Y5.0564
G01 X32.5272 Y5.0422
G01 X32.5414 Y5.0286
G01 X32.5562 Y5.0158
G01 X32.5717 Y5.0037
G01 X32.5878 Y4.9924
G01 X32.6044 Y4.9819
G01 X32.6214 Y4.9722
G01 X32.6479 Y4.9593
G01 X32.6660 Y4.9518
G01 X32.6845 Y4.9452
G01 X32.7033 Y4.9395
G01 X32.7224 Y4.9347
G01 X32.7513 Y4.9293
G01 X32.7708 Y4.9269
G01 X32.7904 Y4.9255
G01 X32.8100 Y4.9250
G01 X34.5100 Y4.9250
G01 X34.5394 Y4.9261
G01 X34.5687 Y4.9293
G01 X34.5976 Y4.9347
G01 X34.6261 Y4.9422
G01 X34.6540 Y4.9518
G01 X34.6810 Y4.9634
G01 X34.7072 Y4.9770
G01 X34.7322 Y4.9924
G01 X34.7561 Y5.0097
G01 X34.7786 Y5.0286
G01 X34.7997 Y5.0492
G01 X34.8192 Y5.0712
G01 X34.8370 Y5.0947
G01 X34.8479 Y5.1110
G01 X34.8628 Y5.1364
G01 X34.8757 Y5.1629
G01 X34.8866 Y5.1902
G01 X34.8955 Y5.2183
G01 X34.9003 Y5.2374
G01 X34.9057 Y5.2663
G01 X34.9089 Y5.2956
G01 X34.9100 Y5.3250
G01 X34.9100 Y7.0250
G01 X34.9095 Y7.0446
G01 X34.9081 Y7.0642
G01 X34.9057 Y7.0837
G01 X34.9003 Y7.1126
G01 X34.8928 Y7.1411
G01 X34.8866 Y7.1598
G01 X34.8796 Y7.1781
G01 X34.8673 Y7.2048
G01 X34.8580 Y7.2222
G01 X34.8479 Y7.2390
G01 X34.8313 Y7.2633
G01 X34.8192 Y7.2788
G01 X34.8104 Y7.2891
G01 X34.8104 Y24.1109
G01 X34.8192 Y24.1212
G01 X34.8313 Y24.1367
G01 X34.8426 Y24.1528
G01 X34.8531 Y24.1694
G01 X34.8673 Y24.1952
G01 X34.8757 Y24.2129
G01 X34.8832 Y24.2310
G01 X34.8898 Y24.2495
G01 X34.8955 Y24.2683
G01 X34.9003 Y24.2874
G01 X34.9041 Y24.3066
G01 X34.9070 Y24.3260
G01 X34.9089 Y24.3456
G01 X34.9100 Y24.3750
G01 X34.9100 Y26.0750
G01 X34.9095 Y26.0946
G01 X34.9081 Y26.1142
G01 X34.9057 Y26.1337
G01 X34.9003 Y26.1626
G01 X34.8928 Y26.1911
G01 X34.8866 Y26.2098
G01 X34.8796 Y26.2281
G01 X34.8673 Y26.2548
G01 X34.8580 Y26.2722
G01 X34.8479 Y26.2890
G01 X34.8313 Y26.3133
G01 X34.8192 Y26.3288
G01 X34.8104 Y26.3391
G01 X34.8104 Y43.1609
G01 X34.8192 Y43.1712
G01 X34.8313 Y43.1867
G01 X34.8426 Y43.2028
G01 X34.8531 Y43.2194
G01 X34.8673 Y43.2452
G01 X34.8757 Y43.2629
G01 X34.8832 Y43.2810
G01 X34.8898 Y43.2995
G01 X34.8955 Y43.3183
G01 X34.9003 Y43.3374
G01 X34.9041 Y43.3566
G01 X34.9070 Y43.3760
G01 X34.9089 Y43.3956
G01 X34.9100 Y43.4250
G01 X34.9100 Y45.1250
G01 X34.9095 Y45.1446
G01 X34.9081 Y45.1642
G01 X34.9057 Y45.1837
G01 X34.9003 Y45.2126
G01 X34.8928 Y45.2411
G01 X34.8866 Y45.2598
G01 X34.8796 Y45.2781
G01 X34.8673 Y45.3048
G01 X34.8580 Y45.3222
G01 X34.8479 Y45.3390
G01 X34.8313 Y45.3633
G01 X34.8192 Y45.3788
G01 X34.8104 Y45.3891
G01 X34.8104 Y62.2109
G01 X34.8192 Y62.2212
G01 X34.8313 Y62.2367
G01 X34.8479 Y62.2610
G01 X34.8580 Y62.2778
G01 X34.8673 Y62.2952
G01 X34.8796 Y62.3219
G01 X34.8866 Y62.3402
G01 X34.8928 Y62.3589
G01 X34.9003 Y62.3874
G01 X34.9057 Y62.4163
G01 X34.9081 Y62.4358
G01 X34.9095 Y62.4554
G01 X34.9100 Y62.4750
G01 X34.9100 Y64.1750
G01 X34.9095 Y64.1946
G01 X34.9081 Y64.2142
G01 X34.9057 Y64.2337
G01 X34.9023 Y64.2530
G01 X34.8980 Y64.2722
G01 X34.8928 Y64.2911
G01 X34.8832 Y64.3190
G01 X34.8757 Y64.3371
G01 X34.8673 Y64.3548
G01 X34.8531 Y64.3806
G01 X34.8426 Y64.3972
G01 X34.8313 Y64.4133
G01 X34.8192 Y64.4288
G01 X34.8104 Y64.4391
G01 X34.8104 Y76.0250
G01 X34.8099 Y76.0446
G01 X34.8063 Y76.1182
G01 X34.8048 Y76.1378
G01 X34.8024 Y76.1572
G01 X34.7916 Y76.2301
G01 X34.7883 Y76.2494
G01 X34.7840 Y76.2686
G01 X34.7661 Y76.3400
G01 X34.7608 Y76.3589
G01 X34.7547 Y76.3776
G01 X34.7299 Y76.4469
G01 X34.7228 Y76.4652
G01 X34.7149 Y76.4832
G01 X34.6834 Y76.5497
G01 X34.6745 Y76.5673
G01 X34.6649 Y76.5844
G01 X34.6219 Y76.6559
G01 X34.6052 Y76.6802
G01 X34.5613 Y76.7393
G01 X34.5493 Y76.7548
G01 X34.5364 Y76.7697
G01 X34.4870 Y76.8242
G01 X34.4734 Y76.8384
G01 X28.1164 Y83.1953
G01 X28.0473 Y83.2579
G01 X28.0243 Y83.2763
G01 X27.9652 Y83.3202
G01 X27.9491 Y83.3315
G01 X27.9325 Y83.3420
G01 X27.8694 Y83.3799
G01 X27.8523 Y83.3895
G01 X27.8347 Y83.3984
G01 X27.7682 Y83.4299
G01 X27.7502 Y83.4378
G01 X27.7319 Y83.4449
G01 X27.6626 Y83.4697
G01 X27.6345 Y83.4786
G01 X27.5536 Y83.4990
G01 X27.5344 Y83.5033
G01 X27.5151 Y83.5066
G01 X27.4422 Y83.5174
G01 X27.4228 Y83.5198
G01 X27.4032 Y83.5213
G01 X27.3296 Y83.5249
G01 X27.3100 Y83.5254
G01 X22.0741 Y83.5254
G01 X22.0638 Y83.5342
G01 X22.0483 Y83.5463
G01 X22.0240 Y83.5629
G01 X21.9986 Y83.5778
G01 X21.9810 Y83.5866
G01 X21.9631 Y83.5946
G01 X21.9355 Y83.6048
G01 X21.9167 Y83.6105
G01 X21.8976 Y83.6153
G01 X21.8784 Y83.6191
G01 X21.8590 Y83.6220
G01 X21.8296 Y83.6245
G01 X21.8100 Y83.6250
G01 X20.1100 Y83.6250
G01 X20.0806 Y83.6239
G01 X20.0610 Y83.6220
G01 X20.0416 Y83.6191
G01 X20.0224 Y83.6153
G01 X20.0033 Y83.6105
G01 X19.9845 Y83.6048
G01 X19.9660 Y83.5982
G01 X19.9390 Y83.5866
G01 X19.9214 Y83.5778
G01 X19.9044 Y83.5681
G01 X19.8878 Y83.5576
G01 X19.8717 Y83.5463
G01 X19.8562 Y83.5342
G01 X19.8459 Y83.5254
G01 X14.6100 Y83.5254
G01 X14.5904 Y83.5249
G01 X14.5168 Y83.5213
G01 X14.4972 Y83.5198
G01 X14.4778 Y83.5174
G01 X14.4049 Y83.5066
G01 X14.3856 Y83.5033
G01 X14.3664 Y83.4990
G01 X14.2855 Y83.4786
G01 X14.2574 Y83.4697
G01 X14.1881 Y83.4449
G01 X14.1698 Y83.4378
G01 X14.1518 Y83.4299
G01 X14.0853 Y83.3984
G01 X14.0591 Y83.3848
G01 X13.9875 Y83.3420
G01 X13.9628 Y83.3259
G01 X13.8879 Y83.2704
G01 X13.8653 Y83.2514
G01 X13.8036 Y83.1953
G01 X7.4466 Y76.8384
G01 X7.4330 Y76.8242
G01 X7.3836 Y76.7697
G01 X7.3707 Y76.7548
G01 X7.3587 Y76.7393
G01 X7.3148 Y76.6802
G01 X7.3035 Y76.6641
G01 X7.2930 Y76.6475
G01 X7.2551 Y76.5844
G01 X7.2455 Y76.5673
G01 X7.2366 Y76.5497
G01 X7.2051 Y76.4832
G01 X7.1972 Y76.4652
G01 X7.1901 Y76.4469
G01 X7.1653 Y76.3776
G01 X7.1564 Y76.3495
G01 X7.1360 Y76.2686
G01 X7.1317 Y76.2494
G01 X7.1284 Y76.2301
G01 X7.1176 Y76.1572
G01 X7.1152 Y76.1378
G01 X7.1137 Y76.1182
G01 X7.1101 Y76.0446
G01 X7.1096 Y76.0250
G01 X7.1096 Y64.4391
G01 X7.1008 Y64.4288
G01 X7.0887 Y64.4133
G01 X7.0774 Y64.3972
G01 X7.0669 Y64.3806
G01 X7.0527 Y64.3548
G01 X7.0443 Y64.3371
G01 X7.0368 Y64.3190
G01 X7.0302 Y64.3005
G01 X7.0245 Y64.2817
G01 X7.0177 Y64.2530
G01 X7.0143 Y64.2337
G01 X7.0119 Y64.2142
G01 X7.0105 Y64.1946
G01 X7.0100 Y64.1750
G01 X7.0100 Y62.4750
G01 X7.0105 Y62.4554
G01 X7.0119 Y62.4358
G01 X7.0143 Y62.4163
G01 X7.0197 Y62.3874
G01 X7.0245 Y62.3683
G01 X7.0302 Y62.3495
G01 X7.0404 Y62.3219
G01 X7.0484 Y62.3040
G01 X7.0572 Y62.2864
G01 X7.0721 Y62.2610
G01 X7.0887 Y62.2367
G01 X7.1008 Y62.2212
G01 X7.1096 Y62.2109
G01 X7.1096 Y45.3891
G01 X7.1008 Y45.3788
G01 X7.0887 Y45.3633
G01 X7.0774 Y45.3472
G01 X7.0669 Y45.3306
G01 X7.0572 Y45.3136
G01 X7.0484 Y45.2960
G01 X7.0368 Y45.2690
G01 X7.0302 Y45.2505
G01 X7.0245 Y45.2317
G01 X7.0197 Y45.2126
G01 X7.0159 Y45.1934
G01 X7.0130 Y45.1740
G01 X7.0111 Y45.1544
G01 X7.0100 Y45.1250
G01 X7.0100 Y43.4250
G01 X7.0105 Y43.4054
G01 X7.0119 Y43.3858
G01 X7.0143 Y43.3663
G01 X7.0197 Y43.3374
G01 X7.0245 Y43.3183
G01 X7.0302 Y43.2995
G01 X7.0404 Y43.2719
G01 X7.0484 Y43.2540
G01 X7.0572 Y43.2364
G01 X7.0721 Y43.2110
G01 X7.0887 Y43.1867
G01 X7.1008 Y43.1712
G01 X7.1096 Y43.1609
G01 X7.1096 Y26.3391
G01 X7.1008 Y26.3288
G01 X7.0887 Y26.3133
G01 X7.0774 Y26.2972
G01 X7.0669 Y26.2806
G01 X7.0572 Y26.2636
G01 X7.0484 Y26.2460
G01 X7.0368 Y26.2190
G01 X7.0302 Y26.2005
G01 X7.0245 Y26.1817
G01 X7.0197 Y26.1626
G01 X7.0159 Y26.1434
G01 X7.0130 Y26.1240
G01 X7.0111 Y26.1044
G01 X7.0100 Y26.0750
G01 X7.0100 Y24.3750
G01 X7.0105 Y24.3554
G01 X7.0119 Y24.3358
G01 X7.0143 Y24.3163
G01 X7.0197 Y24.2874
G01 X7.0245 Y24.2683
G01 X7.0302 Y24.2495
G01 X7.0404 Y24.2219
G01 X7.0484 Y24.2040
G01 X7.0572 Y24.1864
G01 X7.0721 Y24.1610
G01 X7.0887 Y24.1367
G01 X7.1008 Y24.1212
G01 X7.1096 Y24.1109
G01 X7.1096 Y7.2891
G00 Z2.0000
G00 X9.6496 Y25.7137
G01 F60.00
G01 Z-1.3062
G01 F120.00
G01 X9.6452 Y25.7034
G01 X9.6381 Y25.6850
G01 X9.6100 Y25.6065
G01 X9.6038 Y25.5879
G01 X9.5986 Y25.5689
G01 X9.5783 Y25.4880
G01 X9.5740 Y25.4689
G01 X9.5707 Y25.4495
G01 X9.5584 Y25.3670
G01 X9.5560 Y25.3475
G01 X9.5546 Y25.3279
G01 X9.5505 Y25.2446
G01 X9.5500 Y25.2250
G01 X9.5505 Y25.2054
G01 X9.5546 Y25.1221
G01 X9.5560 Y25.1025
G01 X9.5584 Y25.0830
G01 X9.5707 Y25.0005
G01 X9.5740 Y24.9811
G01 X9.5783 Y24.9620
G01 X9.5986 Y24.8811
G01 X9.6038 Y24.8621
G01 X9.6100 Y24.8435
G01 X9.6381 Y24.7650
G01 X9.6452 Y24.7466
G01 X9.6496 Y24.7363
G01 X9.6496 Y6.6637
G01 X9.6452 Y6.6534
G01 X9.6381 Y6.6350
G01 X9.6100 Y6.5565
G01 X9.6038 Y6.5379
G01 X9.5986 Y6.5189
G01 X9.5783 Y6.4380
G01 X9.5740 Y6.4189
G01 X9.5707 Y6.3995
G01 X9.5571 Y6.3073
G01 X9.5546 Y6.2779
G01 X9.5505 Y6.1946
G01 X9.5500 Y6.1750
G01 X9.5505 Y6.1554
G01 X9.5546 Y6.0721
G01 X9.5560 Y6.0525
G01 X9.5584 Y6.0330
G01 X9.5707 Y5.9505
G01 X9.5740 Y5.9311
G01 X9.5783 Y5.9120
G01 X9.5986 Y5.8311
G01 X9.6038 Y5.8121
G01 X9.6100 Y5.7935
G01 X9.6381 Y5.7150
G01 X9.6452 Y5.6966
G01 X9.6531 Y5.6787
G01 X9.6888 Y5.6033
G01 X9.6976 Y5.5858
G01 X9.7073 Y5.5687
G01 X9.7502 Y5.4971
G01 X9.7607 Y5.4805
G01 X9.7720 Y5.4645
G01 X9.8217 Y5.3975
G01 X9.8337 Y5.3820
G01 X9.8466 Y5.3671
G01 X9.9026 Y5.3053
G01 X9.9161 Y5.2911
G01 X9.9303 Y5.2776
G01 X9.9995 Y5.2151
G01 X10.0225 Y5.1967
G01 X10.0895 Y5.1470
G01 X10.1055 Y5.1357
G01 X10.1221 Y5.1252
G01 X10.1937 Y5.0823
G01 X10.2108 Y5.0726
G01 X10.2283 Y5.0638
G01 X10.3037 Y5.0281
G01 X10.3216 Y5.0202
G01 X10.3400 Y5.0131
G01 X10.4185 Y4.9850
G01 X10.4371 Y4.9788
G01 X10.4561 Y4.9736
G01 X10.5370 Y4.9533
G01 X10.5561 Y4.9490
G01 X10.5755 Y4.9457
G01 X10.6580 Y4.9334
G01 X10.6775 Y4.9310
G01 X10.6971 Y4.9296
G01 X10.7804 Y4.9255
G01 X10.8000 Y4.9250
G01 X10.8196 Y4.9255
G01 X10.9029 Y4.9296
G01 X10.9323 Y4.9321
G01 X11.0342 Y4.9472
G01 X11.0630 Y4.9533
G01 X11.1534 Y4.9761
G01 X11.1815 Y4.9850
G01 X11.2600 Y5.0131
G01 X11.2784 Y5.0202
G01 X11.2963 Y5.0281
G01 X11.3717 Y5.0638
G01 X11.3892 Y5.0726
G01 X11.4063 Y5.0823
G01 X11.4862 Y5.1303
G01 X11.5105 Y5.1470
G01 X11.5775 Y5.1967
G01 X11.6005 Y5.2151
G01 X11.6769 Y5.2843
G01 X11.6974 Y5.3053
G01 X11.7534 Y5.3671
G01 X11.7663 Y5.3820
G01 X11.7783 Y5.3975
G01 X11.8280 Y5.4645
G01 X11.8393 Y5.4805
G01 X11.8498 Y5.4971
G01 X11.8927 Y5.5687
G01 X11.9024 Y5.5858
G01 X11.9112 Y5.6033
G01 X11.9469 Y5.6787
G01 X11.9548 Y5.6966
G01 X11.9619 Y5.7150
G01 X11.9900 Y5.7935
G01 X11.9962 Y5.8121
G01 X12.0014 Y5.8311
G01 X12.0217 Y5.9120
G01 X12.0260 Y5.9311
G01 X12.0293 Y5.9505
G01 X12.0416 Y6.0330
G01 X12.0440 Y6.0525
G01 X12.0454 Y6.0721
G01 X12.0499 Y6.1652
G01 X12.0495 Y6.1946
G01 X12.0454 Y6.2779
G01 X12.0440 Y6.2975
G01 X12.0416 Y6.3170
G01 X12.0293 Y6.3995
G01 X12.0260 Y6.4189
G01 X12.0217 Y6.4380
G01 X12.0014 Y6.5189
G01 X11.9962 Y6.5379
G01 X11.9900 Y6.5565
G01 X11.9619 Y6.6350
G01 X11.9548 Y6.6534
G01 X11.9504 Y6.6637
G01 X11.9504 Y24.7363
G01 X11.9548 Y24.7466
G01 X11.9619 Y24.7650
G01 X11.9900 Y24.8435
G01 X11.9962 Y24.8621
G01 X12.0014 Y24.8811
G01 X12.0217 Y24.9620
G01 X12.0260 Y24.9811
G01 X12.0293 Y25.0005
G01 X12.0416 Y25.0830
G01 X12.0440 Y25.1025
G01 X12.0454 Y25.1221
G01 X12.0495 Y25.2054
G01 X12.0500 Y25.2250
G01 X12.0495 Y25.2446
G01 X12.0454 Y25.3279
G01 X12.0440 Y25.3475
G01 X12.0416 Y25.3670
G01 X12.0293 Y25.4495
G01 X12.0260 Y25.4689
G01 X12.0217 Y25.4880
G01 X12.0014 Y25.5689
G01 X11.9962 Y25.5879
G01 X11.9900 Y25.6065
G01 X11.9619 Y25.6850
G01 X11.9548 Y25.7034
G01 X11.9504 Y25.7137
G01 X11.9504 Y43.7863
G01 X11.9548 Y43.7966
G01 X11.9619 Y43.8150
G01 X11.9900 Y43.8935
G01 X11.9962 Y43.9121
G01 X12.0014 Y43.9311
G01 X12.0217 Y44.0120
G01 X12.0260 Y44.0311
G01 X12.0293 Y44.0505
G01 X12.0416 Y44.1330
G01 X12.0440 Y44.1525
G01 X12.0454 Y44.1721
G01 X12.0495 Y44.2554
G01 X12.0500 Y44.2750
G01 X12.0495 Y44.2946
G01 X12.0454 Y44.3779
G01 X12.0440 Y44.3975
G01 X12.0416 Y44.4170
G01 X12.0293 Y44.4995
G01 X12.0260 Y44.5189
G01 X12.0217 Y44.5380
G01 X12.0014 Y44.6189
G01 X11.9962 Y44.6379
G01 X11.9900 Y44.6565
G01 X11.9619 Y44.7350
G01 X11.9548 Y44.7534
G01 X11.9504 Y44.7637
G01 X11.9504 Y62.8363
G01 X11.9548 Y62.8466
G01 X11.9619 Y62.8650
G01 X11.9900 Y62.9435
G01 X11.9962 Y62.9621
G01 X12.0014 Y62.9811
G01 X12.0217 Y63.0620
G01 X12.0260 Y63.0811
G01 X12.0293 Y63.1005
G01 X12.0416 Y63.1830
G01 X12.0440 Y63.2025
G01 X12.0454 Y63.2221
G01 X12.0495 Y63.3054
G01 X12.0500 Y63.3250
G01 X12.0495 Y63.3446
G01 X12.0454 Y63.4279
G01 X12.0440 Y63.4475
G01 X12.0416 Y63.4670
G01 X12.0293 Y63.5495
G01 X12.0260 Y63.5689
G01 X12.0217 Y63.5880
G01 X12.0014 Y63.6689
G01 X11.9962 Y63.6879
G01 X11.9900 Y63.7065
G01 X11.9619 Y63.7850
G01 X11.9548 Y63.8034
G01 X11.9504 Y63.8137
G01 X11.9504 Y74.2785
G01 X16.3565 Y78.6846
G01 X20.4713 Y78.6846
G01 X20.4816 Y78.6802
G01 X20.5000 Y78.6731
G01 X20.5785 Y78.6450
G01 X20.5971 Y78.6388
G01 X20.6161 Y78.6336
G01 X20.6970 Y78.6133
G01 X20.7161 Y78.6090
G01 X20.7355 Y78.6057
G01 X20.8180 Y78.5934
G01 X20.8375 Y78.5910
G01 X20.8571 Y78.5896
G01 X20.9404 Y78.5855
G01 X20.9600 Y78.5850
G01 X20.9796 Y78.5855
G01 X21.0629 Y78.5896
G01 X21.0825 Y78.5910
G01 X21.1020 Y78.5934
G01 X21.1845 Y78.6057
G01 X21.2039 Y78.6090
G01 X21.2230 Y78.6133
G01 X21.3039 Y78.6336
G01 X21.3229 Y78.6388
G01 X21.3415 Y78.6450
G01 X21.4200 Y78.6731
G01 X21.4384 Y78.6802
G01 X21.4487 Y78.6846
G01 X25.5635 Y78.6846
G01 X29.9696 Y74.2785
G01 X29.9696 Y63.8137
G01 X29.9652 Y63.8034
G01 X29.9581 Y63.7850
G01 X29.9300 Y63.7065
G01 X29.9238 Y63.6879
G01 X29.9186 Y63.6689
G01 X29.8983 Y63.5880
G01 X29.8940 Y63.5689
G01 X29.8907 Y63.5495
G01 X29.8784 Y63.4670
G01 X29.8760 Y63.4475
G01 X29.8746 Y63.4279
G01 X29.8705 Y63.3446
G01 X29.8700 Y63.3250
G01 X29.8705 Y63.3054
G01 X29.8746 Y63.2221
G01 X29.8760 Y63.2025
G01 X29.8784 Y63.1830
G01 X29.8907 Y63.1005
G01 X29.8940 Y63.0811
G01 X29.8983 Y63.0620
G01 X29.9186 Y62.9811
G01 X29.9238 Y62.9621
G01 X29.9300 Y62.9435
G01 X29.9581 Y62.8650
G01 X29.9652 Y62.8466
G01 X29.9696 Y62.8363
G01 X29.9696 Y44.7637
G01 X29.9652 Y44.7534
G01 X29.9581 Y44.7350
G01 X29.9300 Y44.6565
G01 X29.9238 Y44.6379
G01 X29.9186 Y44.6189
G01 X29.8983 Y44.5380
G01 X29.8940 Y44.5189
G01 X29.8907 Y44.4995
G01 X29.8784 Y44.4170
G01 X29.8760 Y44.3975
G01 X29.8746 Y44.3779
G01 X29.8705 Y44.2946
G01 X29.8700 Y44.2750
G01 X29.8705 Y44.2554
G01 X29.8746 Y44.1721
G01 X29.8760 Y44.1525
G01 X29.8784 Y44.1330
G01 X29.8907 Y44.0505
G01 X29.8940 Y44.0311
G01 X29.8983 Y44.0120
G01 X29.9186 Y43.9311
G01 X29.9238 Y43.9121
G01 X29.9300 Y43.8935
G01 X29.9581 Y43.8150
G01 X29.9652 Y43.7966
G01 X29.9696 Y43.7863
G01 X29.9696 Y25.7137
G01 X29.9652 Y25.7034
G01 X29.9581 Y25.6850
G01 X29.9300 Y25.6065
G01 X29.9238 Y25.5879
G01 X29.9186 Y25.5689
G01 X29.8983 Y25.4880
G01 X29.8940 Y25.4689
G01 X29.8907 Y25.4495
G01 X29.8784 Y25.3670
G01 X29.8760 Y25.3475
G01 X29.8746 Y25.3279
G01 X29.8705 Y25.2446
G01 X29.8700 Y25.2250
G01 X29.8705 Y25.2054
G01 X29.8746 Y25.1221
G01 X29.8760 Y25.1025
G01 X29.8784 Y25.0830
G01 X29.8907 Y25.0005
G01 X29.8940 Y24.9811
G01 X29.8983 Y24.9620
G01 X29.9186 Y24.8811
G01 X29.9238 Y24.8621
G01 X29.9300 Y24.8435
G01 X29.9581 Y24.7650
G01 X29.9652 Y24.7466
G01 X29.9696 Y24.7363
G01 X29.9696 Y6.6637
G01 X29.9652 Y6.6534
G01 X29.9581 Y6.6350
G01 X29.9300 Y6.5565
G01 X29.9238 Y6.5379
G01 X29.9186 Y6.5189
G01 X29.8983 Y6.4380
G01 X29.8940 Y6.4189
G01 X29.8907 Y6.3995
G01 X29.8784 Y6.3170
G01 X29.8760 Y6.2975
G01 X29.8746 Y6.2779
G01 X29.8705 Y6.1946
G01 X29.8701 Y6.1652
G01 X29.8746 Y6.0721
G01 X29.8760 Y6.0525
G01 X29.8784 Y6.0330
G01 X29.8907 Y5.9505
G01 X29.8940 Y5.9311
G01 X29.8983 Y5.9120
G01 X29.9186 Y5.8311
G01 X29.9238 Y5.8121
G01 X29.9300 Y5.7935
G01 X29.9581 Y5.7150
G01 X29.9652 Y5.6966
G01 X29.9731 Y5.6787
G01 X30.0088 Y5.6033
G01 X30.0176 Y5.5858
G01 X30.0273 Y5.5687
G01 X30.0702 Y5.4971
G01 X30.0807 Y5.4805
G01 X30.0920 Y5.4645
G01 X30.1417 Y5.3975
G01 X30.1537 Y5.3820
G01 X30.1666 Y5.3671
G01 X30.2226 Y5.3053
G01 X30.2361 Y5.2911
G01 X30.2503 Y5.2776
G01 X30.3121 Y5.2216
G01 X30.3270 Y5.2087
G01 X30.3425 Y5.1967
G01 X30.4095 Y5.1470
G01 X30.4255 Y5.1357
G01 X30.4421 Y5.1252
G01 X30.5137 Y5.0823
G01 X30.5308 Y5.0726
G01 X30.5483 Y5.0638
G01 X30.6237 Y5.0281
G01 X30.6416 Y5.0202
G01 X30.6600 Y5.0131
G01 X30.7385 Y4.9850
G01 X30.7571 Y4.9788
G01 X30.7761 Y4.9736
G01 X30.8570 Y4.9533
G01 X30.8761 Y4.9490
G01 X30.8955 Y4.9457
G01 X30.9780 Y4.9334
G01 X30.9975 Y4.9310
G01 X31.0171 Y4.9296
G01 X31.1004 Y4.9255
G01 X31.1200 Y4.9250
G01 X31.1396 Y4.9255
G01 X31.2229 Y4.9296
G01 X31.2425 Y4.9310
G01 X31.2620 Y4.9334
G01 X31.3445 Y4.9457
G01 X31.3639 Y4.9490
G01 X31.3830 Y4.9533
G01 X31.4639 Y4.9736
G01 X31.4829 Y4.9788
G01 X31.5015 Y4.9850
G01 X31.5800 Y5.0131
G01 X31.5984 Y5.0202
G01 X31.6163 Y5.0281
G01 X31.6917 Y5.0638
G01 X31.7092 Y5.0726
G01 X31.7263 Y5.0823
G01 X31.7979 Y5.1252
G01 X31.8145 Y5.1357
G01 X31.8305 Y5.1470
G01 X31.8975 Y5.1967
G01 X31.9205 Y5.2151
G01 X31.9897 Y5.2776
G01 X32.0039 Y5.2911
G01 X32.0174 Y5.3053
G01 X32.0734 Y5.3671
G01 X32.0863 Y5.3820
G01 X32.0983 Y5.3975
G01 X32.1480 Y5.4645
G01 X32.1593 Y5.4805
G01 X32.1698 Y5.4971
G01 X32.2127 Y5.5687
G01 X32.2224 Y5.5858
G01 X32.2312 Y5.6033
G01 X32.2669 Y5.6787
G01 X32.2748 Y5.6966
G01 X32.2819 Y5.7150
G01 X32.3100 Y5.7935
G01 X32.3162 Y5.8121
G01 X32.3214 Y5.8311
G01 X32.3417 Y5.9120
G01 X32.3460 Y5.9311
G01 X32.3493 Y5.9505
G01 X32.3616 Y6.0330
G01 X32.3640 Y6.0525
G01 X32.3654 Y6.0721
G01 X32.3695 Y6.1554
G01 X32.3700 Y6.1750
G01 X32.3695 Y6.1946
G01 X32.3654 Y6.2779
G01 X32.3640 Y6.2975
G01 X32.3616 Y6.3170
G01 X32.3493 Y6.3995
G01 X32.3460 Y6.4189
G01 X32.3417 Y6.4380
G01 X32.3214 Y6.5189
G01 X32.3162 Y6.5379
G01 X32.3100 Y6.5565
G01 X32.2819 Y6.6350
G01 X32.2748 Y6.6534
G01 X32.2704 Y6.6637
G01 X32.2704 Y24.7363
G01 X32.2748 Y24.7466
G01 X32.2819 Y24.7650
G01 X32.3100 Y24.8435
G01 X32.3162 Y24.8621
G01 X32.3214 Y24.8811
G01 X32.3417 Y24.9620
G01 X32.3460 Y24.9811
G01 X32.3493 Y25.0005
G01 X32.3616 Y25.0830
G01 X32.3640 Y25.1025
G01 X32.3654 Y25.1221
G01 X32.3695 Y25.2054
G01 X32.3700 Y25.2250
G01 X32.3695 Y25.2446
G01 X32.3654 Y25.3279
G01 X32.3640 Y25.3475
G01 X32.3616 Y25.3670
G01 X32.3493 Y25.4495
G01 X32.3460 Y25.4689
G01 X32.3417 Y25.4880
G01 X32.3214 Y25.5689
G01 X32.3162 Y25.5879
G01 X32.3100 Y25.6065
G01 X32.2819 Y25.6850
G01 X32.2748 Y25.7034
G01 X32.2704 Y25.7137
G01 X32.2704 Y43.7863
G01 X32.2748 Y43.7966
G01 X32.2819 Y43.8150
G01 X32.3100 Y43.8935
G01 X32.3162 Y43.9121
G01 X32.3214 Y43.9311
G01 X32.3417 Y44.0120
G01 X32.3460 Y44.0311
G01 X32.3493 Y44.0505
G01 X32.3616 Y44.1330
G01 X32.3640 Y44.1525
G01 X32.3654 Y44.1721
G01 X32.3695 Y44.2554
G01 X32.3700 Y44.2750
G01 X32.3695 Y44.2946
G01 X32.3654 Y44.3779
G01 X32.3640 Y44.3975
G01 X32.3616 Y44.4170
G01 X32.3493 Y44.4995
G01 X32.3460 Y44.5189
G01 X32.3417 Y44.5380
G01 X32.3214 Y44.6189
G01 X32.3162 Y44.6379
G01 X32.3100 Y44.6565
G01 X32.2819 Y44.7350
G01 X32.2748 Y44.7534
G01 X32.2704 Y44.7637
G01 X32.2704 Y62.8363
G01 X32.2748 Y62.8466
G01 X32.2819 Y62.8650
G01 X32.3100 Y62.9435
G01 X32.3162 Y62.9621
G01 X32.3214 Y62.9811
G01 X32.3417 Y63.0620
G01 X32.3460 Y63.0811
G01 X32.3493 Y63.1005
G01 X32.3616 Y63.1830
G01 X32.3640 Y63.2025
G01 X32.3654 Y63.2221
G01 X32.3695 Y63.3054
G01 X32.3700 Y63.3250
G01 X32.3695 Y63.3446
G01 X32.3654 Y63.4279
G01 X32.3640 Y63.4475
G01 X32.3616 Y63.4670
G01 X32.3493 Y63.5495
G01 X32.3460 Y63.5689
G01 X32.3417 Y63.5880
G01 X32.3214 Y63.6689
G01 X32.3162 Y63.6879
G01 X32.3100 Y63.7065
G01 X32.2819 Y63.7850
G01 X32.2748 Y63.8034
G01 X32.2704 Y63.8137
G01 X32.2704 Y74.7550
G01 X32.2699 Y74.7746
G01 X32.2657 Y74.8580
G01 X32.2624 Y74.8872
G01 X32.2516 Y74.9601
G01 X32.2483 Y74.9794
G01 X32.2440 Y74.9986
G01 X32.2261 Y75.0700
G01 X32.2208 Y75.0889
G01 X32.2147 Y75.1076
G01 X32.1865 Y75.1861
G01 X32.1749 Y75.2132
G01 X32.1434 Y75.2797
G01 X32.1345 Y75.2973
G01 X32.1249 Y75.3144
G01 X32.0870 Y75.3775
G01 X32.0765 Y75.3941
G01 X32.0652 Y75.4102
G01 X32.0213 Y75.4693
G01 X32.0093 Y75.4848
G01 X31.9964 Y75.4997
G01 X31.9403 Y75.5614
G01 X26.8464 Y80.6553
G01 X26.7773 Y80.7179
G01 X26.7543 Y80.7363
G01 X26.6952 Y80.7802
G01 X26.6791 Y80.7915
G01 X26.6625 Y80.8020
G01 X26.5994 Y80.8399
G01 X26.5823 Y80.8495
G01 X26.5647 Y80.8584
G01 X26.4982 Y80.8899
G01 X26.4802 Y80.8978
G01 X26.4619 Y80.9049
G01 X26.3926 Y80.9297
G01 X26.3739 Y80.9358
G01 X26.3550 Y80.9411
G01 X26.2836 Y80.9590
G01 X26.2644 Y80.9633
G01 X26.2451 Y80.9666
G01 X26.1722 Y80.9774
G01 X26.1528 Y80.9798
G01 X26.1332 Y80.9813
G01 X26.0596 Y80.9849
G01 X26.0400 Y80.9854
G01 X21.4487 Y80.9854
G01 X21.4384 Y80.9898
G01 X21.4200 Y80.9969
G01 X21.3415 Y81.0250
G01 X21.3229 Y81.0312
G01 X21.3039 Y81.0364
G01 X21.2230 Y81.0567
G01 X21.2039 Y81.0610
G01 X21.1845 Y81.0643
G01 X21.1020 Y81.0766
G01 X21.0825 Y81.0790
G01 X21.0629 Y81.0804
G01 X20.9796 Y81.0845
G01 X20.9600 Y81.0850
G01 X20.9404 Y81.0845
G01 X20.8571 Y81.0804
G01 X20.8375 Y81.0790
G01 X20.8180 Y81.0766
G01 X20.7355 Y81.0643
G01 X20.7161 Y81.0610
G01 X20.6970 Y81.0567
G01 X20.6161 Y81.0364
G01 X20.5971 Y81.0312
G01 X20.5785 Y81.0250
G01 X20.5000 Y80.9969
G01 X20.4816 Y80.9898
G01 X20.4713 Y80.9854
G01 X15.8800 Y80.9854
G01 X15.8604 Y80.9849
G01 X15.7868 Y80.9813
G01 X15.7672 Y80.9798
G01 X15.7478 Y80.9774
G01 X15.6749 Y80.9666
G01 X15.6556 Y80.9633
G01 X15.6364 Y80.9590
G01 X15.5555 Y80.9386
G01 X15.5274 Y80.9297
G01 X15.4581 Y80.9049
G01 X15.4398 Y80.8978
G01 X15.4218 Y80.8899
G01 X15.3553 Y80.8584
G01 X15.3291 Y80.8448
G01 X15.2575 Y80.8020
G01 X15.2328 Y80.7859
G01 X15.1579 Y80.7304
G01 X15.1353 Y80.7114
G01 X15.0736 Y80.6553
G01 X9.9866 Y75.5684
G01 X9.9730 Y75.5542
G01 X9.9236 Y75.4997
G01 X9.9107 Y75.4848
G01 X9.8987 Y75.4693
G01 X9.8548 Y75.4102
G01 X9.8435 Y75.3941
G01 X9.8330 Y75.3775
G01 X9.7951 Y75.3144
G01 X9.7855 Y75.2973
G01 X9.7766 Y75.2797
G01 X9.7451 Y75.2132
G01 X9.7372 Y75.1952
G01 X9.7301 Y75.1769
G01 X9.7053 Y75.1076
G01 X9.6992 Y75.0889
G01 X9.6939 Y75.0700
G01 X9.6760 Y74.9986
G01 X9.6717 Y74.9794
G01 X9.6684 Y74.9601
G01 X9.6576 Y74.8872
G01 X9.6552 Y74.8678
G01 X9.6537 Y74.8482
G01 X9.6501 Y74.7746
G01 X9.6496 Y74.7550
G01 X9.6496 Y63.8137
G01 X9.6452 Y63.8034
G01 X9.6381 Y63.7850
G01 X9.6100 Y63.7065
G01 X9.6038 Y63.6879
G01 X9.5986 Y63.6689
G01 X9.5783 Y63.5880
G01 X9.5740 Y63.5689
G01 X9.5707 Y63.5495
G01 X9.5584 Y63.4670
G01 X9.5560 Y63.4475
G01 X9.5546 Y63.4279
G01 X9.5505 Y63.3446
G01 X9.5500 Y63.3250
G01 X9.5505 Y63.3054
G01 X9.5546 Y63.2221
G01 X9.5560 Y63.2025
G01 X9.5584 Y63.1830
G01 X9.5707 Y63.1005
G01 X9.5740 Y63.0811
G01 X9.5783 Y63.0620
G01 X9.5986 Y62.9811
G01 X9.6038 Y62.9621
G01 X9.6100 Y62.9435
G01 X9.6381 Y62.8650
G01 X9.6452 Y62.8466
G01 X9.6496 Y62.8363
G01 X9.6496 Y44.7637
G01 X9.6452 Y44.7534
G01 X9.6381 Y44.7350
G01 X9.6100 Y44.6565
G01 X9.6038 Y44.6379
G01 X9.5986 Y44.6189
G01 X9.5783 Y44.5380
G01 X9.5740 Y44.5189
G01 X9.5707 Y44.4995
G01 X9.5584 Y44.4170
G01 X9.5560 Y44.3975
G01 X9.5546 Y44.3779
G01 X9.5505 Y44.2946
G01 X9.5500 Y44.2750
G01 X9.5505 Y44.2554
G01 X9.5546 Y44.1721
G01 X9.5560 Y44.1525
G01 X9.5584 Y44.1330
G01 X9.5707 Y44.0505
G01 X9.5740 Y44.0311
G01 X9.5783 Y44.0120
G01 X9.5986 Y43.9311
G01 X9.6038 Y43.9121
G01 X9.6100 Y43.8935
G01 X9.6381 Y43.8150
G01 X9.6452 Y43.7966
G01 X9.6496 Y43.7863
G01 X9.6496 Y25.7137
G00 Z2.0000
G00 X12.1896 Y25.7137
G01 F60.00
G01 Z-1.3062
G01 F120.00
G01 X12.1852 Y25.7034
G01 X12.1781 Y25.6850
G01 X12.1500 Y25.6065
G01 X12.1438 Y25.5879
G01 X12.1386 Y25.5689
G01 X12.1183 Y25.4880
G01 X12.1140 Y25.4689
G01 X12.1107 Y25.4495
G01 X12.0984 Y25.3670
G01 X12.0960 Y25.3475
G01 X12.0946 Y25.3279
G01 X12.0905 Y25.2446
G01 X12.0900 Y25.2250
G01 X12.0905 Y25.2054
G01 X12.0946 Y25.1221
G01 X12.0960 Y25.1025
G01 X12.0984 Y25.0830
G01 X12.1107 Y25.0005
G01 X12.1140 Y24.9811
G01 X12.1183 Y24.9620
G01 X12.1386 Y24.8811
G01 X12.1438 Y24.8621
G01 X12.1500 Y24.8435
G01 X12.1781 Y24.7650
G01 X12.1852 Y24.7466
G01 X12.1896 Y24.7363
G01 X12.1896 Y6.6637
G01 X12.1852 Y6.6534
G01 X12.1781 Y6.6350
G01 X12.1500 Y6.5565
G01 X12.1438 Y6.5379
G01 X12.1386 Y6.5189
G01 X12.1183 Y6.4380
G01 X12.1140 Y6.4189
G01 X12.1107 Y6.3995
G01 X12.0971 Y6.3073
G01 X12.0946 Y6.2779
G01 X12.0905 Y6.1946
G01 X12.0900 Y6.1750
G01 X12.0905 Y6.1554
G01 X12.0946 Y6.0721
G01 X12.0960 Y6.0525
G01 X12.0984 Y6.0330
G01 X12.1107 Y5.9505
G01 X12.1140 Y5.9311
G01 X12.1183 Y5.9120
G01 X12.1386 Y5.8311
G01 X12.1438 Y5.8121
G01 X12.1500 Y5.7935
G01 X12.1781 Y5.7150
G01 X12.1852 Y5.6966
G01 X12.1931 Y5.6787
G01 X12.2288 Y5.6033
G01 X12.2376 Y5.5858
G01 X12.2473 Y5.5687
G01 X12.2902 Y5.4971
G01 X12.3007 Y5.4805
G01 X12.3120 Y5.4645
G01 X12.3617 Y5.3975
G01 X12.3737 Y5.3820
G01 X12.3866 Y5.3671
G01 X12.4426 Y5.3053
G01 X12.4561 Y5.2911
G01 X12.4703 Y5.2776
G01 X12.5395 Y5.2151
G01 X12.5625 Y5.1967
G01 X12.6295 Y5.1470
G01 X12.6455 Y5.1357
G01 X12.6621 Y5.1252
G01 X12.7337 Y5.0823
G01 X12.7508 Y5.0726
G01 X12.7683 Y5.0638
G01 X12.8437 Y5.0281
G01 X12.8616 Y5.0202
G01 X12.8800 Y5.0131
G01 X12.9585 Y4.9850
G01 X12.9771 Y4.9788
G01 X12.9961 Y4.9736
G01 X13.0770 Y4.9533
G01 X13.0961 Y4.9490
G01 X13.1155 Y4.9457
G01 X13.1980 Y4.9334
G01 X13.2175 Y4.9310
G01 X13.2371 Y4.9296
G01 X13.3204 Y4.9255
G01 X13.3400 Y4.9250
G01 X13.3596 Y4.9255
G01 X13.4429 Y4.9296
G01 X13.4723 Y4.9321
G01 X13.5742 Y4.9472
G01 X13.6030 Y4.9533
G01 X13.6934 Y4.9761
G01 X13.7215 Y4.9850
G01 X13.8000 Y5.0131
G01 X13.8184 Y5.0202
G01 X13.8363 Y5.0281
G01 X13.9117 Y5.0638
G01 X13.9292 Y5.0726
G01 X13.9463 Y5.0823
G01 X14.0262 Y5.1303
G01 X14.0505 Y5.1470
G01 X14.1175 Y5.1967
G01 X14.1405 Y5.2151
G01 X14.2169 Y5.2843
G01 X14.2374 Y5.3053
G01 X14.2934 Y5.3671
G01 X14.3063 Y5.3820
G01 X14.3183 Y5.3975
G01 X14.3680 Y5.4645
G01 X14.3793 Y5.4805
G01 X14.3898 Y5.4971
G01 X14.4327 Y5.5687
G01 X14.4424 Y5.5858
G01 X14.4512 Y5.6033
G01 X14.4869 Y5.6787
G01 X14.4948 Y5.6966
G01 X14.5019 Y5.7150
G01 X14.5300 Y5.7935
G01 X14.5362 Y5.8121
G01 X14.5414 Y5.8311
G01 X14.5617 Y5.9120
G01 X14.5660 Y5.9311
G01 X14.5693 Y5.9505
G01 X14.5816 Y6.0330
G01 X14.5840 Y6.0525
G01 X14.5854 Y6.0721
G01 X14.5899 Y6.1652
G01 X14.5895 Y6.1946
G01 X14.5854 Y6.2779
G01 X14.5840 Y6.2975
G01 X14.5816 Y6.3170
G01 X14.5693 Y6.3995
G01 X14.5660 Y6.4189
G01 X14.5617 Y6.4380
G01 X14.5414 Y6.5189
G01 X14.5362 Y6.5379
G01 X14.5300 Y6.5565
G01 X14.5019 Y6.6350
G01 X14.4948 Y6.6534
G01 X14.4904 Y6.6637
G01 X14.4904 Y24.7363
G01 X14.4948 Y24.7466
G01 X14.5019 Y24.7650
G01 X14.5300 Y24.8435
G01 X14.5362 Y24.8621
G01 X14.5414 Y24.8811
G01 X14.5617 Y24.9620
G01 X14.5660 Y24.9811
G01 X14.5693 Y25.0005
G01 X14.5816 Y25.0830
G01 X14.5840 Y25.1025
G01 X14.5854 Y25.1221
G01 X14.5895 Y25.2054
G01 X14.5900 Y25.2250
G01 X14.5895 Y25.2446
G01 X14.5854 Y25.3279
G01 X14.5840 Y25.3475
G01 X14.5816 Y25.3670
G01 X14.5693 Y25.4495
G01 X14.5660 Y25.4689
G01 X14.5617 Y25.4880
G01 X14.5414 Y25.5689
G01 X14.5362 Y25.5879
G01 X14.5300 Y25.6065
G01 X14.5019 Y25.6850
G01 X14.4948 Y25.7034
G01 X14.4904 Y25.7137
G01 X14.4904 Y43.7863
G01 X14.4948 Y43.7966
G01 X14.5019 Y43.8150
G01 X14.5300 Y43.8935
G01 X14.5362 Y43.9121
G01 X14.5414 Y43.9311
G01 X14.5617 Y44.0120
G01 X14.5660 Y44.0311
G01 X14.5693 Y44.0505
G01 X14.5816 Y44.1330
G01 X14.5840 Y44.1525
G01 X14.5854 Y44.1721
G01 X14.5895 Y44.2554
G01 X14.5900 Y44.2750
G01 X14.5895 Y44.2946
G01 X14.5854 Y44.3779
G01 X14.5840 Y44.3975
G01 X14.5816 Y44.4170
G01 X14.5693 Y44.4995
G01 X14.5660 Y44.5189
G01 X14.5617 Y44.5380
G01 X14.5414 Y44.6189
G01 X14.5362 Y44.6379
G01 X14.5300 Y44.6565
G01 X14.5019 Y44.7350
G01 X14.4948 Y44.7534
G01 X14.4904 Y44.7637
G01 X14.4904 Y62.8363
G01 X14.4948 Y62.8466
G01 X14.5019 Y62.8650
G01 X14.5300 Y62.9435
G01 X14.5362 Y62.9621
G01 X14.5414 Y62.9811
G01 X14.5617 Y63.0620
G01 X14.5660 Y63.0811
G01 X14.5693 Y63.1005
G01 X14.5816 Y63.1830
G01 X14.5840 Y63.2025
G01 X14.5854 Y63.2221
G01 X14.5895 Y63.3054
G01 X14.5900 Y63.3250
G01 X14.5895 Y63.3446
G01 X14.5854 Y63.4279
G01 X14.5840 Y63.4475
G01 X14.5816 Y63.4670
G01 X14.5693 Y63.5495
G01 X14.5660 Y63.5689
G01 X14.5617 Y63.5880
G01 X14.5414 Y63.6689
G01 X14.5362 Y63.6879
G01 X14.5300 Y63.7065
G01 X14.5019 Y63.7850
G01 X14.4948 Y63.8034
G01 X14.4904 Y63.8137
G01 X14.4904 Y73.0085
G01 X17.6265 Y76.1446
G01 X20.4713 Y76.1446
G01 X20.4816 Y76.1402
G01 X20.5000 Y76.1331
G01 X20.5785 Y76.1050
G01 X20.5971 Y76.0988
G01 X20.6161 Y76.0936
G01 X20.6970 Y76.0733
G01 X20.7161 Y76.0690
G01 X20.7355 Y76.0657
G01 X20.8180 Y76.0534
G01 X20.8375 Y76.0510
G01 X20.8571 Y76.0496
G01 X20.9404 Y76.0455
G01 X20.9600 Y76.0450
G01 X20.9796 Y76.0455
G01 X21.0629 Y76.0496
G01 X21.0825 Y76.0510
G01 X21.1020 Y76.0534
G01 X21.1845 Y76.0657
G01 X21.2039 Y76.0690
G01 X21.2230 Y76.0733
G01 X21.3039 Y76.0936
G01 X21.3229 Y76.0988
G01 X21.3415 Y76.1050
G01 X21.4200 Y76.1331
G01 X21.4384 Y76.1402
G01 X21.4487 Y76.1446
G01 X24.2935 Y76.1446
G01 X27.4296 Y73.0085
G01 X27.4296 Y63.8137
G01 X27.4252 Y63.8034
G01 X27.4181 Y63.7850
G01 X27.3900 Y63.7065
G01 X27.3838 Y63.6879
G01 X27.3786 Y63.6689
G01 X27.3583 Y63.5880
G01 X27.3540 Y63.5689
G01 X27.3507 Y63.5495
G01 X27.3384 Y63.4670
G01 X27.3360 Y63.4475
G01 X27.3346 Y63.4279
G01 X27.3305 Y63.3446
G01 X27.3300 Y63.3250
G01 X27.3305 Y63.3054
G01 X27.3346 Y63.2221
G01 X27.3360 Y63.2025
G01 X27.3384 Y63.1830
G01 X27.3507 Y63.1005
G01 X27.3540 Y63.0811
G01 X27.3583 Y63.0620
G01 X27.3786 Y62.9811
G01 X27.3838 Y62.9621
G01 X27.3900 Y62.9435
G01 X27.4181 Y62.8650
G01 X27.4252 Y62.8466
G01 X27.4296 Y62.8363
G01 X27.4296 Y44.7637
G01 X27.4252 Y44.7534
G01 X27.4181 Y44.7350
G01 X27.3900 Y44.6565
G01 X27.3838 Y44.6379
G01 X27.3786 Y44.6189
G01 X27.3583 Y44.5380
G01 X27.3540 Y44.5189
G01 X27.3507 Y44.4995
G01 X27.3384 Y44.4170
G01 X27.3360 Y44.3975
G01 X27.3346 Y44.3779
G01 X27.3305 Y44.2946
G01 X27.3300 Y44.2750
G01 X27.3305 Y44.2554
G01 X27.3346 Y44.1721
G01 X27.3360 Y44.1525
G01 X27.3384 Y44.1330
G01 X27.3507 Y44.0505
G01 X27.3540 Y44.0311
G01 X27.3583 Y44.0120
G01 X27.3786 Y43.9311
G01 X27.3838 Y43.9121
G01 X27.3900 Y43.8935
G01 X27.4181 Y43.8150
G01 X27.4252 Y43.7966
G01 X27.4296 Y43.7863
G01 X27.4296 Y25.7137
G01 X27.4252 Y25.7034
G01 X27.4181 Y25.6850
G01 X27.3900 Y25.6065
G01 X27.3838 Y25.5879
G01 X27.3786 Y25.5689
G01 X27.3583 Y25.4880
G01 X27.3540 Y25.4689
G01 X27.3507 Y25.4495
G01 X27.3384 Y25.3670
G01 X27.3360 Y25.3475
G01 X27.3346 Y25.3279
G01 X27.3305 Y25.2446
G01 X27.3300 Y25.2250
G01 X27.3305 Y25.2054
G01 X27.3346 Y25.1221
G01 X27.3360 Y25.1025
G01 X27.3384 Y25.0830
G01 X27.3507 Y25.0005
G01 X27.3540 Y24.9811
G01 X27.3583 Y24.9620
G01 X27.3786 Y24.8811
G01 X27.3838 Y24.8621
G01 X27.3900 Y24.8435
G01 X27.4181 Y24.7650
G01 X27.4252 Y24.7466
G01 X27.4296 Y24.7363
G01 X27.4296 Y6.6637
G01 X27.4252 Y6.6534
G01 X27.4181 Y6.6350
G01 X27.3900 Y6.5565
G01 X27.3838 Y6.5379
G01 X27.3786 Y6.5189
G01 X27.3583 Y6.4380
G01 X27.3540 Y6.4189
G01 X27.3507 Y6.3995
G01 X27.3384 Y6.3170
G01 X27.3360 Y6.2975
G01 X27.3346 Y6.2779
G01 X27.3305 Y6.1946
G01 X27.3301 Y6.1652
G01 X27.3346 Y6.0721
G01 X27.3360 Y6.0525
G01 X27.3384 Y6.0330
G01 X27.3507 Y5.9505
G01 X27.3540 Y5.9311
G01 X27.3583 Y5.9120
G01 X27.3786 Y5.8311
G01 X27.3838 Y5.8121
G01 X27.3900 Y5.7935
G01 X27.4181 Y5.7150
G01 X27.4252 Y5.6966
G01 X27.4331 Y5.6787
G01 X27.4688 Y5.6033
G01 X27.4776 Y5.5858
G01 X27.4873 Y5.5687
G01 X27.5302 Y5.4971
G01 X27.5407 Y5.4805
G01 X27.5520 Y5.4645
G01 X27.6017 Y5.3975
G01 X27.6137 Y5.3820
G01 X27.6266 Y5.3671
G01 X27.6826 Y5.3053
G01 X27.6961 Y5.2911
G01 X27.7103 Y5.2776
G01 X27.7721 Y5.2216
G01 X27.7870 Y5.2087
G01 X27.8025 Y5.1967
G01 X27.8695 Y5.1470
G01 X27.8855 Y5.1357
G01 X27.9021 Y5.1252
G01 X27.9737 Y5.0823
G01 X27.9908 Y5.0726
G01 X28.0083 Y5.0638
G01 X28.0837 Y5.0281
G01 X28.1016 Y5.0202
G01 X28.1200 Y5.0131
G01 X28.1985 Y4.9850
G01 X28.2266 Y4.9761
G01 X28.3170 Y4.9533
G01 X28.3361 Y4.9490
G01 X28.3555 Y4.9457
G01 X28.4380 Y4.9334
G01 X28.4575 Y4.9310
G01 X28.4771 Y4.9296
G01 X28.5604 Y4.9255
G01 X28.5800 Y4.9250
G01 X28.5996 Y4.9255
G01 X28.6829 Y4.9296
G01 X28.7025 Y4.9310
G01 X28.7220 Y4.9334
G01 X28.8045 Y4.9457
G01 X28.8239 Y4.9490
G01 X28.8430 Y4.9533
G01 X28.9239 Y4.9736
G01 X28.9429 Y4.9788
G01 X28.9615 Y4.9850
G01 X29.0400 Y5.0131
G01 X29.0584 Y5.0202
G01 X29.0763 Y5.0281
G01 X29.1517 Y5.0638
G01 X29.1692 Y5.0726
G01 X29.1863 Y5.0823
G01 X29.2579 Y5.1252
G01 X29.2745 Y5.1357
G01 X29.2905 Y5.1470
G01 X29.3575 Y5.1967
G01 X29.3730 Y5.2087
G01 X29.3879 Y5.2216
G01 X29.4497 Y5.2776
G01 X29.4639 Y5.2911
G01 X29.4774 Y5.3053
G01 X29.5334 Y5.3671
G01 X29.5463 Y5.3820
G01 X29.5583 Y5.3975
G01 X29.6080 Y5.4645
G01 X29.6193 Y5.4805
G01 X29.6298 Y5.4971
G01 X29.6727 Y5.5687
G01 X29.6869 Y5.5945
G01 X29.7269 Y5.6787
G01 X29.7348 Y5.6966
G01 X29.7419 Y5.7150
G01 X29.7700 Y5.7935
G01 X29.7762 Y5.8121
G01 X29.7814 Y5.8311
G01 X29.8017 Y5.9120
G01 X29.8060 Y5.9311
G01 X29.8093 Y5.9505
G01 X29.8216 Y6.0330
G01 X29.8240 Y6.0525
G01 X29.8254 Y6.0721
G01 X29.8295 Y6.1554
G01 X29.8300 Y6.1750
G01 X29.8295 Y6.1946
G01 X29.8254 Y6.2779
G01 X29.8240 Y6.2975
G01 X29.8216 Y6.3170
G01 X29.8093 Y6.3995
G01 X29.8060 Y6.4189
G01 X29.8017 Y6.4380
G01 X29.7814 Y6.5189
G01 X29.7762 Y6.5379
G01 X29.7700 Y6.5565
G01 X29.7419 Y6.6350
G01 X29.7348 Y6.6534
G01 X29.7304 Y6.6637
G01 X29.7304 Y24.7363
G01 X29.7348 Y24.7466
G01 X29.7419 Y24.7650
G01 X29.7700 Y24.8435
G01 X29.7762 Y24.8621
G01 X29.7814 Y24.8811
G01 X29.8017 Y24.9620
G01 X29.8060 Y24.9811
G01 X29.8093 Y25.0005
G01 X29.8216 Y25.0830
G01 X29.8240 Y25.1025
G01 X29.8254 Y25.1221
G01 X29.8295 Y25.2054
G01 X29.8300 Y25.2250
G01 X29.8295 Y25.2446
G01 X29.8254 Y25.3279
G01 X29.8240 Y25.3475
G01 X29.8216 Y25.3670
G01 X29.8093 Y25.4495
G01 X29.8060 Y25.4689
G01 X29.8017 Y25.4880
G01 X29.7814 Y25.5689
G01 X29.7762 Y25.5879
G01 X29.7700 Y25.6065
G01 X29.7419 Y25.6850
G01 X29.7348 Y25.7034
G01 X29.7304 Y25.7137
G01 X29.7304 Y43.7863
G01 X29.7348 Y43.7966
G01 X29.7419 Y43.8150
G01 X29.7700 Y43.8935
G01 X29.7762 Y43.9121
G01 X29.7814 Y43.9311
G01 X29.8017 Y44.0120
G01 X29.8060 Y44.0311
G01 X29.8093 Y44.0505
G01 X29.8216 Y44.1330
G01 X29.8240 Y44.1525
G01 X29.8254 Y44.1721
G01 X29.8295 Y44.2554
G01 X29.8300 Y44.2750
G01 X29.8295 Y44.2946
G01 X29.8254 Y44.3779
G01 X29.8240 Y44.3975
G01 X29.8216 Y44.4170
G01 X29.8093 Y44.4995
G01 X29.8060 Y44.5189
G01 X29.8017 Y44.5380
G01 X29.7814 Y44.6189
G01 X29.7762 Y44.6379
G01 X29.7700 Y44.6565
G01 X29.7419 Y44.7350
G01 X29.7348 Y44.7534
G01 X29.7304 Y44.7637
G01 X29.7304 Y62.8363
G01 X29.7348 Y62.8466
G01 X29.7419 Y62.8650
G01 X29.7700 Y62.9435
G01 X29.7762 Y62.9621
G01 X29.7814 Y62.9811
G01 X29.8017 Y63.0620
G01 X29.8060 Y63.0811
G01 X29.8093 Y63.1005
G01 X29.8216 Y63.1830
G01 X29.8240 Y63.2025
G01 X29.8254 Y63.2221
G01 X29.8295 Y63.3054
G01 X29.8300 Y63.3250
G01 X29.8295 Y63.3446
G01 X29.8254 Y63.4279
G01 X29.8240 Y63.4475
G01 X29.8216 Y63.4670
G01 X29.8093 Y63.5495
G01 X29.8060 Y63.5689
G01 X29.8017 Y63.5880
G01 X29.7814 Y63.6689
G01 X29.7762 Y63.6879
G01 X29.7700 Y63.7065
G01 X29.7419 Y63.7850
G01 X29.7348 Y63.8034
G01 X29.7304 Y63.8137
G01 X29.7304 Y73.4850
G01 X29.7299 Y73.5046
G01 X29.7263 Y73.5782
G01 X29.7248 Y73.5978
G01 X29.7224 Y73.6172
G01 X29.7101 Y73.6998
G01 X29.7040 Y73.7286
G01 X29.6861 Y73.8000
G01 X29.6808 Y73.8189
G01 X29.6747 Y73.8376
G01 X29.6499 Y73.9069
G01 X29.6389 Y73.9343
G01 X29.6034 Y74.0097
G01 X29.5945 Y74.0273
G01 X29.5849 Y74.0444
G01 X29.5470 Y74.1075
G01 X29.5365 Y74.1241
G01 X29.5252 Y74.1402
G01 X29.4813 Y74.1993
G01 X29.4693 Y74.2148
G01 X29.4564 Y74.2297
G01 X29.4003 Y74.2914
G01 X25.5764 Y78.1153
G01 X25.5147 Y78.1714
G01 X25.4998 Y78.1843
G01 X25.4843 Y78.1963
G01 X25.4252 Y78.2402
G01 X25.4091 Y78.2515
G01 X25.3925 Y78.2620
G01 X25.3294 Y78.2999
G01 X25.3123 Y78.3095
G01 X25.2947 Y78.3184
G01 X25.2282 Y78.3499
G01 X25.2102 Y78.3578
G01 X25.1919 Y78.3649
G01 X25.1226 Y78.3897
G01 X25.1039 Y78.3958
G01 X25.0850 Y78.4011
G01 X25.0136 Y78.4190
G01 X24.9944 Y78.4233
G01 X24.9751 Y78.4266
G01 X24.9022 Y78.4374
G01 X24.8828 Y78.4398
G01 X24.8632 Y78.4413
G01 X24.7896 Y78.4449
G01 X24.7700 Y78.4454
G01 X21.4487 Y78.4454
G01 X21.4384 Y78.4498
G01 X21.4200 Y78.4569
G01 X21.3415 Y78.4850
G01 X21.3229 Y78.4912
G01 X21.3039 Y78.4964
G01 X21.2230 Y78.5167
G01 X21.2039 Y78.5210
G01 X21.1845 Y78.5243
G01 X21.1020 Y78.5366
G01 X21.0825 Y78.5390
G01 X21.0629 Y78.5404
G01 X20.9796 Y78.5445
G01 X20.9600 Y78.5450
G01 X20.9404 Y78.5445
G01 X20.8571 Y78.5404
G01 X20.8375 Y78.5390
G01 X20.8180 Y78.5366
G01 X20.7355 Y78.5243
G01 X20.7161 Y78.5210
G01 X20.6970 Y78.5167
G01 X20.6161 Y78.4964
G01 X20.5971 Y78.4912
G01 X20.5785 Y78.4850
G01 X20.5000 Y78.4569
G01 X20.4816 Y78.4498
G01 X20.4713 Y78.4454
G01 X17.1402 Y78.4453
G01 X17.0568 Y78.4413
G01 X17.0372 Y78.4398
G01 X17.0178 Y78.4374
G01 X16.9449 Y78.4266
G01 X16.9256 Y78.4233
G01 X16.9064 Y78.4190
G01 X16.8350 Y78.4011
G01 X16.8161 Y78.3958
G01 X16.7974 Y78.3897
G01 X16.7281 Y78.3649
G01 X16.7007 Y78.3539
G01 X16.6164 Y78.3141
G01 X16.5906 Y78.2999
G01 X16.5191 Y78.2569
G01 X16.4948 Y78.2402
G01 X16.4357 Y78.1963
G01 X16.4202 Y78.1843
G01 X16.4053 Y78.1714
G01 X16.3436 Y78.1153
G01 X12.5197 Y74.2914
G01 X12.4636 Y74.2297
G01 X12.4507 Y74.2148
G01 X12.4387 Y74.1993
G01 X12.3948 Y74.1402
G01 X12.3835 Y74.1241
G01 X12.3730 Y74.1075
G01 X12.3351 Y74.0444
G01 X12.3255 Y74.0273
G01 X12.3166 Y74.0097
G01 X12.2851 Y73.9432
G01 X12.2772 Y73.9252
G01 X12.2701 Y73.9069
G01 X12.2453 Y73.8376
G01 X12.2392 Y73.8189
G01 X12.2339 Y73.8000
G01 X12.2160 Y73.7286
G01 X12.2117 Y73.7094
G01 X12.2084 Y73.6901
G01 X12.1976 Y73.6172
G01 X12.1952 Y73.5978
G01 X12.1937 Y73.5782
G01 X12.1901 Y73.5046
G01 X12.1896 Y73.4850
G01 X12.1896 Y63.8137
G01 X12.1852 Y63.8034
G01 X12.1781 Y63.7850
G01 X12.1500 Y63.7065
G01 X12.1438 Y63.6879
G01 X12.1386 Y63.6689
G01 X12.1183 Y63.5880
G01 X12.1140 Y63.5689
G01 X12.1107 Y63.5495
G01 X12.0984 Y63.4670
G01 X12.0960 Y63.4475
G01 X12.0946 Y63.4279
G01 X12.0905 Y63.3446
G01 X12.0900 Y63.3250
G01 X12.0905 Y63.3054
G01 X12.0946 Y63.2221
G01 X12.0960 Y63.2025
G01 X12.0984 Y63.1830
G01 X12.1107 Y63.1005
G01 X12.1140 Y63.0811
G01 X12.1183 Y63.0620
G01 X12.1386 Y62.9811
G01 X12.1438 Y62.9621
G01 X12.1500 Y62.9435
G01 X12.1781 Y62.8650
G01 X12.1852 Y62.8466
G01 X12.1896 Y62.8363
G01 X12.1896 Y44.7637
G01 X12.1852 Y44.7534
G01 X12.1781 Y44.7350
G01 X12.1500 Y44.6565
G01 X12.1438 Y44.6379
G01 X12.1386 Y44.6189
G01 X12.1183 Y44.5380
G01 X12.1140 Y44.5189
G01 X12.1107 Y44.4995
G01 X12.0984 Y44.4170
G01 X12.0960 Y44.3975
G01 X12.0946 Y44.3779
G01 X12.0905 Y44.2946
G01 X12.0900 Y44.2750
G01 X12.0905 Y44.2554
G01 X12.0946 Y44.1721
G01 X12.0960 Y44.1525
G01 X12.0984 Y44.1330
G01 X12.1107 Y44.0505
G01 X12.1140 Y44.0311
G01 X12.1183 Y44.0120
G01 X12.1386 Y43.9311
G01 X12.1438 Y43.9121
G01 X12.1500 Y43.8935
G01 X12.1781 Y43.8150
G01 X12.1852 Y43.7966
G01 X12.1896 Y43.7863
G01 X12.1896 Y25.7137
G00 Z2.0000

M05
G00 Z2.0000
G00 Z15.00


