(G-CODE GENERATED BY FLATCAM v8.994 - www.flatcam.org - Version Date: 2020/11/7)

(Name: Power distribution 3pin 1-to-8-Edge_Cuts.gbr_cutout_1_cnc)
(Type: G-code from Geometry)
(Units: MM)

(Created on Saturday, 03 June 2023 at 15:20)

(This preprocessor is the default preprocessor used by FlatCAM.)
(It is made to work with MACH3 compatible motion controllers.)

(TOOL DIAMETER: 1.0 mm)
(Feedrate_XY: 120.0 mm/min)
(Feedrate_Z: 60.0 mm/min)
(Feedrate rapids 1500.0 mm/min)

(Z_Cut: -1.8 mm)
(DepthPerCut: 0.6 mm <=>3 passes)
(Z_Move: 2.0 mm)
(Z Start: None mm)
(Z End: 15.0 mm)
(X,Y End: None mm)
(Steps per circle: 64)
(Preprocessor Geometry: default)

(X range:    2.5300 ...   39.3900  mm)
(Y range:    1.0800 ...   90.0100  mm)

(Spindle Speed: 0.0 RPM)
G21
G90
G94

G01 F120.00

M5
G00 Z15.0000
G00 X0.0000 Y0.0000
T1
M6    
(MSG, Change to Tool Dia = 1.0000)
M0
G00 Z15.0000

M03

(registration hole)
G00 X36.2000 Y85.5500
G01 Z-0.6
G01 Z0
G00 Z2.0000
M0
(pause)

G01 F120.00
G00 X3.1800 Y1.0800
G01 F60.00
G01 Z-0.6000
G01 F120.00
G01 X3.1457 Y1.0809
G01 X3.0871 Y1.0867
G01 X3.0245 Y1.0989
G01 X2.9633 Y1.1172
G01 X2.9043 Y1.1414
G01 X2.8480 Y1.1712
G01 X2.7948 Y1.2065
G01 X2.7453 Y1.2468
G01 X2.7001 Y1.2917
G01 X2.6594 Y1.3408
G01 X2.6238 Y1.3937
G01 X2.5935 Y1.4499
G01 X2.5689 Y1.5087
G01 X2.5501 Y1.5697
G01 X2.5374 Y1.6322
G01 X2.5309 Y1.6957
G01 X2.5300 Y1.7300
G01 X2.5300 Y77.9300
G01 X2.5309 Y77.9643
G01 X2.5367 Y78.0229
G01 X2.5501 Y78.0903
G01 X2.5689 Y78.1513
G01 X2.5914 Y78.2057
G01 X2.6212 Y78.2620
G01 X2.6594 Y78.3192
G01 X2.6968 Y78.3647
G01 X2.7204 Y78.3896
G01 X14.1504 Y89.8196
G01 X14.1753 Y89.8432
G01 X14.2248 Y89.8835
G01 X14.2780 Y89.9188
G01 X14.3299 Y89.9465
G01 X14.3933 Y89.9728
G01 X14.4545 Y89.9911
G01 X14.5171 Y90.0033
G01 X14.5757 Y90.0091
G01 X14.6100 Y90.0100
G01 X27.3100 Y90.0100
G01 X27.3443 Y90.0091
G01 X27.4029 Y90.0033
G01 X27.4703 Y89.9899
G01 X27.5313 Y89.9711
G01 X27.5857 Y89.9486
G01 X27.6420 Y89.9188
G01 X27.6992 Y89.8806
G01 X27.7447 Y89.8432
G01 X27.7696 Y89.8196
G01 X39.1996 Y78.3896
G01 X39.2232 Y78.3647
G01 X39.2635 Y78.3152
G01 X39.2988 Y78.2620
G01 X39.3265 Y78.2101
G01 X39.3528 Y78.1467
G01 X39.3711 Y78.0855
G01 X39.3833 Y78.0229
G01 X39.3891 Y77.9643
G01 X39.3900 Y77.9300
G01 X39.3900 Y1.7300
G01 X39.3891 Y1.6957
G01 X39.3833 Y1.6371
G01 X39.3699 Y1.5697
G01 X39.3511 Y1.5087
G01 X39.3286 Y1.4543
G01 X39.2962 Y1.3937
G01 X39.2606 Y1.3408
G01 X39.2199 Y1.2917
G01 X39.1783 Y1.2501
G01 X39.1292 Y1.2094
G01 X39.0720 Y1.1712
G01 X39.0157 Y1.1414
G01 X38.9567 Y1.1172
G01 X38.8955 Y1.0989
G01 X38.8378 Y1.0874
G01 X38.7743 Y1.0809
G01 X38.7400 Y1.0800
G01 X3.1800 Y1.0800
G00 X3.1800 Y1.0800
G01 F60.00
G01 Z-1.2000
G01 F120.00
G01 X38.7400 Y1.0800
G01 X38.7743 Y1.0809
G01 X38.8378 Y1.0874
G01 X38.8955 Y1.0989
G01 X38.9567 Y1.1172
G01 X39.0157 Y1.1414
G01 X39.0720 Y1.1712
G01 X39.1292 Y1.2094
G01 X39.1783 Y1.2501
G01 X39.2199 Y1.2917
G01 X39.2606 Y1.3408
G01 X39.2962 Y1.3937
G01 X39.3286 Y1.4543
G01 X39.3511 Y1.5087
G01 X39.3699 Y1.5697
G01 X39.3833 Y1.6371
G01 X39.3891 Y1.6957
G01 X39.3900 Y1.7300
G01 X39.3900 Y77.9300
G01 X39.3891 Y77.9643
G01 X39.3833 Y78.0229
G01 X39.3711 Y78.0855
G01 X39.3528 Y78.1467
G01 X39.3265 Y78.2101
G01 X39.2988 Y78.2620
G01 X39.2635 Y78.3152
G01 X39.2232 Y78.3647
G01 X39.1996 Y78.3896
G01 X27.7696 Y89.8196
G01 X27.7447 Y89.8432
G01 X27.6992 Y89.8806
G01 X27.6420 Y89.9188
G01 X27.5857 Y89.9486
G01 X27.5313 Y89.9711
G01 X27.4703 Y89.9899
G01 X27.4029 Y90.0033
G01 X27.3443 Y90.0091
G01 X27.3100 Y90.0100
G01 X14.6100 Y90.0100
G01 X14.5757 Y90.0091
G01 X14.5171 Y90.0033
G01 X14.4545 Y89.9911
G01 X14.3933 Y89.9728
G01 X14.3299 Y89.9465
G01 X14.2780 Y89.9188
G01 X14.2248 Y89.8835
G01 X14.1753 Y89.8432
G01 X14.1504 Y89.8196
G01 X2.7204 Y78.3896
G01 X2.6968 Y78.3647
G01 X2.6594 Y78.3192
G01 X2.6212 Y78.2620
G01 X2.5914 Y78.2057
G01 X2.5689 Y78.1513
G01 X2.5501 Y78.0903
G01 X2.5367 Y78.0229
G01 X2.5309 Y77.9643
G01 X2.5300 Y77.9300
G01 X2.5300 Y1.7300
G01 X2.5309 Y1.6957
G01 X2.5374 Y1.6322
G01 X2.5501 Y1.5697
G01 X2.5689 Y1.5087
G01 X2.5935 Y1.4499
G01 X2.6238 Y1.3937
G01 X2.6594 Y1.3408
G01 X2.7001 Y1.2917
G01 X2.7453 Y1.2468
G01 X2.7948 Y1.2065
G01 X2.8480 Y1.1712
G01 X2.9043 Y1.1414
G01 X2.9633 Y1.1172
G01 X3.0245 Y1.0989
G01 X3.0871 Y1.0867
G01 X3.1457 Y1.0809
G01 X3.1800 Y1.0800
G00 X3.1800 Y1.0800
G01 F60.00
G01 Z-1.8000
G01 F120.00
G01 X3.1457 Y1.0809
G01 X3.0871 Y1.0867
G01 X3.0245 Y1.0989
G01 X2.9633 Y1.1172
G01 X2.9043 Y1.1414
G01 X2.8480 Y1.1712
G01 X2.7948 Y1.2065
G01 X2.7453 Y1.2468
G01 X2.7001 Y1.2917
G01 X2.6594 Y1.3408
G01 X2.6238 Y1.3937
G01 X2.5935 Y1.4499
G01 X2.5689 Y1.5087
G01 X2.5501 Y1.5697
G01 X2.5374 Y1.6322
G01 X2.5309 Y1.6957
G01 X2.5300 Y1.7300
G01 X2.5300 Y77.9300
G01 X2.5309 Y77.9643
G01 X2.5367 Y78.0229
G01 X2.5501 Y78.0903
G01 X2.5689 Y78.1513
G01 X2.5914 Y78.2057
G01 X2.6212 Y78.2620
G01 X2.6594 Y78.3192
G01 X2.6968 Y78.3647
G01 X2.7204 Y78.3896
G01 X14.1504 Y89.8196
G01 X14.1753 Y89.8432
G01 X14.2248 Y89.8835
G01 X14.2780 Y89.9188
G01 X14.3299 Y89.9465
G01 X14.3933 Y89.9728
G01 X14.4545 Y89.9911
G01 X14.5171 Y90.0033
G01 X14.5757 Y90.0091
G01 X14.6100 Y90.0100
G01 X27.3100 Y90.0100
G01 X27.3443 Y90.0091
G01 X27.4029 Y90.0033
G01 X27.4703 Y89.9899
G01 X27.5313 Y89.9711
G01 X27.5857 Y89.9486
G01 X27.6420 Y89.9188
G01 X27.6992 Y89.8806
G01 X27.7447 Y89.8432
G01 X27.7696 Y89.8196
G01 X39.1996 Y78.3896
G01 X39.2232 Y78.3647
G01 X39.2635 Y78.3152
G01 X39.2988 Y78.2620
G01 X39.3265 Y78.2101
G01 X39.3528 Y78.1467
G01 X39.3711 Y78.0855
G01 X39.3833 Y78.0229
G01 X39.3891 Y77.9643
G01 X39.3900 Y77.9300
G01 X39.3900 Y1.7300
G01 X39.3891 Y1.6957
G01 X39.3833 Y1.6371
G01 X39.3699 Y1.5697
G01 X39.3511 Y1.5087
G01 X39.3286 Y1.4543
G01 X39.2962 Y1.3937
G01 X39.2606 Y1.3408
G01 X39.2199 Y1.2917
G01 X39.1783 Y1.2501
G01 X39.1292 Y1.2094
G01 X39.0720 Y1.1712
G01 X39.0157 Y1.1414
G01 X38.9567 Y1.1172
G01 X38.8955 Y1.0989
G01 X38.8378 Y1.0874
G01 X38.7743 Y1.0809
G01 X38.7400 Y1.0800
G01 X3.1800 Y1.0800
G00 Z2.0000
M05
G00 Z2.0000
G00 Z15.00


