(G-CODE GENERATED BY FLATCAM v8.994 - www.flatcam.org - Version Date: 2020/11/7)

(Name: Power distribution 3pin 1-to-8-PTH.drl_cnc)
(Type: G-code from Geometry)
(Units: MM)

(Created on Saturday, 03 June 2023 at 15:11)

(This preprocessor is the default preprocessor used by FlatCAM.)
(It is made to work with MACH3 compatible motion controllers.)


(TOOLS DIAMETER: )
(Tool: 1 -> Dia: 1.0)

(FEEDRATE Z: )
(Tool: 1 -> Feedrate: 300.0)

(FEEDRATE RAPIDS: )
(Tool: 1 -> Feedrate Rapids: 1500)

(Z_CUT: )
(Tool: 1 -> Z_Cut: -1.8)

(Tools Offset: )
(Tool: 1 -> Offset Z: 0.0)

(Z_MOVE: )
(Tool: 1 -> Z_Move: 2)

(Z Toolchange: 15 mm)
(X,Y Toolchange: 0.0000, 0.0000 mm)
(Z Start: None mm)
(Z End: 0.5 mm)
(X,Y End: None mm)
(Steps per circle: 64)
(Preprocessor Excellon: default)

(X range:    7.7600 ...   36.7000  mm)
(Y range:    5.6750 ...   86.0500  mm)

(Spindle Speed: 5000 RPM)
G21
G90
G94

G01 F300.00

M5
G00 Z15.0000
T1
G00 X0.0000 Y0.0000                
M6
(MSG, Change to Tool Dia = 1.0000 ||| Total drills for tool T1 = 28)
M0
G00 Z15.0000

G01 F300.00
M03 S5000

(first hole is off-board, for registration)
G00 X36.2000 Y85.5500
G01 Z-1.8000
G01 Z0
G00 Z2.0000
M0
(pause after registration hole)

G00 X8.2600 Y63.3250
G01 Z-1.8000
G01 Z0
G00 Z2.0000
G00 X10.8000 Y63.3250
G01 Z-1.8000
G01 Z0
G00 Z2.0000
G00 X13.3400 Y63.3250
G01 Z-1.8000
G01 Z0
G00 Z2.0000
G00 X20.9600 Y77.2950
G01 Z-1.8000
G01 Z0
G00 Z2.0000
G00 X20.9600 Y79.8350
G01 Z-1.8000
G01 Z0
G00 Z2.0000
G00 X20.9600 Y82.3750
G01 Z-1.8000
G01 Z0
G00 Z2.0000
G00 X33.6600 Y63.3250
G01 Z-1.8000
G01 Z0
G00 Z2.0000
G00 X31.1200 Y63.3250
G01 Z-1.8000
G01 Z0
G00 Z2.0000
G00 X28.5800 Y63.3250
G01 Z-1.8000
G01 Z0
G00 Z2.0000
G00 X33.6600 Y44.2750
G01 Z-1.8000
G01 Z0
G00 Z2.0000
G00 X31.1200 Y44.2750
G01 Z-1.8000
G01 Z0
G00 Z2.0000
G00 X28.5800 Y44.2750
G01 Z-1.8000
G01 Z0
G00 Z2.0000
G00 X28.5800 Y25.2250
G01 Z-1.8000
G01 Z0
G00 Z2.0000
G00 X31.1200 Y25.2250
G01 Z-1.8000
G01 Z0
G00 Z2.0000
G00 X33.6600 Y25.2250
G01 Z-1.8000
G01 Z0
G00 Z2.0000
G00 X33.6600 Y6.1750
G01 Z-1.8000
G01 Z0
G00 Z2.0000
G00 X31.1200 Y6.1750
G01 Z-1.8000
G01 Z0
G00 Z2.0000
G00 X28.5800 Y6.1750
G01 Z-1.8000
G01 Z0
G00 Z2.0000
G00 X13.3400 Y6.1750
G01 Z-1.8000
G01 Z0
G00 Z2.0000
G00 X10.8000 Y6.1750
G01 Z-1.8000
G01 Z0
G00 Z2.0000
G00 X8.2600 Y6.1750
G01 Z-1.8000
G01 Z0
G00 Z2.0000
G00 X8.2600 Y25.2250
G01 Z-1.8000
G01 Z0
G00 Z2.0000
G00 X10.8000 Y25.2250
G01 Z-1.8000
G01 Z0
G00 Z2.0000
G00 X13.3400 Y25.2250
G01 Z-1.8000
G01 Z0
G00 Z2.0000
G00 X8.2600 Y44.2750
G01 Z-1.8000
G01 Z0
G00 Z2.0000
G00 X10.8000 Y44.2750
G01 Z-1.8000
G01 Z0
G00 Z2.0000
G00 X13.3400 Y44.2750
G01 Z-1.8000
G01 Z0
G00 Z2.0000
M05
G00 Z0.50


